[0m[ INFO] [1521786645.334081484]: Current Poseposition: 
  x: 0.35522
  y: 0.565945
  z: 0.499716
orientation: 
  x: -0.456355
  y: 0.534929
  z: 0.295558
  w: 0.646712
[0m
[0m[ INFO] [1521786645.334122135]:  Poseposition: 
  x: 0.35522
  y: 0.565945
  z: 0.499716
orientation: 
  x: -0.456355
  y: 0.534929
  z: 0.295558
  w: 0.646712
[0m
[0m[ INFO] [1521786645.334141627]: Reveiving New Data Now![0m
[0m[ INFO] [1521786645.334225883]: Sending msg speedl([-0.000223572,0.000482341,-0.00070353,0,0,0],1.2,0.2)
[0m
[0m[ INFO] [1521786645.334299366]: Current Poseposition: 
  x: 0.355261
  y: 0.565888
  z: 0.499723
orientation: 
  x: -0.456374
  y: 0.534907
  z: 0.29551
  w: 0.646738
[0m
[0m[ INFO] [1521786645.334325365]:  Poseposition: 
  x: 0.355217
  y: 0.565985
  z: 0.499582
orientation: 
  x: -0.456355
  y: 0.534929
  z: 0.295558
  w: 0.646712
[0m
[0m[ INFO] [1521786645.353175806]: Reveiving New Data Now![0m
[0m[ INFO] [1521786645.353266658]: Sending msg speedl([-0.000133165,0.000586328,-0.00111726,0,0,0],1.2,0.2)
[0m
[0m[ INFO] [1521786645.353337625]: Current Poseposition: 
  x: 0.355286
  y: 0.565868
  z: 0.499725
orientation: 
  x: -0.456355
  y: 0.534912
  z: 0.295507
  w: 0.646749
[0m
[0m[ INFO] [1521786645.353365391]:  Poseposition: 
  x: 0.35526
  y: 0.565985
  z: 0.499502
orientation: 
  x: -0.456355
  y: 0.534929
  z: 0.295558
  w: 0.646712
[0m
[0m[ INFO] [1521786645.384667903]: Reveiving New Data Now![0m
[0m[ INFO] [1521786645.384749204]: Sending msg speedl([-0.000133038,0.000674375,-0.00170239,0,0,0],1.2,0.2)
[0m
[0m[ INFO] [1521786645.384829343]: Current Poseposition: 
  x: 0.355281
  y: 0.565876
  z: 0.499734
orientation: 
  x: -0.456352
  y: 0.534904
  z: 0.295515
  w: 0.646754
[0m
[0m[ INFO] [1521786645.384859041]:  Poseposition: 
  x: 0.355254
  y: 0.566011
  z: 0.499394
orientation: 
  x: -0.456355
  y: 0.534929
  z: 0.295558
  w: 0.646712
[0m
[0m[ INFO] [1521786645.415052534]: Reveiving New Data Now![0m
[0m[ INFO] [1521786645.415128113]: Sending msg speedl([0.000573389,0.000543501,-0.00200637,0,0,0],1.2,0.2)
[0m
[0m[ INFO] [1521786645.415174530]: Current Poseposition: 
  x: 0.355281
  y: 0.565881
  z: 0.499737
orientation: 
  x: -0.456368
  y: 0.534907
  z: 0.295508
  w: 0.646744
[0m
[0m[ INFO] [1521786645.415200829]:  Poseposition: 
  x: 0.355396
  y: 0.565989
  z: 0.499336
orientation: 
  x: -0.456355
  y: 0.534929
  z: 0.295558
  w: 0.646712
[0m
[0m[ INFO] [1521786645.445635153]: Reveiving New Data Now![0m
[0m[ INFO] [1521786645.445692115]: Sending msg speedl([0.000487483,0.00079044,-0.00329215,0,0,0],1.2,0.2)
[0m
[0m[ INFO] [1521786645.445717660]: Current Poseposition: 
  x: 0.355281
  y: 0.565897
  z: 0.499721
orientation: 
  x: -0.456342
  y: 0.534912
  z: 0.295519
  w: 0.646753
[0m
[0m[ INFO] [1521786645.445740020]:  Poseposition: 
  x: 0.355379
  y: 0.566055
  z: 0.499063
orientation: 
  x: -0.456355
  y: 0.534929
  z: 0.295558
  w: 0.646712
[0m
[0m[ INFO] [1521786645.475929003]: Reveiving New Data Now![0m
[0m[ INFO] [1521786645.476016078]: Sending msg speedl([0.000306417,0.0009223,-0.0038042,0,0,0],1.2,0.2)
[0m
[0m[ INFO] [1521786645.476042494]: Current Poseposition: 
  x: 0.355277
  y: 0.565884
  z: 0.499711
orientation: 
  x: -0.456339
  y: 0.534898
  z: 0.295518
  w: 0.646767
[0m
[0m[ INFO] [1521786645.476061299]:  Poseposition: 
  x: 0.355339
  y: 0.566069
  z: 0.49895
orientation: 
  x: -0.456355
  y: 0.534929
  z: 0.295558
  w: 0.646712
[0m
[0m[ INFO] [1521786645.506140890]: Reveiving New Data Now![0m
[0m[ INFO] [1521786645.506200780]: Sending msg speedl([-0.000501949,0.000904164,-0.00420777,0,0,0],1.2,0.2)
[0m
[0m[ INFO] [1521786645.506231579]: Current Poseposition: 
  x: 0.355297
  y: 0.565918
  z: 0.499654
orientation: 
  x: -0.456319
  y: 0.534904
  z: 0.295523
  w: 0.646774
[0m
[0m[ INFO] [1521786645.506246996]:  Poseposition: 
  x: 0.355196
  y: 0.566099
  z: 0.498812
orientation: 
  x: -0.456355
  y: 0.534929
  z: 0.295558
  w: 0.646712
[0m
[0m[ INFO] [1521786645.536389588]: Reveiving New Data Now![0m
[0m[ INFO] [1521786645.536456146]: Sending msg speedl([0.000136606,0.000708949,-0.00374408,0,0,0],1.2,0.2)
[0m
[0m[ INFO] [1521786645.536490935]: Current Poseposition: 
  x: 0.355271
  y: 0.565941
  z: 0.499586
orientation: 
  x: -0.4563
  y: 0.534854
  z: 0.295558
  w: 0.646813
[0m
[0m[ INFO] [1521786645.536515678]:  Poseposition: 
  x: 0.355299
  y: 0.566083
  z: 0.498838
orientation: 
  x: -0.456355
  y: 0.534929
  z: 0.295558
  w: 0.646712
[0m
[0m[ INFO] [1521786645.566882300]: Reveiving New Data Now![0m
[0m[ INFO] [1521786645.566944511]: Sending msg speedl([4.17513e-05,0.000758561,-0.00296322,0,0,0],1.2,0.2)
[0m
[0m[ INFO] [1521786645.566983415]: Current Poseposition: 
  x: 0.355291
  y: 0.565915
  z: 0.499483
orientation: 
  x: -0.456284
  y: 0.534884
  z: 0.295536
  w: 0.64681
[0m
[0m[ INFO] [1521786645.567006633]:  Poseposition: 
  x: 0.3553
  y: 0.566067
  z: 0.498891
orientation: 
  x: -0.456355
  y: 0.534929
  z: 0.295558
  w: 0.646712
[0m
[0m[ INFO] [1521786645.597115277]: Reveiving New Data Now![0m
[0m[ INFO] [1521786645.597191348]: Sending msg speedl([0.00011868,0.000624475,-0.0024963,0,0,0],1.2,0.2)
[0m
[0m[ INFO] [1521786645.597223398]: Current Poseposition: 
  x: 0.355277
  y: 0.565933
  z: 0.499417
orientation: 
  x: -0.456294
  y: 0.534837
  z: 0.295552
  w: 0.646834
[0m
[0m[ INFO] [1521786645.597239134]:  Poseposition: 
  x: 0.355301
  y: 0.566058
  z: 0.498918
orientation: 
  x: -0.456355
  y: 0.534929
  z: 0.295558
  w: 0.646712
[0m
[0m[ INFO] [1521786645.628201318]: Reveiving New Data Now![0m
[0m[ INFO] [1521786645.628260667]: Sending msg speedl([0.000232473,0.000214829,-0.00156446,0,0,0],1.2,0.2)
[0m
[0m[ INFO] [1521786645.628295667]: Current Poseposition: 
  x: 0.355305
  y: 0.565964
  z: 0.499339
orientation: 
  x: -0.456284
  y: 0.534873
  z: 0.29554
  w: 0.646817
[0m
[0m[ INFO] [1521786645.628312808]:  Poseposition: 
  x: 0.355351
  y: 0.566007
  z: 0.499026
orientation: 
  x: -0.456355
  y: 0.534929
  z: 0.295558
  w: 0.646712
[0m
[0m[ INFO] [1521786645.658556678]: Reveiving New Data Now![0m
[0m[ INFO] [1521786645.658632459]: Sending msg speedl([0.00119939,-0.000174307,0.00010047,0,0,0],1.2,0.2)
[0m
[0m[ INFO] [1521786645.658675840]: Current Poseposition: 
  x: 0.355283
  y: 0.565964
  z: 0.49928
orientation: 
  x: -0.456291
  y: 0.534862
  z: 0.295539
  w: 0.646822
[0m
[0m[ INFO] [1521786645.658701310]:  Poseposition: 
  x: 0.355523
  y: 0.565929
  z: 0.4993
orientation: 
  x: -0.456355
  y: 0.534929
  z: 0.295558
  w: 0.646712
[0m
[0m[ INFO] [1521786645.688727659]: Reveiving New Data Now![0m
[0m[ INFO] [1521786645.688797914]: Sending msg speedl([0.00109249,-0.000269202,0.000866404,0,0,0],1.2,0.2)
[0m
[0m[ INFO] [1521786645.688840190]: Current Poseposition: 
  x: 0.355292
  y: 0.565971
  z: 0.499239
orientation: 
  x: -0.456329
  y: 0.534868
  z: 0.29555
  w: 0.646785
[0m
[0m[ INFO] [1521786645.688865431]:  Poseposition: 
  x: 0.35551
  y: 0.565917
  z: 0.499412
orientation: 
  x: -0.456355
  y: 0.534929
  z: 0.295558
  w: 0.646712
[0m
[0m[ INFO] [1521786645.719091085]: Reveiving New Data Now![0m
[0m[ INFO] [1521786645.719147292]: Sending msg speedl([0.00149467,-0.000718041,0.00257929,0,0,0],1.2,0.2)
[0m
[0m[ INFO] [1521786645.719185005]: Current Poseposition: 
  x: 0.355306
  y: 0.56597
  z: 0.4992
orientation: 
  x: -0.45632
  y: 0.53487
  z: 0.295559
  w: 0.646785
[0m
[0m[ INFO] [1521786645.719211407]:  Poseposition: 
  x: 0.355604
  y: 0.565827
  z: 0.499716
orientation: 
  x: -0.456355
  y: 0.534929
  z: 0.295558
  w: 0.646712
[0m
[0m[ INFO] [1521786645.749471648]: Reveiving New Data Now![0m
[0m[ INFO] [1521786645.749534032]: Sending msg speedl([0.00155851,-0.000796277,0.00314119,0,0,0],1.2,0.2)
[0m
[0m[ INFO] [1521786645.749575891]: Current Poseposition: 
  x: 0.355352
  y: 0.565956
  z: 0.499198
orientation: 
  x: -0.456329
  y: 0.534906
  z: 0.295499
  w: 0.646776
[0m
[0m[ INFO] [1521786645.749602621]:  Poseposition: 
  x: 0.355664
  y: 0.565797
  z: 0.499826
orientation: 
  x: -0.456355
  y: 0.534929
  z: 0.295558
  w: 0.646712
[0m
[0m[ INFO] [1521786645.779788118]: Reveiving New Data Now![0m
[0m[ INFO] [1521786645.779843036]: Sending msg speedl([0.00154137,-0.000786646,0.00331018,0,0,0],1.2,0.2)
[0m
[0m[ INFO] [1521786645.779879276]: Current Poseposition: 
  x: 0.355366
  y: 0.565956
  z: 0.499222
orientation: 
  x: -0.456365
  y: 0.534892
  z: 0.295507
  w: 0.646759
[0m
[0m[ INFO] [1521786645.779905891]:  Poseposition: 
  x: 0.355674
  y: 0.565799
  z: 0.499884
orientation: 
  x: -0.456355
  y: 0.534929
  z: 0.295558
  w: 0.646712
[0m
[0m[ INFO] [1521786645.810508797]: Reveiving New Data Now![0m
[0m[ INFO] [1521786645.810587170]: Sending msg speedl([0.00105281,-0.000638862,0.00259029,0,0,0],1.2,0.2)
[0m
[0m[ INFO] [1521786645.810633868]: Current Poseposition: 
  x: 0.355407
  y: 0.565938
  z: 0.49931
orientation: 
  x: -0.456304
  y: 0.5349
  z: 0.295537
  w: 0.646782
[0m
[0m[ INFO] [1521786645.810660487]:  Poseposition: 
  x: 0.355617
  y: 0.565811
  z: 0.499829
orientation: 
  x: -0.456355
  y: 0.534929
  z: 0.295558
  w: 0.646712
[0m
[0m[ INFO] [1521786645.841062804]: Reveiving New Data Now![0m
[0m[ INFO] [1521786645.841139697]: Sending msg speedl([0.000390205,-0.000388106,0.00175016,0,0,0],1.2,0.2)
[0m
[0m[ INFO] [1521786645.841184896]: Current Poseposition: 
  x: 0.355429
  y: 0.565936
  z: 0.49934
orientation: 
  x: -0.456327
  y: 0.534898
  z: 0.295499
  w: 0.646785
[0m
[0m[ INFO] [1521786645.841209405]:  Poseposition: 
  x: 0.355507
  y: 0.565858
  z: 0.49969
orientation: 
  x: -0.456355
  y: 0.534929
  z: 0.295558
  w: 0.646712
[0m
[0m[ INFO] [1521786645.871513619]: Reveiving New Data Now![0m
[0m[ INFO] [1521786645.871602739]: Sending msg speedl([8.68244e-06,-0.000188054,0.00105094,0,0,0],1.2,0.2)
[0m
[0m[ INFO] [1521786645.871637846]: Current Poseposition: 
  x: 0.35545
  y: 0.565925
  z: 0.499397
orientation: 
  x: -0.456291
  y: 0.534911
  z: 0.295514
  w: 0.646792
[0m
[0m[ INFO] [1521786645.871662273]:  Poseposition: 
  x: 0.355451
  y: 0.565887
  z: 0.499608
orientation: 
  x: -0.456355
  y: 0.534929
  z: 0.295558
  w: 0.646712
[0m
[0m[ INFO] [1521786645.901742699]: Reveiving New Data Now![0m
[0m[ INFO] [1521786645.901809205]: Sending msg speedl([-0.000194506,-3.07493e-05,0.000601587,0,0,0],1.2,0.2)
[0m
[0m[ INFO] [1521786645.901847564]: Current Poseposition: 
  x: 0.355466
  y: 0.565924
  z: 0.499432
orientation: 
  x: -0.456304
  y: 0.534894
  z: 0.295527
  w: 0.646791
[0m
[0m[ INFO] [1521786645.901863593]:  Poseposition: 
  x: 0.355427
  y: 0.565917
  z: 0.499552
orientation: 
  x: -0.456355
  y: 0.534929
  z: 0.295558
  w: 0.646712
[0m
[0m[ INFO] [1521786645.932055128]: Reveiving New Data Now![0m
[0m[ INFO] [1521786645.932112264]: Sending msg speedl([-0.000144817,0.000257244,9.60251e-05,0,0,0],1.2,0.2)
[0m
[0m[ INFO] [1521786645.932144671]: Current Poseposition: 
  x: 0.35544
  y: 0.565929
  z: 0.49943
orientation: 
  x: -0.456307
  y: 0.534903
  z: 0.295527
  w: 0.646782
[0m
[0m[ INFO] [1521786645.932160396]:  Poseposition: 
  x: 0.355411
  y: 0.565981
  z: 0.499449
orientation: 
  x: -0.456355
  y: 0.534929
  z: 0.295558
  w: 0.646712
[0m
[0m[ INFO] [1521786645.962714039]: Reveiving New Data Now![0m
[0m[ INFO] [1521786645.962772238]: Sending msg speedl([0.000457312,-1.99336e-05,0.000345571,0,0,0],1.2,0.2)
[0m
[0m[ INFO] [1521786645.962798083]: Current Poseposition: 
  x: 0.355482
  y: 0.565955
  z: 0.499488
orientation: 
  x: -0.456298
  y: 0.534889
  z: 0.295532
  w: 0.646798
[0m
[0m[ INFO] [1521786645.962819502]:  Poseposition: 
  x: 0.355573
  y: 0.565951
  z: 0.499557
orientation: 
  x: -0.456355
  y: 0.534929
  z: 0.295558
  w: 0.646712
[0m
[0m[ INFO] [1521786645.994966956]: Reveiving New Data Now![0m
[0m[ INFO] [1521786645.995021906]: Sending msg speedl([0.00146279,5.7493e-05,0.000235498,0,0,0],1.2,0.2)
[0m
[0m[ INFO] [1521786645.995056059]: Current Poseposition: 
  x: 0.35547
  y: 0.565955
  z: 0.49951
orientation: 
  x: -0.456291
  y: 0.534883
  z: 0.295521
  w: 0.646812
[0m
[0m[ INFO] [1521786645.995072352]:  Poseposition: 
  x: 0.355763
  y: 0.565966
  z: 0.499557
orientation: 
  x: -0.456355
  y: 0.534929
  z: 0.295558
  w: 0.646712
[0m
[0m[ INFO] [1521786646.025204369]: Reveiving New Data Now![0m
[0m[ INFO] [1521786646.025289356]: Sending msg speedl([0.001424,0.000121592,-0.000310644,0,0,0],1.2,0.2)
[0m
[0m[ INFO] [1521786646.025329128]: Current Poseposition: 
  x: 0.355502
  y: 0.565973
  z: 0.499536
orientation: 
  x: -0.456298
  y: 0.534883
  z: 0.295522
  w: 0.646807
[0m
[0m[ INFO] [1521786646.025353169]:  Poseposition: 
  x: 0.355787
  y: 0.565997
  z: 0.499474
orientation: 
  x: -0.456355
  y: 0.534929
  z: 0.295558
  w: 0.646712
[0m
[0m[ INFO] [1521786646.055708544]: Reveiving New Data Now![0m
[0m[ INFO] [1521786646.055784026]: Sending msg speedl([0.00120165,0.000135871,-0.000596121,0,0,0],1.2,0.2)
[0m
[0m[ INFO] [1521786646.055821471]: Current Poseposition: 
  x: 0.355569
  y: 0.565977
  z: 0.499564
orientation: 
  x: -0.45626
  y: 0.534882
  z: 0.295536
  w: 0.646828
[0m
[0m[ INFO] [1521786646.055837601]:  Poseposition: 
  x: 0.35581
  y: 0.566004
  z: 0.499444
orientation: 
  x: -0.456355
  y: 0.534929
  z: 0.295558
  w: 0.646712
[0m
[0m[ INFO] [1521786646.086009818]: Reveiving New Data Now![0m
[0m[ INFO] [1521786646.086082541]: Sending msg speedl([0.00211067,-0.000280478,7.05207e-05,0,0,0],1.2,0.2)
[0m
[0m[ INFO] [1521786646.086124847]: Current Poseposition: 
  x: 0.355605
  y: 0.565972
  z: 0.499532
orientation: 
  x: -0.456292
  y: 0.534882
  z: 0.295536
  w: 0.646806
[0m
[0m[ INFO] [1521786646.086150422]:  Poseposition: 
  x: 0.356027
  y: 0.565916
  z: 0.499546
orientation: 
  x: -0.456355
  y: 0.534929
  z: 0.295558
  w: 0.646712
[0m
[0m[ INFO] [1521786646.118767543]: Reveiving New Data Now![0m
[0m[ INFO] [1521786646.118845427]: Sending msg speedl([0.00265193,-0.000501573,0.000126398,0,0,0],1.2,0.2)
[0m
[0m[ INFO] [1521786646.118888977]: Current Poseposition: 
  x: 0.355614
  y: 0.565984
  z: 0.499516
orientation: 
  x: -0.456302
  y: 0.534885
  z: 0.295535
  w: 0.646797
[0m
[0m[ INFO] [1521786646.118915221]:  Poseposition: 
  x: 0.356145
  y: 0.565884
  z: 0.499541
orientation: 
  x: -0.456355
  y: 0.534929
  z: 0.295558
  w: 0.646712
[0m
[0m[ INFO] [1521786646.149104788]: Reveiving New Data Now![0m
[0m[ INFO] [1521786646.149182713]: Sending msg speedl([0.00266049,-0.0014245,0.00140344,0,0,0],1.2,0.2)
[0m
[0m[ INFO] [1521786646.149226590]: Current Poseposition: 
  x: 0.355727
  y: 0.565969
  z: 0.499538
orientation: 
  x: -0.456279
  y: 0.534898
  z: 0.295513
  w: 0.646811
[0m
[0m[ INFO] [1521786646.149247199]:  Poseposition: 
  x: 0.356259
  y: 0.565684
  z: 0.499819
orientation: 
  x: -0.456355
  y: 0.534929
  z: 0.295558
  w: 0.646712
[0m
[0m[ INFO] [1521786646.179543568]: Reveiving New Data Now![0m
[0m[ INFO] [1521786646.179616415]: Sending msg speedl([0.00207529,-0.00121277,0.00101622,0,0,0],1.2,0.2)
[0m
[0m[ INFO] [1521786646.179659596]: Current Poseposition: 
  x: 0.355787
  y: 0.565938
  z: 0.49956
orientation: 
  x: -0.456289
  y: 0.534912
  z: 0.295508
  w: 0.646795
[0m
[0m[ INFO] [1521786646.179684985]:  Poseposition: 
  x: 0.356202
  y: 0.565695
  z: 0.499763
orientation: 
  x: -0.456355
  y: 0.534929
  z: 0.295558
  w: 0.646712
[0m
[0m[ INFO] [1521786646.209861554]: Reveiving New Data Now![0m
[0m[ INFO] [1521786646.209932464]: Sending msg speedl([0.00261339,-0.00173962,0.00203695,0,0,0],1.2,0.2)
[0m
[0m[ INFO] [1521786646.209974865]: Current Poseposition: 
  x: 0.355887
  y: 0.565877
  z: 0.499612
orientation: 
  x: -0.456255
  y: 0.534914
  z: 0.295495
  w: 0.646824
[0m
[0m[ INFO] [1521786646.210001523]:  Poseposition: 
  x: 0.356409
  y: 0.565529
  z: 0.50002
orientation: 
  x: -0.456355
  y: 0.534929
  z: 0.295558
  w: 0.646712
[0m
[0m[ INFO] [1521786646.241410609]: Reveiving New Data Now![0m
[0m[ INFO] [1521786646.241485490]: Sending msg speedl([0.00263814,-0.00235691,0.00348379,0,0,0],1.2,0.2)
[0m
[0m[ INFO] [1521786646.241529959]: Current Poseposition: 
  x: 0.355984
  y: 0.565825
  z: 0.499631
orientation: 
  x: -0.456284
  y: 0.534933
  z: 0.295458
  w: 0.646805
[0m
[0m[ INFO] [1521786646.241556031]:  Poseposition: 
  x: 0.356512
  y: 0.565353
  z: 0.500327
orientation: 
  x: -0.456355
  y: 0.534929
  z: 0.295558
  w: 0.646712
[0m
[0m[ INFO] [1521786646.272182967]: Reveiving New Data Now![0m
[0m[ INFO] [1521786646.272284874]: Sending msg speedl([0.00251354,-0.00338986,0.00480563,0,0,0],1.2,0.2)
[0m
[0m[ INFO] [1521786646.272330019]: Current Poseposition: 
  x: 0.35604
  y: 0.565797
  z: 0.499721
orientation: 
  x: -0.456294
  y: 0.534908
  z: 0.295472
  w: 0.646812
[0m
[0m[ INFO] [1521786646.272355603]:  Poseposition: 
  x: 0.356543
  y: 0.565119
  z: 0.500682
orientation: 
  x: -0.456355
  y: 0.534929
  z: 0.295558
  w: 0.646712
[0m
[0m[ INFO] [1521786646.302294374]: Reveiving New Data Now![0m
[0m[ INFO] [1521786646.302389886]: Sending msg speedl([0.00195063,-0.00380204,0.00518243,0,0,0],1.2,0.2)
[0m
[0m[ INFO] [1521786646.302434903]: Current Poseposition: 
  x: 0.356117
  y: 0.565745
  z: 0.499793
orientation: 
  x: -0.45632
  y: 0.53493
  z: 0.295484
  w: 0.64677
[0m
[0m[ INFO] [1521786646.302918620]:  Poseposition: 
  x: 0.356507
  y: 0.564985
  z: 0.500829
orientation: 
  x: -0.456355
  y: 0.534929
  z: 0.295558
  w: 0.646712
[0m
[0m[ INFO] [1521786646.332770693]: Reveiving New Data Now![0m
[0m[ INFO] [1521786646.332853582]: Sending msg speedl([0.00192204,-0.00433466,0.00607797,0,0,0],1.2,0.2)
[0m
[0m[ INFO] [1521786646.332896382]: Current Poseposition: 
  x: 0.356184
  y: 0.565646
  z: 0.499916
orientation: 
  x: -0.456349
  y: 0.534954
  z: 0.295463
  w: 0.646739
[0m
[0m[ INFO] [1521786646.332920433]:  Poseposition: 
  x: 0.356568
  y: 0.564779
  z: 0.501131
orientation: 
  x: -0.456355
  y: 0.534929
  z: 0.295558
  w: 0.646712
[0m
[0m[ INFO] [1521786646.363001728]: Reveiving New Data Now![0m
[0m[ INFO] [1521786646.363075655]: Sending msg speedl([0.00111757,-0.003556,0.00494096,0,0,0],1.2,0.2)
[0m
[0m[ INFO] [1521786646.363117231]: Current Poseposition: 
  x: 0.35626
  y: 0.565499
  z: 0.500088
orientation: 
  x: -0.456321
  y: 0.534979
  z: 0.295427
  w: 0.646755
[0m
[0m[ INFO] [1521786646.363142668]:  Poseposition: 
  x: 0.356484
  y: 0.564787
  z: 0.501076
orientation: 
  x: -0.456355
  y: 0.534929
  z: 0.295558
  w: 0.646712
[0m
[0m[ INFO] [1521786646.393439506]: Reveiving New Data Now![0m
[0m[ INFO] [1521786646.393508359]: Sending msg speedl([0.000400847,-0.00427089,0.00609053,0,0,0],1.2,0.2)
[0m
[0m[ INFO] [1521786646.393550822]: Current Poseposition: 
  x: 0.356302
  y: 0.56541
  z: 0.500236
orientation: 
  x: -0.456331
  y: 0.534965
  z: 0.295421
  w: 0.646762
[0m
[0m[ INFO] [1521786646.393574288]:  Poseposition: 
  x: 0.356382
  y: 0.564555
  z: 0.501454
orientation: 
  x: -0.456355
  y: 0.534929
  z: 0.295558
  w: 0.646712
[0m
[0m[ INFO] [1521786646.424330284]: Reveiving New Data Now![0m
[0m[ INFO] [1521786646.424399371]: Sending msg speedl([0.000337783,-0.00515372,0.00766537,0,0,0],1.2,0.2)
[0m
[0m[ INFO] [1521786646.424439764]: Current Poseposition: 
  x: 0.356319
  y: 0.565318
  z: 0.500382
orientation: 
  x: -0.456347
  y: 0.534984
  z: 0.295435
  w: 0.646729
[0m
[0m[ INFO] [1521786646.424465401]:  Poseposition: 
  x: 0.356386
  y: 0.564288
  z: 0.501915
orientation: 
  x: -0.456355
  y: 0.534929
  z: 0.295558
  w: 0.646712
[0m
[0m[ INFO] [1521786646.454329964]: Reveiving New Data Now![0m
[0m[ INFO] [1521786646.454406442]: Sending msg speedl([0.000472619,-0.00567682,0.00912614,0,0,0],1.2,0.2)
[0m
[0m[ INFO] [1521786646.454449846]: Current Poseposition: 
  x: 0.356303
  y: 0.5652
  z: 0.500473
orientation: 
  x: -0.45637
  y: 0.535004
  z: 0.295426
  w: 0.6467
[0m
[0m[ INFO] [1521786646.454471210]:  Poseposition: 
  x: 0.356397
  y: 0.564065
  z: 0.502298
orientation: 
  x: -0.456355
  y: 0.534929
  z: 0.295558
  w: 0.646712
[0m
[0m[ INFO] [1521786646.484589633]: Reveiving New Data Now![0m
[0m[ INFO] [1521786646.484662664]: Sending msg speedl([-2.96381e-05,-0.00553517,0.00882146,0,0,0],1.2,0.2)
[0m
[0m[ INFO] [1521786646.484701753]: Current Poseposition: 
  x: 0.356306
  y: 0.565059
  z: 0.500741
orientation: 
  x: -0.45639
  y: 0.53497
  z: 0.295459
  w: 0.646699
[0m
[0m[ INFO] [1521786646.484727189]:  Poseposition: 
  x: 0.3563
  y: 0.563952
  z: 0.502506
orientation: 
  x: -0.456355
  y: 0.534929
  z: 0.295558
  w: 0.646712
[0m
[0m[ INFO] [1521786646.515052960]: Reveiving New Data Now![0m
[0m[ INFO] [1521786646.515131224]: Sending msg speedl([2.74093e-05,-0.00567216,0.009,0,0,0],1.2,0.2)
[0m
[0m[ INFO] [1521786646.515176960]: Current Poseposition: 
  x: 0.356338
  y: 0.564863
  z: 0.501119
orientation: 
  x: -0.4563
  y: 0.534952
  z: 0.295486
  w: 0.646764
[0m
[0m[ INFO] [1521786646.515202250]:  Poseposition: 
  x: 0.356343
  y: 0.563729
  z: 0.502919
orientation: 
  x: -0.456355
  y: 0.534929
  z: 0.295558
  w: 0.646712
[0m
[0m[ INFO] [1521786646.545476137]: Reveiving New Data Now![0m
[0m[ INFO] [1521786646.545552854]: Sending msg speedl([-0.000250069,-0.00560738,0.0094184,0,0,0],1.2,0.2)
[0m
[0m[ INFO] [1521786646.545595960]: Current Poseposition: 
  x: 0.356332
  y: 0.564673
  z: 0.501367
orientation: 
  x: -0.456355
  y: 0.534961
  z: 0.295459
  w: 0.646731
[0m
[0m[ INFO] [1521786646.545644279]:  Poseposition: 
  x: 0.356282
  y: 0.563551
  z: 0.50325
orientation: 
  x: -0.456355
  y: 0.534929
  z: 0.295558
  w: 0.646712
[0m
[0m[ INFO] [1521786646.575900079]: Reveiving New Data Now![0m
[0m[ INFO] [1521786646.575973895]: Sending msg speedl([-0.00127772,-0.0050533,0.00789847,0,0,0],1.2,0.2)
[0m
[0m[ INFO] [1521786646.576014542]: Current Poseposition: 
  x: 0.356299
  y: 0.564549
  z: 0.501603
orientation: 
  x: -0.456346
  y: 0.534947
  z: 0.295479
  w: 0.64674
[0m
[0m[ INFO] [1521786646.576037494]:  Poseposition: 
  x: 0.356044
  y: 0.563539
  z: 0.503183
orientation: 
  x: -0.456355
  y: 0.534929
  z: 0.295558
  w: 0.646712
[0m
[0m[ INFO] [1521786646.606230824]: Reveiving New Data Now![0m
[0m[ INFO] [1521786646.606330165]: Sending msg speedl([-0.0016546,-0.00452677,0.00708227,0,0,0],1.2,0.2)
[0m
[0m[ INFO] [1521786646.606375848]: Current Poseposition: 
  x: 0.356304
  y: 0.564371
  z: 0.501892
orientation: 
  x: -0.456365
  y: 0.534947
  z: 0.295484
  w: 0.646724
[0m
[0m[ INFO] [1521786646.606404134]:  Poseposition: 
  x: 0.355973
  y: 0.563466
  z: 0.503308
orientation: 
  x: -0.456355
  y: 0.534929
  z: 0.295558
  w: 0.646712
[0m
[0m[ INFO] [1521786646.636640119]: Reveiving New Data Now![0m
[0m[ INFO] [1521786646.636711821]: Sending msg speedl([-0.000122828,-0.00520716,0.00892553,0,0,0],1.2,0.2)
[0m
[0m[ INFO] [1521786646.636753658]: Current Poseposition: 
  x: 0.356259
  y: 0.564165
  z: 0.502145
orientation: 
  x: -0.456366
  y: 0.534969
  z: 0.295513
  w: 0.646692
[0m
[0m[ INFO] [1521786646.636778435]:  Poseposition: 
  x: 0.356234
  y: 0.563124
  z: 0.50393
orientation: 
  x: -0.456355
  y: 0.534929
  z: 0.295558
  w: 0.646712
[0m
[0m[ INFO] [1521786646.667026165]: Reveiving New Data Now![0m
[0m[ INFO] [1521786646.667099165]: Sending msg speedl([0.00105393,-0.00526301,0.00963576,0,0,0],1.2,0.2)
[0m
[0m[ INFO] [1521786646.667138358]: Current Poseposition: 
  x: 0.356215
  y: 0.564016
  z: 0.502342
orientation: 
  x: -0.456391
  y: 0.534986
  z: 0.295486
  w: 0.646673
[0m
[0m[ INFO] [1521786646.667166297]:  Poseposition: 
  x: 0.356425
  y: 0.562964
  z: 0.504269
orientation: 
  x: -0.456355
  y: 0.534929
  z: 0.295558
  w: 0.646712
[0m
[0m[ INFO] [1521786646.697439523]: Reveiving New Data Now![0m
[0m[ INFO] [1521786646.697513168]: Sending msg speedl([0.00102098,-0.00584434,0.0108991,0,0,0],1.2,0.2)
[0m
[0m[ INFO] [1521786646.697555095]: Current Poseposition: 
  x: 0.356257
  y: 0.563852
  z: 0.502661
orientation: 
  x: -0.456407
  y: 0.535005
  z: 0.29546
  w: 0.646657
[0m
[0m[ INFO] [1521786646.697581016]:  Poseposition: 
  x: 0.356461
  y: 0.562683
  z: 0.504841
orientation: 
  x: -0.456355
  y: 0.534929
  z: 0.295558
  w: 0.646712
[0m
[0m[ INFO] [1521786646.727841126]: Reveiving New Data Now![0m
[0m[ INFO] [1521786646.727914388]: Sending msg speedl([0.00207326,-0.00722107,0.0138167,0,0,0],1.2,0.2)
[0m
[0m[ INFO] [1521786646.727954091]: Current Poseposition: 
  x: 0.35628
  y: 0.563696
  z: 0.502969
orientation: 
  x: -0.456402
  y: 0.534966
  z: 0.295493
  w: 0.646678
[0m
[0m[ INFO] [1521786646.727978140]:  Poseposition: 
  x: 0.356694
  y: 0.562252
  z: 0.505732
orientation: 
  x: -0.456355
  y: 0.534929
  z: 0.295558
  w: 0.646712
[0m
[0m[ INFO] [1521786646.758064922]: Reveiving New Data Now![0m
[0m[ INFO] [1521786646.758145237]: Sending msg speedl([0.00327261,-0.00740379,0.014719,0,0,0],1.2,0.2)
[0m
[0m[ INFO] [1521786646.758188588]: Current Poseposition: 
  x: 0.356361
  y: 0.563473
  z: 0.503371
orientation: 
  x: -0.456351
  y: 0.534987
  z: 0.295471
  w: 0.646707
[0m
[0m[ INFO] [1521786646.758216408]:  Poseposition: 
  x: 0.357016
  y: 0.561992
  z: 0.506315
orientation: 
  x: -0.456355
  y: 0.534929
  z: 0.295558
  w: 0.646712
[0m
[0m[ INFO] [1521786646.788812005]: Reveiving New Data Now![0m
[0m[ INFO] [1521786646.788884915]: Sending msg speedl([0.00314505,-0.00646745,0.0127089,0,0,0],1.2,0.2)
[0m
[0m[ INFO] [1521786646.788974808]: Current Poseposition: 
  x: 0.356446
  y: 0.563255
  z: 0.503884
orientation: 
  x: -0.456317
  y: 0.534916
  z: 0.295537
  w: 0.646759
[0m
[0m[ INFO] [1521786646.788998018]:  Poseposition: 
  x: 0.357075
  y: 0.561962
  z: 0.506425
orientation: 
  x: -0.456355
  y: 0.534929
  z: 0.295558
  w: 0.646712
[0m
[0m[ INFO] [1521786646.819223606]: Reveiving New Data Now![0m
[0m[ INFO] [1521786646.819309692]: Sending msg speedl([0.00581908,-0.00962716,0.0190786,0,0,0],1.2,0.2)
[0m
[0m[ INFO] [1521786646.819352558]: Current Poseposition: 
  x: 0.356566
  y: 0.562998
  z: 0.504402
orientation: 
  x: -0.456306
  y: 0.534859
  z: 0.295633
  w: 0.646771
[0m
[0m[ INFO] [1521786646.819376737]:  Poseposition: 
  x: 0.35773
  y: 0.561072
  z: 0.508218
orientation: 
  x: -0.456355
  y: 0.534929
  z: 0.295558
  w: 0.646712
[0m
[0m[ INFO] [1521786646.849752801]: Reveiving New Data Now![0m
[0m[ INFO] [1521786646.849833468]: Sending msg speedl([0.00570478,-0.00958239,0.019919,0,0,0],1.2,0.2)
[0m
[0m[ INFO] [1521786646.849876810]: Current Poseposition: 
  x: 0.356742
  y: 0.562682
  z: 0.504897
orientation: 
  x: -0.456294
  y: 0.534885
  z: 0.29559
  w: 0.646777
[0m
[0m[ INFO] [1521786646.849902000]:  Poseposition: 
  x: 0.357883
  y: 0.560766
  z: 0.508881
orientation: 
  x: -0.456355
  y: 0.534929
  z: 0.295558
  w: 0.646712
[0m
[0m[ INFO] [1521786646.880179387]: Reveiving New Data Now![0m
[0m[ INFO] [1521786646.880255503]: Sending msg speedl([0.00699451,-0.0113025,0.0246328,0,0,0],1.2,0.2)
[0m
[0m[ INFO] [1521786646.880298361]: Current Poseposition: 
  x: 0.356975
  y: 0.562334
  z: 0.505499
orientation: 
  x: -0.456315
  y: 0.534923
  z: 0.295573
  w: 0.646739
[0m
[0m[ INFO] [1521786646.880321405]:  Poseposition: 
  x: 0.358374
  y: 0.560074
  z: 0.510425
orientation: 
  x: -0.456355
  y: 0.534929
  z: 0.295558
  w: 0.646712
[0m
[0m[ INFO] [1521786646.910517996]: Reveiving New Data Now![0m
[0m[ INFO] [1521786646.910594594]: Sending msg speedl([0.00836176,-0.0128141,0.0284687,0,0,0],1.2,0.2)
[0m
[0m[ INFO] [1521786646.910635055]: Current Poseposition: 
  x: 0.357136
  y: 0.562027
  z: 0.506034
orientation: 
  x: -0.456309
  y: 0.534944
  z: 0.295537
  w: 0.646741
[0m
[0m[ INFO] [1521786646.910658551]:  Poseposition: 
  x: 0.358809
  y: 0.559464
  z: 0.511728
orientation: 
  x: -0.456355
  y: 0.534929
  z: 0.295558
  w: 0.646712
[0m
[0m[ INFO] [1521786646.940877030]: Reveiving New Data Now![0m
[0m[ INFO] [1521786646.940948516]: Sending msg speedl([0.00825629,-0.0130868,0.0290448,0,0,0],1.2,0.2)
[0m
[0m[ INFO] [1521786646.940989217]: Current Poseposition: 
  x: 0.357406
  y: 0.561653
  z: 0.506972
orientation: 
  x: -0.456238
  y: 0.534911
  z: 0.295566
  w: 0.646806
[0m
[0m[ INFO] [1521786646.941015327]:  Poseposition: 
  x: 0.359057
  y: 0.559036
  z: 0.512781
orientation: 
  x: -0.456355
  y: 0.534929
  z: 0.295558
  w: 0.646712
[0m
[0m[ INFO] [1521786646.971132667]: Reveiving New Data Now![0m
[0m[ INFO] [1521786646.971204807]: Sending msg speedl([0.00770118,-0.0127171,0.0286794,0,0,0],1.2,0.2)
[0m
[0m[ INFO] [1521786646.971245335]: Current Poseposition: 
  x: 0.3577
  y: 0.561205
  z: 0.507905
orientation: 
  x: -0.456192
  y: 0.534945
  z: 0.295543
  w: 0.646822
[0m
[0m[ INFO] [1521786646.971269190]:  Poseposition: 
  x: 0.359241
  y: 0.558662
  z: 0.513641
orientation: 
  x: -0.456355
  y: 0.534929
  z: 0.295558
  w: 0.646712
[0m
[0m[ INFO] [1521786647.001477960]: Reveiving New Data Now![0m
[0m[ INFO] [1521786647.001568575]: Sending msg speedl([0.0077298,-0.0121915,0.028636,0,0,0],1.2,0.2)
[0m
[0m[ INFO] [1521786647.001603672]: Current Poseposition: 
  x: 0.35791
  y: 0.560736
  z: 0.508776
orientation: 
  x: -0.456273
  y: 0.535014
  z: 0.295469
  w: 0.646741
[0m
[0m[ INFO] [1521786647.001631077]:  Poseposition: 
  x: 0.359456
  y: 0.558298
  z: 0.514504
orientation: 
  x: -0.456355
  y: 0.534929
  z: 0.295558
  w: 0.646712
[0m
[0m[ INFO] [1521786647.031815014]: Reveiving New Data Now![0m
[0m[ INFO] [1521786647.031887471]: Sending msg speedl([0.00906607,-0.0152105,0.0358348,0,0,0],1.2,0.2)
[0m
[0m[ INFO] [1521786647.033441703]: Current Poseposition: 
  x: 0.358139
  y: 0.560325
  z: 0.509703
orientation: 
  x: -0.456255
  y: 0.535023
  z: 0.295457
  w: 0.646751
[0m
[0m[ INFO] [1521786647.033466834]:  Poseposition: 
  x: 0.359952
  y: 0.557283
  z: 0.51687
orientation: 
  x: -0.456355
  y: 0.534929
  z: 0.295558
  w: 0.646712
[0m
[0m[ INFO] [1521786647.092532668]: Reveiving New Data Now![0m
[0m[ INFO] [1521786647.092611282]: Sending msg speedl([0.00940243,-0.0154777,0.0357026,0,0,0],1.2,0.2)
[0m
[0m[ INFO] [1521786647.092646283]: Current Poseposition: 
  x: 0.35858
  y: 0.559617
  z: 0.511596
orientation: 
  x: -0.456307
  y: 0.534984
  z: 0.295543
  w: 0.646707
[0m
[0m[ INFO] [1521786647.092670934]:  Poseposition: 
  x: 0.360461
  y: 0.556521
  z: 0.518736
orientation: 
  x: -0.456355
  y: 0.534929
  z: 0.295558
  w: 0.646712
[0m
[0m[ INFO] [1521786647.123015006]: Reveiving New Data Now![0m
[0m[ INFO] [1521786647.123099158]: Sending msg speedl([0.00950011,-0.0148861,0.0341121,0,0,0],1.2,0.2)
[0m
[0m[ INFO] [1521786647.123140399]: Current Poseposition: 
  x: 0.358883
  y: 0.559105
  z: 0.51289
orientation: 
  x: -0.45623
  y: 0.53491
  z: 0.295597
  w: 0.646798
[0m
[0m[ INFO] [1521786647.123165295]:  Poseposition: 
  x: 0.360783
  y: 0.556127
  z: 0.519712
orientation: 
  x: -0.456355
  y: 0.534929
  z: 0.295558
  w: 0.646712
[0m
[0m[ INFO] [1521786647.153297754]: Reveiving New Data Now![0m
[0m[ INFO] [1521786647.153367095]: Sending msg speedl([0.00769183,-0.0130601,0.0303257,0,0,0],1.2,0.2)
[0m
[0m[ INFO] [1521786647.153397438]: Current Poseposition: 
  x: 0.359232
  y: 0.558618
  z: 0.514036
orientation: 
  x: -0.456172
  y: 0.534893
  z: 0.295617
  w: 0.646844
[0m
[0m[ INFO] [1521786647.153417003]:  Poseposition: 
  x: 0.36077
  y: 0.556006
  z: 0.520102
orientation: 
  x: -0.456355
  y: 0.534929
  z: 0.295558
  w: 0.646712
[0m
[0m[ INFO] [1521786647.183999422]: Reveiving New Data Now![0m
[0m[ INFO] [1521786647.184069277]: Sending msg speedl([0.00789764,-0.0145166,0.034222,0,0,0],1.2,0.2)
[0m
[0m[ INFO] [1521786647.184106015]: Current Poseposition: 
  x: 0.359478
  y: 0.558191
  z: 0.514964
orientation: 
  x: -0.456235
  y: 0.534934
  z: 0.295607
  w: 0.646771
[0m
[0m[ INFO] [1521786647.184132835]:  Poseposition: 
  x: 0.361058
  y: 0.555288
  z: 0.521809
orientation: 
  x: -0.456355
  y: 0.534929
  z: 0.295558
  w: 0.646712
[0m
[0m[ INFO] [1521786647.213970048]: Reveiving New Data Now![0m
[0m[ INFO] [1521786647.214044286]: Sending msg speedl([0.00888456,-0.0151077,0.0376924,0,0,0],1.2,0.2)
[0m
[0m[ INFO] [1521786647.214084060]: Current Poseposition: 
  x: 0.359707
  y: 0.557825
  z: 0.515641
orientation: 
  x: -0.456239
  y: 0.534974
  z: 0.295576
  w: 0.646748
[0m
[0m[ INFO] [1521786647.214109207]:  Poseposition: 
  x: 0.361484
  y: 0.554803
  z: 0.52318
orientation: 
  x: -0.456355
  y: 0.534929
  z: 0.295558
  w: 0.646712
[0m
[0m[ INFO] [1521786647.248072277]: Reveiving New Data Now![0m
[0m[ INFO] [1521786647.248124861]: Sending msg speedl([0.0129728,-0.0187176,0.0458802,0,0,0],1.2,0.2)
[0m
[0m[ INFO] [1521786647.248149560]: Current Poseposition: 
  x: 0.360021
  y: 0.557212
  z: 0.517124
orientation: 
  x: -0.456238
  y: 0.534997
  z: 0.29556
  w: 0.646737
[0m
[0m[ INFO] [1521786647.248167292]:  Poseposition: 
  x: 0.362615
  y: 0.553468
  z: 0.5263
orientation: 
  x: -0.456355
  y: 0.534929
  z: 0.295558
  w: 0.646712
[0m
[0m[ INFO] [1521786647.275734682]: Reveiving New Data Now![0m
[0m[ INFO] [1521786647.275809439]: Sending msg speedl([0.0139788,-0.0189968,0.0465073,0,0,0],1.2,0.2)
[0m
[0m[ INFO] [1521786647.275837430]: Current Poseposition: 
  x: 0.36023
  y: 0.556842
  z: 0.518149
orientation: 
  x: -0.456243
  y: 0.534976
  z: 0.29558
  w: 0.646742
[0m
[0m[ INFO] [1521786647.275856026]:  Poseposition: 
  x: 0.363026
  y: 0.553043
  z: 0.52745
orientation: 
  x: -0.456355
  y: 0.534929
  z: 0.295558
  w: 0.646712
[0m
[0m[ INFO] [1521786647.307860317]: Reveiving New Data Now![0m
[0m[ INFO] [1521786647.307949307]: Sending msg speedl([0.0151018,-0.0203268,0.0515508,0,0,0],1.2,0.2)
[0m
[0m[ INFO] [1521786647.307989256]: Current Poseposition: 
  x: 0.360671
  y: 0.556226
  z: 0.519641
orientation: 
  x: -0.45626
  y: 0.534944
  z: 0.295633
  w: 0.646732
[0m
[0m[ INFO] [1521786647.308015161]:  Poseposition: 
  x: 0.363692
  y: 0.552161
  z: 0.529951
orientation: 
  x: -0.456355
  y: 0.534929
  z: 0.295558
  w: 0.646712
[0m
[0m[ INFO] [1521786647.336475308]: Reveiving New Data Now![0m
[0m[ INFO] [1521786647.336544213]: Sending msg speedl([0.0163612,-0.0204684,0.0553244,0,0,0],1.2,0.2)
[0m
[0m[ INFO] [1521786647.336578854]: Current Poseposition: 
  x: 0.361113
  y: 0.555598
  z: 0.521048
orientation: 
  x: -0.456317
  y: 0.534973
  z: 0.295624
  w: 0.646672
[0m
[0m[ INFO] [1521786647.336604931]:  Poseposition: 
  x: 0.364385
  y: 0.551504
  z: 0.532113
orientation: 
  x: -0.456355
  y: 0.534929
  z: 0.295558
  w: 0.646712
[0m
[0m[ INFO] [1521786647.367803571]: Reveiving New Data Now![0m
[0m[ INFO] [1521786647.367880095]: Sending msg speedl([0.0175312,-0.0206952,0.057189,0,0,0],1.2,0.2)
[0m
[0m[ INFO] [1521786647.367914342]: Current Poseposition: 
  x: 0.36147
  y: 0.555124
  z: 0.522307
orientation: 
  x: -0.456339
  y: 0.534976
  z: 0.29562
  w: 0.646656
[0m
[0m[ INFO] [1521786647.367936636]:  Poseposition: 
  x: 0.364976
  y: 0.550985
  z: 0.533745
orientation: 
  x: -0.456355
  y: 0.534929
  z: 0.295558
  w: 0.646712
[0m
[0m[ INFO] [1521786647.398088243]: Reveiving New Data Now![0m
[0m[ INFO] [1521786647.398194662]: Sending msg speedl([0.0215331,-0.0220012,0.0627804,0,0,0],1.2,0.2)
[0m
[0m[ INFO] [1521786647.398244916]: Current Poseposition: 
  x: 0.362014
  y: 0.554484
  z: 0.524216
orientation: 
  x: -0.45625
  y: 0.53494
  z: 0.295656
  w: 0.646732
[0m
[0m[ INFO] [1521786647.398271991]:  Poseposition: 
  x: 0.366321
  y: 0.550083
  z: 0.536772
orientation: 
  x: -0.456355
  y: 0.534929
  z: 0.295558
  w: 0.646712
[0m
[0m[ INFO] [1521786647.428980601]: Reveiving New Data Now![0m
[0m[ INFO] [1521786647.429082685]: Sending msg speedl([0.0227308,-0.0219203,0.0645976,0,0,0],1.2,0.2)
[0m
[0m[ INFO] [1521786647.429121674]: Current Poseposition: 
  x: 0.362603
  y: 0.553756
  z: 0.526156
orientation: 
  x: -0.45622
  y: 0.534932
  z: 0.295661
  w: 0.646758
[0m
[0m[ INFO] [1521786647.429147957]:  Poseposition: 
  x: 0.367149
  y: 0.549372
  z: 0.539076
orientation: 
  x: -0.456355
  y: 0.534929
  z: 0.295558
  w: 0.646712
[0m
[0m[ INFO] [1521786647.458632367]: Reveiving New Data Now![0m
[0m[ INFO] [1521786647.458706137]: Sending msg speedl([0.023937,-0.0212808,0.0666569,0,0,0],1.2,0.2)
[0m
[0m[ INFO] [1521786647.458743311]: Current Poseposition: 
  x: 0.363344
  y: 0.553031
  z: 0.528268
orientation: 
  x: -0.456189
  y: 0.53493
  z: 0.295658
  w: 0.646783
[0m
[0m[ INFO] [1521786647.458768497]:  Poseposition: 
  x: 0.368131
  y: 0.548775
  z: 0.541599
orientation: 
  x: -0.456355
  y: 0.534929
  z: 0.295558
  w: 0.646712
[0m
[0m[ INFO] [1521786647.488873681]: Reveiving New Data Now![0m
[0m[ INFO] [1521786647.488970373]: Sending msg speedl([0.0259199,-0.021633,0.0723367,0,0,0],1.2,0.2)
[0m
[0m[ INFO] [1521786647.489007050]: Current Poseposition: 
  x: 0.364074
  y: 0.552306
  z: 0.530354
orientation: 
  x: -0.456194
  y: 0.534964
  z: 0.295656
  w: 0.646752
[0m
[0m[ INFO] [1521786647.489032852]:  Poseposition: 
  x: 0.369258
  y: 0.54798
  z: 0.544821
orientation: 
  x: -0.456355
  y: 0.534929
  z: 0.295558
  w: 0.646712
[0m
[0m[ INFO] [1521786647.519095849]: Reveiving New Data Now![0m
[0m[ INFO] [1521786647.519168457]: Sending msg speedl([0.0270859,-0.022192,0.0756369,0,0,0],1.2,0.2)
[0m
[0m[ INFO] [1521786647.519203815]: Current Poseposition: 
  x: 0.364634
  y: 0.551809
  z: 0.53196
orientation: 
  x: -0.456226
  y: 0.53497
  z: 0.295681
  w: 0.646713
[0m
[0m[ INFO] [1521786647.519229117]:  Poseposition: 
  x: 0.370051
  y: 0.54737
  z: 0.547087
orientation: 
  x: -0.456355
  y: 0.534929
  z: 0.295558
  w: 0.646712
[0m
[0m[ INFO] [1521786647.549845182]: Reveiving New Data Now![0m
[0m[ INFO] [1521786647.549947969]: Sending msg speedl([0.0259584,-0.0204381,0.0718173,0,0,0],1.2,0.2)
[0m
[0m[ INFO] [1521786647.549988100]: Current Poseposition: 
  x: 0.365543
  y: 0.551111
  z: 0.534329
orientation: 
  x: -0.456209
  y: 0.534989
  z: 0.295649
  w: 0.646724
[0m
[0m[ INFO] [1521786647.550015402]:  Poseposition: 
  x: 0.370734
  y: 0.547024
  z: 0.548692
orientation: 
  x: -0.456355
  y: 0.534929
  z: 0.295558
  w: 0.646712
[0m
[0m[ INFO] [1521786647.579632230]: Reveiving New Data Now![0m
[0m[ INFO] [1521786647.579704844]: Sending msg speedl([0.0275397,-0.0182557,0.0706127,0,0,0],1.2,0.2)
[0m
[0m[ INFO] [1521786647.579742344]: Current Poseposition: 
  x: 0.366395
  y: 0.550401
  z: 0.536733
orientation: 
  x: -0.45623
  y: 0.535003
  z: 0.295649
  w: 0.646697
[0m
[0m[ INFO] [1521786647.579767764]:  Poseposition: 
  x: 0.371903
  y: 0.54675
  z: 0.550855
orientation: 
  x: -0.456355
  y: 0.534929
  z: 0.295558
  w: 0.646712
[0m
[0m[ INFO] [1521786647.610056948]: Reveiving New Data Now![0m
[0m[ INFO] [1521786647.610133089]: Sending msg speedl([0.0313964,-0.0189036,0.0770971,0,0,0],1.2,0.2)
[0m
[0m[ INFO] [1521786647.610171241]: Current Poseposition: 
  x: 0.367161
  y: 0.549825
  z: 0.538996
orientation: 
  x: -0.45628
  y: 0.534976
  z: 0.295694
  w: 0.646664
[0m
[0m[ INFO] [1521786647.610196730]:  Poseposition: 
  x: 0.37344
  y: 0.546045
  z: 0.554415
orientation: 
  x: -0.456355
  y: 0.534929
  z: 0.295558
  w: 0.646712
[0m
[0m[ INFO] [1521786647.640311275]: Reveiving New Data Now![0m
[0m[ INFO] [1521786647.640382503]: Sending msg speedl([0.0312315,-0.0188203,0.0775895,0,0,0],1.2,0.2)
[0m
[0m[ INFO] [1521786647.640420989]: Current Poseposition: 
  x: 0.368102
  y: 0.54923
  z: 0.54132
orientation: 
  x: -0.456288
  y: 0.534973
  z: 0.295724
  w: 0.646647
[0m
[0m[ INFO] [1521786647.640446199]:  Poseposition: 
  x: 0.374348
  y: 0.545466
  z: 0.556837
orientation: 
  x: -0.456355
  y: 0.534929
  z: 0.295558
  w: 0.646712
[0m
[0m[ INFO] [1521786647.670537196]: Reveiving New Data Now![0m
[0m[ INFO] [1521786647.670618548]: Sending msg speedl([0.0306511,-0.0183372,0.0763683,0,0,0],1.2,0.2)
[0m
[0m[ INFO] [1521786647.670655666]: Current Poseposition: 
  x: 0.368866
  y: 0.548799
  z: 0.543233
orientation: 
  x: -0.456262
  y: 0.534934
  z: 0.295754
  w: 0.646684
[0m
[0m[ INFO] [1521786647.670677323]:  Poseposition: 
  x: 0.374996
  y: 0.545131
  z: 0.558506
orientation: 
  x: -0.456355
  y: 0.534929
  z: 0.295558
  w: 0.646712
[0m
[0m[ INFO] [1521786647.702448511]: Reveiving New Data Now![0m
[0m[ INFO] [1521786647.702533218]: Sending msg speedl([0.0320009,-0.0182414,0.0791885,0,0,0],1.2,0.2)
[0m
[0m[ INFO] [1521786647.702571647]: Current Poseposition: 
  x: 0.369831
  y: 0.548139
  z: 0.545812
orientation: 
  x: -0.456243
  y: 0.534899
  z: 0.295808
  w: 0.646702
[0m
[0m[ INFO] [1521786647.702595313]:  Poseposition: 
  x: 0.376232
  y: 0.544491
  z: 0.56165
orientation: 
  x: -0.456355
  y: 0.534929
  z: 0.295558
  w: 0.646712
[0m
[0m[ INFO] [1521786647.732743296]: Reveiving New Data Now![0m
[0m[ INFO] [1521786647.732819284]: Sending msg speedl([0.0340037,-0.018456,0.0826967,0,0,0],1.2,0.2)
[0m
[0m[ INFO] [1521786647.732857650]: Current Poseposition: 
  x: 0.370808
  y: 0.547544
  z: 0.54826
orientation: 
  x: -0.456271
  y: 0.534896
  z: 0.295804
  w: 0.646686
[0m
[0m[ INFO] [1521786647.732880958]:  Poseposition: 
  x: 0.377609
  y: 0.543853
  z: 0.564799
orientation: 
  x: -0.456355
  y: 0.534929
  z: 0.295558
  w: 0.646712
[0m
[0m[ INFO] [1521786647.763424854]: Reveiving New Data Now![0m
[0m[ INFO] [1521786647.763505258]: Sending msg speedl([0.0336859,-0.0182591,0.0827537,0,0,0],1.2,0.2)
[0m
[0m[ INFO] [1521786647.763546051]: Current Poseposition: 
  x: 0.371895
  y: 0.546948
  z: 0.5508
orientation: 
  x: -0.456274
  y: 0.534915
  z: 0.295784
  w: 0.646678
[0m
[0m[ INFO] [1521786647.763572151]:  Poseposition: 
  x: 0.378632
  y: 0.543296
  z: 0.567351
orientation: 
  x: -0.456355
  y: 0.534929
  z: 0.295558
  w: 0.646712
[0m
[0m[ INFO] [1521786647.793249113]: Reveiving New Data Now![0m
[0m[ INFO] [1521786647.793317939]: Sending msg speedl([0.0346972,-0.0168339,0.0833292,0,0,0],1.2,0.2)
[0m
[0m[ INFO] [1521786647.793353394]: Current Poseposition: 
  x: 0.372966
  y: 0.546329
  z: 0.553457
orientation: 
  x: -0.456289
  y: 0.534917
  z: 0.295801
  w: 0.646657
[0m
[0m[ INFO] [1521786647.793377375]:  Poseposition: 
  x: 0.379905
  y: 0.542962
  z: 0.570123
orientation: 
  x: -0.456355
  y: 0.534929
  z: 0.295558
  w: 0.646712
[0m
[0m[ INFO] [1521786647.823814750]: Reveiving New Data Now![0m
[0m[ INFO] [1521786647.823882560]: Sending msg speedl([0.0357343,-0.016551,0.0850699,0,0,0],1.2,0.2)
[0m
[0m[ INFO] [1521786647.823918559]: Current Poseposition: 
  x: 0.374071
  y: 0.545727
  z: 0.556069
orientation: 
  x: -0.45631
  y: 0.53496
  z: 0.295769
  w: 0.646622
[0m
[0m[ INFO] [1521786647.823943488]:  Poseposition: 
  x: 0.381218
  y: 0.542417
  z: 0.573083
orientation: 
  x: -0.456355
  y: 0.534929
  z: 0.295558
  w: 0.646712
[0m
[0m[ INFO] [1521786647.853753878]: Reveiving New Data Now![0m
[0m[ INFO] [1521786647.853841245]: Sending msg speedl([0.0365135,-0.0160767,0.0848121,0,0,0],1.2,0.2)
[0m
[0m[ INFO] [1521786647.853877015]: Current Poseposition: 
  x: 0.374942
  y: 0.545365
  z: 0.558094
orientation: 
  x: -0.456265
  y: 0.534953
  z: 0.295781
  w: 0.646654
[0m
[0m[ INFO] [1521786647.853901487]:  Poseposition: 
  x: 0.382244
  y: 0.54215
  z: 0.575056
orientation: 
  x: -0.456355
  y: 0.534929
  z: 0.295558
  w: 0.646712
[0m
[0m[ INFO] [1521786647.884129283]: Reveiving New Data Now![0m
[0m[ INFO] [1521786647.884218599]: Sending msg speedl([0.0402201,-0.0162499,0.0922357,0,0,0],1.2,0.2)
[0m
[0m[ INFO] [1521786647.884256240]: Current Poseposition: 
  x: 0.37614
  y: 0.544835
  z: 0.560761
orientation: 
  x: -0.456274
  y: 0.534972
  z: 0.29577
  w: 0.646637
[0m
[0m[ INFO] [1521786647.884280533]:  Poseposition: 
  x: 0.384184
  y: 0.541585
  z: 0.579208
orientation: 
  x: -0.456355
  y: 0.534929
  z: 0.295558
  w: 0.646712
[0m
[0m[ INFO] [1521786647.914287909]: Reveiving New Data Now![0m
[0m[ INFO] [1521786647.914359396]: Sending msg speedl([0.0382223,-0.0147702,0.0886452,0,0,0],1.2,0.2)
[0m
[0m[ INFO] [1521786647.914394926]: Current Poseposition: 
  x: 0.377342
  y: 0.544288
  z: 0.563487
orientation: 
  x: -0.456296
  y: 0.534997
  z: 0.295734
  w: 0.646618
[0m
[0m[ INFO] [1521786647.914419076]:  Poseposition: 
  x: 0.384986
  y: 0.541334
  z: 0.581216
orientation: 
  x: -0.456355
  y: 0.534929
  z: 0.295558
  w: 0.646712
[0m
[0m[ INFO] [1521786647.944565987]: Reveiving New Data Now![0m
[0m[ INFO] [1521786647.944639424]: Sending msg speedl([0.0377826,-0.0136391,0.0883944,0,0,0],1.2,0.2)
[0m
[0m[ INFO] [1521786647.944677435]: Current Poseposition: 
  x: 0.37862
  y: 0.543795
  z: 0.566588
orientation: 
  x: -0.456217
  y: 0.534918
  z: 0.295802
  w: 0.646707
[0m
[0m[ INFO] [1521786647.944702100]:  Poseposition: 
  x: 0.386177
  y: 0.541067
  z: 0.584267
orientation: 
  x: -0.456355
  y: 0.534929
  z: 0.295558
  w: 0.646712
[0m
[0m[ INFO] [1521786647.974949821]: Reveiving New Data Now![0m
[0m[ INFO] [1521786647.975035142]: Sending msg speedl([0.0424174,-0.0140436,0.0983465,0,0,0],1.2,0.2)
[0m
[0m[ INFO] [1521786647.975073900]: Current Poseposition: 
  x: 0.379492
  y: 0.543424
  z: 0.56868
orientation: 
  x: -0.456247
  y: 0.534919
  z: 0.295821
  w: 0.646676
[0m
[0m[ INFO] [1521786647.975099273]:  Poseposition: 
  x: 0.387975
  y: 0.540615
  z: 0.588349
orientation: 
  x: -0.456355
  y: 0.534929
  z: 0.295558
  w: 0.646712
[0m
[0m[ INFO] [1521786648.005199167]: Reveiving New Data Now![0m
[0m[ INFO] [1521786648.005285113]: Sending msg speedl([0.0464228,-0.013779,0.104881,0,0,0],1.2,0.2)
[0m
[0m[ INFO] [1521786648.005325796]: Current Poseposition: 
  x: 0.380666
  y: 0.542997
  z: 0.571521
orientation: 
  x: -0.4563
  y: 0.534929
  z: 0.295819
  w: 0.646632
[0m
[0m[ INFO] [1521786648.005351989]:  Poseposition: 
  x: 0.38995
  y: 0.540241
  z: 0.592498
orientation: 
  x: -0.456355
  y: 0.534929
  z: 0.295558
  w: 0.646712
[0m
[0m[ INFO] [1521786648.035515287]: Reveiving New Data Now![0m
[0m[ INFO] [1521786648.035591216]: Sending msg speedl([0.0447634,-0.0124753,0.0989043,0,0,0],1.2,0.2)
[0m
[0m[ INFO] [1521786648.035625927]: Current Poseposition: 
  x: 0.382027
  y: 0.542583
  z: 0.574851
orientation: 
  x: -0.456275
  y: 0.534877
  z: 0.295875
  w: 0.646667
[0m
[0m[ INFO] [1521786648.035647607]:  Poseposition: 
  x: 0.39098
  y: 0.540088
  z: 0.594632
orientation: 
  x: -0.456355
  y: 0.534929
  z: 0.295558
  w: 0.646712
[0m
[0m[ INFO] [1521786648.065739996]: Reveiving New Data Now![0m
[0m[ INFO] [1521786648.065810761]: Sending msg speedl([0.0437738,-0.0120662,0.0971773,0,0,0],1.2,0.2)
[0m
[0m[ INFO] [1521786648.065862400]: Current Poseposition: 
  x: 0.383477
  y: 0.542158
  z: 0.57828
orientation: 
  x: -0.456224
  y: 0.534774
  z: 0.295942
  w: 0.646757
[0m
[0m[ INFO] [1521786648.065884521]:  Poseposition: 
  x: 0.392232
  y: 0.539745
  z: 0.597715
orientation: 
  x: -0.456355
  y: 0.534929
  z: 0.295558
  w: 0.646712
[0m
[0m[ INFO] [1521786648.096013924]: Reveiving New Data Now![0m
[0m[ INFO] [1521786648.096086970]: Sending msg speedl([0.0457981,-0.0109876,0.101738,0,0,0],1.2,0.2)
[0m
[0m[ INFO] [1521786648.096123420]: Current Poseposition: 
  x: 0.384878
  y: 0.541701
  z: 0.581328
orientation: 
  x: -0.456265
  y: 0.534805
  z: 0.295942
  w: 0.646703
[0m
[0m[ INFO] [1521786648.096146690]:  Poseposition: 
  x: 0.394037
  y: 0.539503
  z: 0.601675
orientation: 
  x: -0.456355
  y: 0.534929
  z: 0.295558
  w: 0.646712
[0m
[0m[ INFO] [1521786648.126917998]: Reveiving New Data Now![0m
[0m[ INFO] [1521786648.127005241]: Sending msg speedl([0.0481785,-0.0109213,0.105506,0,0,0],1.2,0.2)
[0m
[0m[ INFO] [1521786648.127041158]: Current Poseposition: 
  x: 0.385917
  y: 0.541431
  z: 0.583579
orientation: 
  x: -0.45632
  y: 0.534807
  z: 0.295936
  w: 0.646665
[0m
[0m[ INFO] [1521786648.127061861]:  Poseposition: 
  x: 0.395553
  y: 0.539246
  z: 0.604681
orientation: 
  x: -0.456355
  y: 0.534929
  z: 0.295558
  w: 0.646712
[0m
[0m[ INFO] [1521786648.156892991]: Reveiving New Data Now![0m
[0m[ INFO] [1521786648.156964245]: Sending msg speedl([0.0473819,-0.00934455,0.103305,0,0,0],1.2,0.2)
[0m
[0m[ INFO] [1521786648.157003155]: Current Poseposition: 
  x: 0.387396
  y: 0.54109
  z: 0.586976
orientation: 
  x: -0.456298
  y: 0.534786
  z: 0.29596
  w: 0.646687
[0m
[0m[ INFO] [1521786648.157028493]:  Poseposition: 
  x: 0.396873
  y: 0.539221
  z: 0.607637
orientation: 
  x: -0.456355
  y: 0.534929
  z: 0.295558
  w: 0.646712
[0m
[0m[ INFO] [1521786648.187027292]: Reveiving New Data Now![0m
[0m[ INFO] [1521786648.187100995]: Sending msg speedl([0.0450889,-0.00752879,0.099791,0,0,0],1.2,0.2)
[0m
[0m[ INFO] [1521786648.187137475]: Current Poseposition: 
  x: 0.388942
  y: 0.540684
  z: 0.590375
orientation: 
  x: -0.456318
  y: 0.534801
  z: 0.29593
  w: 0.646674
[0m
[0m[ INFO] [1521786648.187161177]:  Poseposition: 
  x: 0.39796
  y: 0.539179
  z: 0.610334
orientation: 
  x: -0.456355
  y: 0.534929
  z: 0.295558
  w: 0.646712
[0m
[0m[ INFO] [1521786648.217378009]: Reveiving New Data Now![0m
[0m[ INFO] [1521786648.217450198]: Sending msg speedl([0.0437749,-0.00726812,0.0989864,0,0,0],1.2,0.2)
[0m
[0m[ INFO] [1521786648.217485846]: Current Poseposition: 
  x: 0.390524
  y: 0.540371
  z: 0.593576
orientation: 
  x: -0.456256
  y: 0.534837
  z: 0.295853
  w: 0.646724
[0m
[0m[ INFO] [1521786648.217511096]:  Poseposition: 
  x: 0.399279
  y: 0.538917
  z: 0.613373
orientation: 
  x: -0.456355
  y: 0.534929
  z: 0.295558
  w: 0.646712
[0m
[0m[ INFO] [1521786648.247691858]: Reveiving New Data Now![0m
[0m[ INFO] [1521786648.247766107]: Sending msg speedl([0.0416779,-0.00649707,0.0944147,0,0,0],1.2,0.2)
[0m
[0m[ INFO] [1521786648.247801690]: Current Poseposition: 
  x: 0.39195
  y: 0.540104
  z: 0.596636
orientation: 
  x: -0.456289
  y: 0.53488
  z: 0.295826
  w: 0.646677
[0m
[0m[ INFO] [1521786648.247825323]:  Poseposition: 
  x: 0.400285
  y: 0.538805
  z: 0.615519
orientation: 
  x: -0.456355
  y: 0.534929
  z: 0.295558
  w: 0.646712
[0m
[0m[ INFO] [1521786648.279710741]: Reveiving New Data Now![0m
[0m[ INFO] [1521786648.279766031]: Sending msg speedl([0.0470315,-0.00596866,0.0994265,0,0,0],1.2,0.2)
[0m
[0m[ INFO] [1521786648.279790484]: Current Poseposition: 
  x: 0.393267
  y: 0.539885
  z: 0.599784
orientation: 
  x: -0.456288
  y: 0.534852
  z: 0.295873
  w: 0.646679
[0m
[0m[ INFO] [1521786648.279809876]:  Poseposition: 
  x: 0.402673
  y: 0.538692
  z: 0.619669
orientation: 
  x: -0.456355
  y: 0.534929
  z: 0.295558
  w: 0.646712
[0m
[0m[ INFO] [1521786648.308083231]: Reveiving New Data Now![0m
[0m[ INFO] [1521786648.308150973]: Sending msg speedl([0.0491738,-0.00497255,0.0982151,0,0,0],1.2,0.2)
[0m
[0m[ INFO] [1521786648.308176637]: Current Poseposition: 
  x: 0.394248
  y: 0.539673
  z: 0.602088
orientation: 
  x: -0.456318
  y: 0.534848
  z: 0.295882
  w: 0.646657
[0m
[0m[ INFO] [1521786648.308193841]:  Poseposition: 
  x: 0.404082
  y: 0.538679
  z: 0.621731
orientation: 
  x: -0.456355
  y: 0.534929
  z: 0.295558
  w: 0.646712
[0m
[0m[ INFO] [1521786648.338341998]: Reveiving New Data Now![0m
[0m[ INFO] [1521786648.338414349]: Sending msg speedl([0.053904,-0.00364724,0.102527,0,0,0],1.2,0.2)
[0m
[0m[ INFO] [1521786648.338451647]: Current Poseposition: 
  x: 0.395827
  y: 0.539471
  z: 0.605438
orientation: 
  x: -0.456235
  y: 0.534795
  z: 0.295893
  w: 0.646754
[0m
[0m[ INFO] [1521786648.338476695]:  Poseposition: 
  x: 0.406608
  y: 0.538741
  z: 0.625943
orientation: 
  x: -0.456355
  y: 0.534929
  z: 0.295558
  w: 0.646712
[0m
[0m[ INFO] [1521786648.369054506]: Reveiving New Data Now![0m
[0m[ INFO] [1521786648.369127777]: Sending msg speedl([0.0511136,-0.00257687,0.0980088,0,0,0],1.2,0.2)
[0m
[0m[ INFO] [1521786648.369163487]: Current Poseposition: 
  x: 0.397475
  y: 0.539295
  z: 0.608463
orientation: 
  x: -0.456351
  y: 0.534924
  z: 0.295787
  w: 0.646614
[0m
[0m[ INFO] [1521786648.369188800]:  Poseposition: 
  x: 0.407698
  y: 0.538779
  z: 0.628065
orientation: 
  x: -0.456355
  y: 0.534929
  z: 0.295558
  w: 0.646712
[0m
[0m[ INFO] [1521786648.399987524]: Reveiving New Data Now![0m
[0m[ INFO] [1521786648.400045501]: Sending msg speedl([0.0504304,-0.00146916,0.0976952,0,0,0],1.2,0.2)
[0m
[0m[ INFO] [1521786648.400076051]: Current Poseposition: 
  x: 0.399172
  y: 0.539266
  z: 0.611811
orientation: 
  x: -0.456246
  y: 0.534834
  z: 0.295832
  w: 0.646743
[0m
[0m[ INFO] [1521786648.400096877]:  Poseposition: 
  x: 0.409258
  y: 0.538972
  z: 0.63135
orientation: 
  x: -0.456355
  y: 0.534929
  z: 0.295558
  w: 0.646712
[0m
[0m[ INFO] [1521786648.430274271]: Reveiving New Data Now![0m
[0m[ INFO] [1521786648.430349654]: Sending msg speedl([0.05316,-0.000853917,0.10251,0,0,0],1.2,0.2)
[0m
[0m[ INFO] [1521786648.430385980]: Current Poseposition: 
  x: 0.400351
  y: 0.539212
  z: 0.614075
orientation: 
  x: -0.456317
  y: 0.534829
  z: 0.295832
  w: 0.646697
[0m
[0m[ INFO] [1521786648.430408140]:  Poseposition: 
  x: 0.410983
  y: 0.539041
  z: 0.634577
orientation: 
  x: -0.456355
  y: 0.534929
  z: 0.295558
  w: 0.646712
[0m
[0m[ INFO] [1521786648.460763036]: Reveiving New Data Now![0m
[0m[ INFO] [1521786648.460843968]: Sending msg speedl([0.0498461,-0.000327809,0.0962796,0,0,0],1.2,0.2)
[0m
[0m[ INFO] [1521786648.460880217]: Current Poseposition: 
  x: 0.401922
  y: 0.53922
  z: 0.617327
orientation: 
  x: -0.456328
  y: 0.534768
  z: 0.295897
  w: 0.646709
[0m
[0m[ INFO] [1521786648.460902021]:  Poseposition: 
  x: 0.411891
  y: 0.539154
  z: 0.636583
orientation: 
  x: -0.456355
  y: 0.534929
  z: 0.295558
  w: 0.646712
[0m
[0m[ INFO] [1521786648.490997392]: Reveiving New Data Now![0m
[0m[ INFO] [1521786648.491071963]: Sending msg speedl([0.0506181,0.00101427,0.0983785,0,0,0],1.2,0.2)
[0m
[0m[ INFO] [1521786648.491109368]: Current Poseposition: 
  x: 0.403608
  y: 0.539227
  z: 0.6206
orientation: 
  x: -0.45635
  y: 0.534738
  z: 0.295906
  w: 0.646715
[0m
[0m[ INFO] [1521786648.491156770]:  Poseposition: 
  x: 0.413732
  y: 0.53943
  z: 0.640275
orientation: 
  x: -0.456355
  y: 0.534929
  z: 0.295558
  w: 0.646712
[0m
[0m[ INFO] [1521786648.521293703]: Reveiving New Data Now![0m
[0m[ INFO] [1521786648.521369371]: Sending msg speedl([0.0482306,0.00274614,0.097204,0,0,0],1.2,0.2)
[0m
[0m[ INFO] [1521786648.521405668]: Current Poseposition: 
  x: 0.405193
  y: 0.539171
  z: 0.623624
orientation: 
  x: -0.456408
  y: 0.534771
  z: 0.295899
  w: 0.64665
[0m
[0m[ INFO] [1521786648.521428423]:  Poseposition: 
  x: 0.414839
  y: 0.53972
  z: 0.643064
orientation: 
  x: -0.456355
  y: 0.534929
  z: 0.295558
  w: 0.646712
[0m
[0m[ INFO] [1521786648.551816982]: Reveiving New Data Now![0m
[0m[ INFO] [1521786648.551900365]: Sending msg speedl([0.0492244,0.00371551,0.0997949,0,0,0],1.2,0.2)
[0m
[0m[ INFO] [1521786648.551936675]: Current Poseposition: 
  x: 0.406789
  y: 0.539215
  z: 0.626827
orientation: 
  x: -0.456394
  y: 0.53476
  z: 0.295886
  w: 0.646675
[0m
[0m[ INFO] [1521786648.551960598]:  Poseposition: 
  x: 0.416634
  y: 0.539958
  z: 0.646786
orientation: 
  x: -0.456355
  y: 0.534929
  z: 0.295558
  w: 0.646712
[0m
[0m[ INFO] [1521786648.581951098]: Reveiving New Data Now![0m
[0m[ INFO] [1521786648.582013239]: Sending msg speedl([0.047275,0.00514998,0.0987921,0,0,0],1.2,0.2)
[0m
[0m[ INFO] [1521786648.582048786]: Current Poseposition: 
  x: 0.407914
  y: 0.53931
  z: 0.629116
orientation: 
  x: -0.456458
  y: 0.534761
  z: 0.295902
  w: 0.646621
[0m
[0m[ INFO] [1521786648.582071588]:  Poseposition: 
  x: 0.417369
  y: 0.54034
  z: 0.648874
orientation: 
  x: -0.456355
  y: 0.534929
  z: 0.295558
  w: 0.646712
[0m
[0m[ INFO] [1521786648.613095219]: Reveiving New Data Now![0m
[0m[ INFO] [1521786648.613170775]: Sending msg speedl([0.0463009,0.00592606,0.096283,0,0,0],1.2,0.2)
[0m
[0m[ INFO] [1521786648.613217197]: Current Poseposition: 
  x: 0.409489
  y: 0.53942
  z: 0.632406
orientation: 
  x: -0.456426
  y: 0.534693
  z: 0.295929
  w: 0.646688
[0m
[0m[ INFO] [1521786648.613245330]:  Poseposition: 
  x: 0.41875
  y: 0.540606
  z: 0.651663
orientation: 
  x: -0.456355
  y: 0.534929
  z: 0.295558
  w: 0.646712
[0m
[0m[ INFO] [1521786648.643309758]: Reveiving New Data Now![0m
[0m[ INFO] [1521786648.643382524]: Sending msg speedl([0.0462302,0.00784904,0.0990152,0,0,0],1.2,0.2)
[0m
[0m[ INFO] [1521786648.643420288]: Current Poseposition: 
  x: 0.411006
  y: 0.539531
  z: 0.635457
orientation: 
  x: -0.456469
  y: 0.534751
  z: 0.295858
  w: 0.646642
[0m
[0m[ INFO] [1521786648.643446354]:  Poseposition: 
  x: 0.420252
  y: 0.541101
  z: 0.65526
orientation: 
  x: -0.456355
  y: 0.534929
  z: 0.295558
  w: 0.646712
[0m
[0m[ INFO] [1521786648.673513186]: Reveiving New Data Now![0m
[0m[ INFO] [1521786648.673587487]: Sending msg speedl([0.0423696,0.00808068,0.0946999,0,0,0],1.2,0.2)
[0m
[0m[ INFO] [1521786648.673622338]: Current Poseposition: 
  x: 0.412482
  y: 0.539755
  z: 0.638524
orientation: 
  x: -0.456502
  y: 0.534761
  z: 0.295867
  w: 0.646606
[0m
[0m[ INFO] [1521786648.673644603]:  Poseposition: 
  x: 0.420956
  y: 0.541372
  z: 0.657464
orientation: 
  x: -0.456355
  y: 0.534929
  z: 0.295558
  w: 0.646712
[0m
[0m[ INFO] [1521786648.703841958]: Reveiving New Data Now![0m
[0m[ INFO] [1521786648.703919428]: Sending msg speedl([0.0415605,0.00976709,0.0945621,0,0,0],1.2,0.2)
[0m
[0m[ INFO] [1521786648.703953009]: Current Poseposition: 
  x: 0.413927
  y: 0.539959
  z: 0.641709
orientation: 
  x: -0.456437
  y: 0.534733
  z: 0.295845
  w: 0.646685
[0m
[0m[ INFO] [1521786648.703976830]:  Poseposition: 
  x: 0.422239
  y: 0.541912
  z: 0.660622
orientation: 
  x: -0.456355
  y: 0.534929
  z: 0.295558
  w: 0.646712
[0m
[0m[ INFO] [1521786648.734136865]: Reveiving New Data Now![0m
[0m[ INFO] [1521786648.734222862]: Sending msg speedl([0.0503747,0.011704,0.101818,0,0,0],1.2,0.2)
[0m
[0m[ INFO] [1521786648.734267387]: Current Poseposition: 
  x: 0.414908
  y: 0.540124
  z: 0.644
orientation: 
  x: -0.456452
  y: 0.534759
  z: 0.295854
  w: 0.646649
[0m
[0m[ INFO] [1521786648.734314417]:  Poseposition: 
  x: 0.424983
  y: 0.542465
  z: 0.664363
orientation: 
  x: -0.456355
  y: 0.534929
  z: 0.295558
  w: 0.646712
[0m
[0m[ INFO] [1521786648.764268170]: Reveiving New Data Now![0m
[0m[ INFO] [1521786648.764343009]: Sending msg speedl([0.0508975,0.0130993,0.101206,0,0,0],1.2,0.2)
[0m
[0m[ INFO] [1521786648.764380964]: Current Poseposition: 
  x: 0.416219
  y: 0.540432
  z: 0.647071
orientation: 
  x: -0.456484
  y: 0.534714
  z: 0.295833
  w: 0.646673
[0m
[0m[ INFO] [1521786648.764406362]:  Poseposition: 
  x: 0.426399
  y: 0.543052
  z: 0.667312
orientation: 
  x: -0.456355
  y: 0.534929
  z: 0.295558
  w: 0.646712
[0m
[0m[ INFO] [1521786648.794659982]: Reveiving New Data Now![0m
[0m[ INFO] [1521786648.794735588]: Sending msg speedl([0.0491719,0.0140391,0.0987471,0,0,0],1.2,0.2)
[0m
[0m[ INFO] [1521786648.794774425]: Current Poseposition: 
  x: 0.417824
  y: 0.54085
  z: 0.650478
orientation: 
  x: -0.456407
  y: 0.534645
  z: 0.295896
  w: 0.646755
[0m
[0m[ INFO] [1521786648.794800227]:  Poseposition: 
  x: 0.427659
  y: 0.543658
  z: 0.670228
orientation: 
  x: -0.456355
  y: 0.534929
  z: 0.295558
  w: 0.646712
[0m
[0m[ INFO] [1521786648.825108922]: Reveiving New Data Now![0m
[0m[ INFO] [1521786648.825183028]: Sending msg speedl([0.0488153,0.0145656,0.09747,0,0,0],1.2,0.2)
[0m
[0m[ INFO] [1521786648.825218856]: Current Poseposition: 
  x: 0.419437
  y: 0.541259
  z: 0.653627
orientation: 
  x: -0.456454
  y: 0.534684
  z: 0.295832
  w: 0.64672
[0m
[0m[ INFO] [1521786648.825239435]:  Poseposition: 
  x: 0.4292
  y: 0.544173
  z: 0.673121
orientation: 
  x: -0.456355
  y: 0.534929
  z: 0.295558
  w: 0.646712
[0m
[0m[ INFO] [1521786648.855770019]: Reveiving New Data Now![0m
[0m[ INFO] [1521786648.855839781]: Sending msg speedl([0.0459965,0.0140785,0.0890638,0,0,0],1.2,0.2)
[0m
[0m[ INFO] [1521786648.855876654]: Current Poseposition: 
  x: 0.420964
  y: 0.541749
  z: 0.656836
orientation: 
  x: -0.456448
  y: 0.534638
  z: 0.295887
  w: 0.646737
[0m
[0m[ INFO] [1521786648.855898638]:  Poseposition: 
  x: 0.430164
  y: 0.544564
  z: 0.674649
orientation: 
  x: -0.456355
  y: 0.534929
  z: 0.295558
  w: 0.646712
[0m
[0m[ INFO] [1521786648.885692053]: Reveiving New Data Now![0m
[0m[ INFO] [1521786648.885780022]: Sending msg speedl([0.0494394,0.0160377,0.0919239,0,0,0],1.2,0.2)
[0m
[0m[ INFO] [1521786648.885816991]: Current Poseposition: 
  x: 0.422092
  y: 0.542142
  z: 0.659149
orientation: 
  x: -0.456462
  y: 0.534593
  z: 0.29593
  w: 0.646745
[0m
[0m[ INFO] [1521786648.885840324]:  Poseposition: 
  x: 0.43198
  y: 0.54535
  z: 0.677534
orientation: 
  x: -0.456355
  y: 0.534929
  z: 0.295558
  w: 0.646712
[0m
[0m[ INFO] [1521786648.916183407]: Reveiving New Data Now![0m
[0m[ INFO] [1521786648.916260603]: Sending msg speedl([0.0467648,0.0158081,0.0869084,0,0,0],1.2,0.2)
[0m
[0m[ INFO] [1521786648.916297643]: Current Poseposition: 
  x: 0.423525
  y: 0.542619
  z: 0.661824
orientation: 
  x: -0.456582
  y: 0.53464
  z: 0.295889
  w: 0.646639
[0m
[0m[ INFO] [1521786648.916322159]:  Poseposition: 
  x: 0.432878
  y: 0.545781
  z: 0.679206
orientation: 
  x: -0.456355
  y: 0.534929
  z: 0.295558
  w: 0.646712
[0m
[0m[ INFO] [1521786648.946352340]: Reveiving New Data Now![0m
[0m[ INFO] [1521786648.946412143]: Sending msg speedl([0.0457197,0.017191,0.0867879,0,0,0],1.2,0.2)
[0m
[0m[ INFO] [1521786648.946444062]: Current Poseposition: 
  x: 0.425091
  y: 0.543166
  z: 0.664957
orientation: 
  x: -0.456512
  y: 0.534515
  z: 0.295952
  w: 0.646763
[0m
[0m[ INFO] [1521786648.946467695]:  Poseposition: 
  x: 0.434235
  y: 0.546605
  z: 0.682315
orientation: 
  x: -0.456355
  y: 0.534929
  z: 0.295558
  w: 0.646712
[0m
[0m[ INFO] [1521786648.976574964]: Reveiving New Data Now![0m
[0m[ INFO] [1521786648.976645487]: Sending msg speedl([0.0456506,0.0190838,0.0879974,0,0,0],1.2,0.2)
[0m
[0m[ INFO] [1521786648.976682392]: Current Poseposition: 
  x: 0.426532
  y: 0.543707
  z: 0.667585
orientation: 
  x: -0.456572
  y: 0.534559
  z: 0.29593
  w: 0.646694
[0m
[0m[ INFO] [1521786648.976729074]:  Poseposition: 
  x: 0.435662
  y: 0.547523
  z: 0.685184
orientation: 
  x: -0.456355
  y: 0.534929
  z: 0.295558
  w: 0.646712
[0m
[0m[ INFO] [1521786649.006994112]: Reveiving New Data Now![0m
[0m[ INFO] [1521786649.007064162]: Sending msg speedl([0.0447738,0.0199124,0.0912239,0,0,0],1.2,0.2)
[0m
[0m[ INFO] [1521786649.007107107]: Current Poseposition: 
  x: 0.427647
  y: 0.54418
  z: 0.669643
orientation: 
  x: -0.456577
  y: 0.534555
  z: 0.295917
  w: 0.646701
[0m
[0m[ INFO] [1521786649.007132592]:  Poseposition: 
  x: 0.436601
  y: 0.548162
  z: 0.687887
orientation: 
  x: -0.456355
  y: 0.534929
  z: 0.295558
  w: 0.646712
[0m
[0m[ INFO] [1521786649.037317992]: Reveiving New Data Now![0m
[0m[ INFO] [1521786649.037400344]: Sending msg speedl([0.0418802,0.0203837,0.0915923,0,0,0],1.2,0.2)
[0m
[0m[ INFO] [1521786649.037438795]: Current Poseposition: 
  x: 0.429128
  y: 0.544766
  z: 0.672441
orientation: 
  x: -0.456599
  y: 0.534614
  z: 0.295866
  w: 0.64666
[0m
[0m[ INFO] [1521786649.037464793]:  Poseposition: 
  x: 0.437504
  y: 0.548843
  z: 0.690759
orientation: 
  x: -0.456355
  y: 0.534929
  z: 0.295558
  w: 0.646712
[0m
[0m[ INFO] [1521786649.067730304]: Reveiving New Data Now![0m
[0m[ INFO] [1521786649.067815875]: Sending msg speedl([0.0406871,0.0219188,0.0901981,0,0,0],1.2,0.2)
[0m
[0m[ INFO] [1521786649.067855425]: Current Poseposition: 
  x: 0.430544
  y: 0.545369
  z: 0.675405
orientation: 
  x: -0.456584
  y: 0.534594
  z: 0.295843
  w: 0.646697
[0m
[0m[ INFO] [1521786649.067879018]:  Poseposition: 
  x: 0.438681
  y: 0.549753
  z: 0.693445
orientation: 
  x: -0.456355
  y: 0.534929
  z: 0.295558
  w: 0.646712
[0m
[0m[ INFO] [1521786649.099799411]: Reveiving New Data Now![0m
[0m[ INFO] [1521786649.099875536]: Sending msg speedl([0.040394,0.0240171,0.0928875,0,0,0],1.2,0.2)
[0m
[0m[ INFO] [1521786649.099913843]: Current Poseposition: 
  x: 0.431853
  y: 0.545987
  z: 0.678382
orientation: 
  x: -0.456574
  y: 0.534585
  z: 0.295835
  w: 0.646715
[0m
[0m[ INFO] [1521786649.099940707]:  Poseposition: 
  x: 0.439932
  y: 0.550791
  z: 0.69696
orientation: 
  x: -0.456355
  y: 0.534929
  z: 0.295558
  w: 0.646712
[0m
[0m[ INFO] [1521786649.129078062]: Reveiving New Data Now![0m
[0m[ INFO] [1521786649.129153572]: Sending msg speedl([0.0376863,0.024097,0.0913706,0,0,0],1.2,0.2)
[0m
[0m[ INFO] [1521786649.129192947]: Current Poseposition: 
  x: 0.433146
  y: 0.546644
  z: 0.681344
orientation: 
  x: -0.45658
  y: 0.534569
  z: 0.29581
  w: 0.646736
[0m
[0m[ INFO] [1521786649.129219879]:  Poseposition: 
  x: 0.440684
  y: 0.551464
  z: 0.699618
orientation: 
  x: -0.456355
  y: 0.534929
  z: 0.295558
  w: 0.646712
[0m
[0m[ INFO] [1521786649.159563352]: Reveiving New Data Now![0m
[0m[ INFO] [1521786649.159640037]: Sending msg speedl([0.0352067,0.0236325,0.0851901,0,0,0],1.2,0.2)
[0m
[0m[ INFO] [1521786649.159678617]: Current Poseposition: 
  x: 0.434338
  y: 0.547448
  z: 0.684306
orientation: 
  x: -0.456615
  y: 0.534523
  z: 0.295818
  w: 0.646746
[0m
[0m[ INFO] [1521786649.159704207]:  Poseposition: 
  x: 0.441379
  y: 0.552175
  z: 0.701344
orientation: 
  x: -0.456355
  y: 0.534929
  z: 0.295558
  w: 0.646712
[0m
[0m[ INFO] [1521786649.190117830]: Reveiving New Data Now![0m
[0m[ INFO] [1521786649.190183266]: Sending msg speedl([0.0349572,0.0244066,0.0873727,0,0,0],1.2,0.2)
[0m
[0m[ INFO] [1521786649.190243629]: Current Poseposition: 
  x: 0.435177
  y: 0.548015
  z: 0.686407
orientation: 
  x: -0.456654
  y: 0.534523
  z: 0.295819
  w: 0.646717
[0m
[0m[ INFO] [1521786649.190259568]:  Poseposition: 
  x: 0.442168
  y: 0.552897
  z: 0.703882
orientation: 
  x: -0.456355
  y: 0.534929
  z: 0.295558
  w: 0.646712
[0m
[0m[ INFO] [1521786649.220130274]: Reveiving New Data Now![0m
[0m[ INFO] [1521786649.220204915]: Sending msg speedl([0.0353535,0.0260833,0.0890708,0,0,0],1.2,0.2)
[0m
[0m[ INFO] [1521786649.220247966]: Current Poseposition: 
  x: 0.436264
  y: 0.548726
  z: 0.689133
orientation: 
  x: -0.456671
  y: 0.534543
  z: 0.2958
  w: 0.646697
[0m
[0m[ INFO] [1521786649.220289443]:  Poseposition: 
  x: 0.443334
  y: 0.553943
  z: 0.706947
orientation: 
  x: -0.456355
  y: 0.534929
  z: 0.295558
  w: 0.646712
[0m
[0m[ INFO] [1521786649.250512523]: Reveiving New Data Now![0m
[0m[ INFO] [1521786649.250587751]: Sending msg speedl([0.0309775,0.023554,0.0786355,0,0,0],1.2,0.2)
[0m
[0m[ INFO] [1521786649.250626189]: Current Poseposition: 
  x: 0.437375
  y: 0.54955
  z: 0.692008
orientation: 
  x: -0.456632
  y: 0.534503
  z: 0.295819
  w: 0.646749
[0m
[0m[ INFO] [1521786649.250651291]:  Poseposition: 
  x: 0.44357
  y: 0.554261
  z: 0.707735
orientation: 
  x: -0.456355
  y: 0.534929
  z: 0.295558
  w: 0.646712
[0m
[0m[ INFO] [1521786649.281678427]: Reveiving New Data Now![0m
[0m[ INFO] [1521786649.281752524]: Sending msg speedl([0.0329416,0.0250469,0.0793161,0,0,0],1.2,0.2)
[0m
[0m[ INFO] [1521786649.281790399]: Current Poseposition: 
  x: 0.438421
  y: 0.55038
  z: 0.694819
orientation: 
  x: -0.45661
  y: 0.534399
  z: 0.295857
  w: 0.646833
[0m
[0m[ INFO] [1521786649.281816441]:  Poseposition: 
  x: 0.445009
  y: 0.555389
  z: 0.710682
orientation: 
  x: -0.456355
  y: 0.534929
  z: 0.295558
  w: 0.646712
[0m
[0m[ INFO] [1521786649.312117278]: Reveiving New Data Now![0m
[0m[ INFO] [1521786649.312190425]: Sending msg speedl([0.0318156,0.0240625,0.076816,0,0,0],1.2,0.2)
[0m
[0m[ INFO] [1521786649.312227334]: Current Poseposition: 
  x: 0.43944
  y: 0.551142
  z: 0.697056
orientation: 
  x: -0.456765
  y: 0.534575
  z: 0.295742
  w: 0.646631
[0m
[0m[ INFO] [1521786649.312250088]:  Poseposition: 
  x: 0.445803
  y: 0.555955
  z: 0.712419
orientation: 
  x: -0.456355
  y: 0.534929
  z: 0.295558
  w: 0.646712
[0m
[0m[ INFO] [1521786649.342520548]: Reveiving New Data Now![0m
[0m[ INFO] [1521786649.342597465]: Sending msg speedl([0.0328153,0.0247429,0.0775944,0,0,0],1.2,0.2)
[0m
[0m[ INFO] [1521786649.342637801]: Current Poseposition: 
  x: 0.440241
  y: 0.551795
  z: 0.699137
orientation: 
  x: -0.45669
  y: 0.534449
  z: 0.295787
  w: 0.646768
[0m
[0m[ INFO] [1521786649.342663178]:  Poseposition: 
  x: 0.446804
  y: 0.556743
  z: 0.714656
orientation: 
  x: -0.456355
  y: 0.534929
  z: 0.295558
  w: 0.646712
[0m
[0m[ INFO] [1521786649.372739332]: Reveiving New Data Now![0m
[0m[ INFO] [1521786649.372814598]: Sending msg speedl([0.0328001,0.0257009,0.0771052,0,0,0],1.2,0.2)
[0m
[0m[ INFO] [1521786649.372853609]: Current Poseposition: 
  x: 0.441245
  y: 0.552573
  z: 0.701513
orientation: 
  x: -0.456729
  y: 0.534489
  z: 0.295768
  w: 0.646716
[0m
[0m[ INFO] [1521786649.372880037]:  Poseposition: 
  x: 0.447805
  y: 0.557713
  z: 0.716934
orientation: 
  x: -0.456355
  y: 0.534929
  z: 0.295558
  w: 0.646712
[0m
[0m[ INFO] [1521786649.404034972]: Reveiving New Data Now![0m
[0m[ INFO] [1521786649.404117639]: Sending msg speedl([0.031428,0.0254022,0.0737247,0,0,0],1.2,0.2)
[0m
[0m[ INFO] [1521786649.404158082]: Current Poseposition: 
  x: 0.442334
  y: 0.553388
  z: 0.704072
orientation: 
  x: -0.456694
  y: 0.534441
  z: 0.295735
  w: 0.646796
[0m
[0m[ INFO] [1521786649.404184892]:  Poseposition: 
  x: 0.448619
  y: 0.558469
  z: 0.718817
orientation: 
  x: -0.456355
  y: 0.534929
  z: 0.295558
  w: 0.646712
[0m
[0m[ INFO] [1521786649.434421259]: Reveiving New Data Now![0m
[0m[ INFO] [1521786649.434499936]: Sending msg speedl([0.0351314,0.0281375,0.0795137,0,0,0],1.2,0.2)
[0m
[0m[ INFO] [1521786649.434539011]: Current Poseposition: 
  x: 0.443356
  y: 0.554215
  z: 0.706461
orientation: 
  x: -0.45672
  y: 0.534453
  z: 0.295736
  w: 0.646767
[0m
[0m[ INFO] [1521786649.434564665]:  Poseposition: 
  x: 0.450382
  y: 0.559842
  z: 0.722363
orientation: 
  x: -0.456355
  y: 0.534929
  z: 0.295558
  w: 0.646712
[0m
[0m[ INFO] [1521786649.463864556]: Reveiving New Data Now![0m
[0m[ INFO] [1521786649.463939550]: Sending msg speedl([0.0373156,0.0315093,0.0845898,0,0,0],1.2,0.2)
[0m
[0m[ INFO] [1521786649.463977663]: Current Poseposition: 
  x: 0.444408
  y: 0.55511
  z: 0.708709
orientation: 
  x: -0.456808
  y: 0.534545
  z: 0.295677
  w: 0.646655
[0m
[0m[ INFO] [1521786649.464022014]:  Poseposition: 
  x: 0.451871
  y: 0.561411
  z: 0.725627
orientation: 
  x: -0.456355
  y: 0.534929
  z: 0.295558
  w: 0.646712
[0m
[0m[ INFO] [1521786649.497549356]: Reveiving New Data Now![0m
[0m[ INFO] [1521786649.497627390]: Sending msg speedl([0.0377873,0.032941,0.0848111,0,0,0],1.2,0.2)
[0m
[0m[ INFO] [1521786649.497665797]: Current Poseposition: 
  x: 0.445494
  y: 0.556055
  z: 0.711567
orientation: 
  x: -0.456777
  y: 0.53441
  z: 0.29573
  w: 0.646764
[0m
[0m[ INFO] [1521786649.497692079]:  Poseposition: 
  x: 0.453052
  y: 0.562644
  z: 0.728529
orientation: 
  x: -0.456355
  y: 0.534929
  z: 0.295558
  w: 0.646712
[0m
[0m[ INFO] [1521786649.524965650]: Reveiving New Data Now![0m
[0m[ INFO] [1521786649.525038087]: Sending msg speedl([0.0375218,0.035979,0.0861632,0,0,0],1.2,0.2)
[0m
[0m[ INFO] [1521786649.525075473]: Current Poseposition: 
  x: 0.446382
  y: 0.556739
  z: 0.713749
orientation: 
  x: -0.456726
  y: 0.53437
  z: 0.295753
  w: 0.646823
[0m
[0m[ INFO] [1521786649.525101046]:  Poseposition: 
  x: 0.453887
  y: 0.563935
  z: 0.730982
orientation: 
  x: -0.456355
  y: 0.534929
  z: 0.295558
  w: 0.646712
[0m
[0m[ INFO] [1521786649.554646207]: Reveiving New Data Now![0m
[0m[ INFO] [1521786649.554717703]: Sending msg speedl([0.0383859,0.0394463,0.091845,0,0,0],1.2,0.2)
[0m
[0m[ INFO] [1521786649.554754891]: Current Poseposition: 
  x: 0.447525
  y: 0.557803
  z: 0.716623
orientation: 
  x: -0.456735
  y: 0.534268
  z: 0.295762
  w: 0.646897
[0m
[0m[ INFO] [1521786649.554779916]:  Poseposition: 
  x: 0.455202
  y: 0.565693
  z: 0.734992
orientation: 
  x: -0.456355
  y: 0.534929
  z: 0.295558
  w: 0.646712
[0m
[0m[ INFO] [1521786649.584725736]: Reveiving New Data Now![0m
[0m[ INFO] [1521786649.584791576]: Sending msg speedl([0.0373907,0.0388912,0.0909631,0,0,0],1.2,0.2)
[0m
[0m[ INFO] [1521786649.584825585]: Current Poseposition: 
  x: 0.448706
  y: 0.559054
  z: 0.719371
orientation: 
  x: -0.456809
  y: 0.534311
  z: 0.295734
  w: 0.646822
[0m
[0m[ INFO] [1521786649.584847174]:  Poseposition: 
  x: 0.456184
  y: 0.566832
  z: 0.737564
orientation: 
  x: -0.456355
  y: 0.534929
  z: 0.295558
  w: 0.646712
[0m
[0m[ INFO] [1521786649.616199982]: Reveiving New Data Now![0m
[0m[ INFO] [1521786649.616272032]: Sending msg speedl([0.0337343,0.0363151,0.0862687,0,0,0],1.2,0.2)
[0m
[0m[ INFO] [1521786649.616309194]: Current Poseposition: 
  x: 0.449868
  y: 0.560388
  z: 0.722346
orientation: 
  x: -0.45682
  y: 0.53424
  z: 0.295772
  w: 0.646855
[0m
[0m[ INFO] [1521786649.616334843]:  Poseposition: 
  x: 0.456615
  y: 0.567651
  z: 0.7396
orientation: 
  x: -0.456355
  y: 0.534929
  z: 0.295558
  w: 0.646712
[0m
[0m[ INFO] [1521786649.647903097]: Reveiving New Data Now![0m
[0m[ INFO] [1521786649.647974864]: Sending msg speedl([0.0297708,0.034062,0.0819573,0,0,0],1.2,0.2)
[0m
[0m[ INFO] [1521786649.648013286]: Current Poseposition: 
  x: 0.450999
  y: 0.561639
  z: 0.725181
orientation: 
  x: -0.456836
  y: 0.534194
  z: 0.295783
  w: 0.646877
[0m
[0m[ INFO] [1521786649.648039556]:  Poseposition: 
  x: 0.456953
  y: 0.568452
  z: 0.741573
orientation: 
  x: -0.456355
  y: 0.534929
  z: 0.295558
  w: 0.646712
[0m
[0m[ INFO] [1521786649.677352100]: Reveiving New Data Now![0m
[0m[ INFO] [1521786649.677426863]: Sending msg speedl([0.0295871,0.0342036,0.0828128,0,0,0],1.2,0.2)
[0m
[0m[ INFO] [1521786649.677467024]: Current Poseposition: 
  x: 0.451779
  y: 0.56254
  z: 0.727067
orientation: 
  x: -0.456921
  y: 0.534267
  z: 0.295737
  w: 0.646777
[0m
[0m[ INFO] [1521786649.677493278]:  Poseposition: 
  x: 0.457697
  y: 0.569381
  z: 0.743629
orientation: 
  x: -0.456355
  y: 0.534929
  z: 0.295558
  w: 0.646712
[0m
[0m[ INFO] [1521786649.708694035]: Reveiving New Data Now![0m
[0m[ INFO] [1521786649.708774766]: Sending msg speedl([0.0282279,0.0350537,0.0840388,0,0,0],1.2,0.2)
[0m
[0m[ INFO] [1521786649.708834019]: Current Poseposition: 
  x: 0.452729
  y: 0.563665
  z: 0.729624
orientation: 
  x: -0.456982
  y: 0.534284
  z: 0.295683
  w: 0.646746
[0m
[0m[ INFO] [1521786649.708859194]:  Poseposition: 
  x: 0.458375
  y: 0.570676
  z: 0.746432
orientation: 
  x: -0.456355
  y: 0.534929
  z: 0.295558
  w: 0.646712
[0m
[0m[ INFO] [1521786649.737863998]: Reveiving New Data Now![0m
[0m[ INFO] [1521786649.737942882]: Sending msg speedl([0.0258143,0.0357229,0.0817268,0,0,0],1.2,0.2)
[0m
[0m[ INFO] [1521786649.737982350]: Current Poseposition: 
  x: 0.453624
  y: 0.564765
  z: 0.732482
orientation: 
  x: -0.456917
  y: 0.534188
  z: 0.295742
  w: 0.646844
[0m
[0m[ INFO] [1521786649.738007616]:  Poseposition: 
  x: 0.458787
  y: 0.571909
  z: 0.748827
orientation: 
  x: -0.456355
  y: 0.534929
  z: 0.295558
  w: 0.646712
[0m
[0m[ INFO] [1521786649.768545933]: Reveiving New Data Now![0m
[0m[ INFO] [1521786649.768620776]: Sending msg speedl([0.0231649,0.0336413,0.0747367,0,0,0],1.2,0.2)
[0m
[0m[ INFO] [1521786649.768659651]: Current Poseposition: 
  x: 0.454477
  y: 0.565857
  z: 0.735199
orientation: 
  x: -0.456909
  y: 0.534163
  z: 0.295711
  w: 0.646884
[0m
[0m[ INFO] [1521786649.768685410]:  Poseposition: 
  x: 0.45911
  y: 0.572585
  z: 0.750146
orientation: 
  x: -0.456355
  y: 0.534929
  z: 0.295558
  w: 0.646712
[0m
[0m[ INFO] [1521786649.798514389]: Reveiving New Data Now![0m
[0m[ INFO] [1521786649.798650055]: Sending msg speedl([0.0206982,0.0350266,0.0759521,0,0,0],1.2,0.2)
[0m
[0m[ INFO] [1521786649.798683370]: Current Poseposition: 
  x: 0.455045
  y: 0.566689
  z: 0.737107
orientation: 
  x: -0.456922
  y: 0.534163
  z: 0.295691
  w: 0.646884
[0m
[0m[ INFO] [1521786649.798707594]:  Poseposition: 
  x: 0.459185
  y: 0.573694
  z: 0.752297
orientation: 
  x: -0.456355
  y: 0.534929
  z: 0.295558
  w: 0.646712
[0m
[0m[ INFO] [1521786649.828754516]: Reveiving New Data Now![0m
[0m[ INFO] [1521786649.828816263]: Sending msg speedl([0.0175471,0.033147,0.0713115,0,0,0],1.2,0.2)
[0m
[0m[ INFO] [1521786649.828848833]: Current Poseposition: 
  x: 0.455723
  y: 0.567703
  z: 0.739376
orientation: 
  x: -0.457007
  y: 0.534226
  z: 0.295642
  w: 0.646795
[0m
[0m[ INFO] [1521786649.828872512]:  Poseposition: 
  x: 0.459233
  y: 0.574332
  z: 0.753639
orientation: 
  x: -0.456355
  y: 0.534929
  z: 0.295558
  w: 0.646712
[0m
[0m[ INFO] [1521786649.859187541]: Reveiving New Data Now![0m
[0m[ INFO] [1521786649.859269677]: Sending msg speedl([0.0145036,0.0314427,0.0664884,0,0,0],1.2,0.2)
[0m
[0m[ INFO] [1521786649.859306370]: Current Poseposition: 
  x: 0.45631
  y: 0.568844
  z: 0.741865
orientation: 
  x: -0.456976
  y: 0.534174
  z: 0.29565
  w: 0.646855
[0m
[0m[ INFO] [1521786649.859328664]:  Poseposition: 
  x: 0.459211
  y: 0.575132
  z: 0.755163
orientation: 
  x: -0.456355
  y: 0.534929
  z: 0.295558
  w: 0.646712
[0m
[0m[ INFO] [1521786649.889873874]: Reveiving New Data Now![0m
[0m[ INFO] [1521786649.889967380]: Sending msg speedl([0.0137371,0.0311013,0.062683,0,0,0],1.2,0.2)
[0m
[0m[ INFO] [1521786649.890005316]: Current Poseposition: 
  x: 0.456734
  y: 0.569839
  z: 0.744172
orientation: 
  x: -0.456969
  y: 0.534092
  z: 0.295695
  w: 0.646908
[0m
[0m[ INFO] [1521786649.890027319]:  Poseposition: 
  x: 0.459481
  y: 0.576059
  z: 0.756709
orientation: 
  x: -0.456355
  y: 0.534929
  z: 0.295558
  w: 0.646712
[0m
[0m[ INFO] [1521786649.920192464]: Reveiving New Data Now![0m
[0m[ INFO] [1521786649.920265062]: Sending msg speedl([0.011349,0.0281769,0.0561651,0,0,0],1.2,0.2)
[0m
[0m[ INFO] [1521786649.920302052]: Current Poseposition: 
  x: 0.457208
  y: 0.570826
  z: 0.746203
orientation: 
  x: -0.457
  y: 0.534111
  z: 0.295647
  w: 0.646892
[0m
[0m[ INFO] [1521786649.920326783]:  Poseposition: 
  x: 0.459478
  y: 0.576462
  z: 0.757436
orientation: 
  x: -0.456355
  y: 0.534929
  z: 0.295558
  w: 0.646712
[0m
[0m[ INFO] [1521786649.950651565]: Reveiving New Data Now![0m
[0m[ INFO] [1521786649.950731582]: Sending msg speedl([0.00944348,0.0280607,0.0556326,0,0,0],1.2,0.2)
[0m
[0m[ INFO] [1521786649.950792753]: Current Poseposition: 
  x: 0.457545
  y: 0.571556
  z: 0.747605
orientation: 
  x: -0.457029
  y: 0.534126
  z: 0.295624
  w: 0.64687
[0m
[0m[ INFO] [1521786649.950813316]:  Poseposition: 
  x: 0.459434
  y: 0.577168
  z: 0.758731
orientation: 
  x: -0.456355
  y: 0.534929
  z: 0.295558
  w: 0.646712
[0m
[0m[ INFO] [1521786649.983804609]: Reveiving New Data Now![0m
[0m[ INFO] [1521786649.983878826]: Sending msg speedl([0.0070876,0.0259227,0.0515277,0,0,0],1.2,0.2)
[0m
[0m[ INFO] [1521786649.983916359]: Current Poseposition: 
  x: 0.457977
  y: 0.572708
  z: 0.749605
orientation: 
  x: -0.457133
  y: 0.534206
  z: 0.295562
  w: 0.646759
[0m
[0m[ INFO] [1521786649.983942770]:  Poseposition: 
  x: 0.459394
  y: 0.577893
  z: 0.759911
orientation: 
  x: -0.456355
  y: 0.534929
  z: 0.295558
  w: 0.646712
[0m
[0m[ INFO] [1521786650.014702210]: Reveiving New Data Now![0m
[0m[ INFO] [1521786650.014780595]: Sending msg speedl([0.00516575,0.0230909,0.0459162,0,0,0],1.2,0.2)
[0m
[0m[ INFO] [1521786650.014819502]: Current Poseposition: 
  x: 0.458175
  y: 0.573444
  z: 0.750934
orientation: 
  x: -0.457136
  y: 0.534164
  z: 0.295601
  w: 0.646773
[0m
[0m[ INFO] [1521786650.014845661]:  Poseposition: 
  x: 0.459209
  y: 0.578062
  z: 0.760117
orientation: 
  x: -0.456355
  y: 0.534929
  z: 0.295558
  w: 0.646712
[0m
[0m[ INFO] [1521786650.044889020]: Reveiving New Data Now![0m
[0m[ INFO] [1521786650.044967893]: Sending msg speedl([0.00377226,0.0203068,0.0397147,0,0,0],1.2,0.2)
[0m
[0m[ INFO] [1521786650.045005788]: Current Poseposition: 
  x: 0.45834
  y: 0.574264
  z: 0.75251
orientation: 
  x: -0.457176
  y: 0.534142
  z: 0.295602
  w: 0.646763
[0m
[0m[ INFO] [1521786650.045030200]:  Poseposition: 
  x: 0.459095
  y: 0.578325
  z: 0.760453
orientation: 
  x: -0.456355
  y: 0.534929
  z: 0.295558
  w: 0.646712
[0m
[0m[ INFO] [1521786650.075659094]: Reveiving New Data Now![0m
[0m[ INFO] [1521786650.075734846]: Sending msg speedl([0.00406064,0.0216744,0.0393403,0,0,0],1.2,0.2)
[0m
[0m[ INFO] [1521786650.075772345]: Current Poseposition: 
  x: 0.458494
  y: 0.57499
  z: 0.753928
orientation: 
  x: -0.45719
  y: 0.534114
  z: 0.29562
  w: 0.646768
[0m
[0m[ INFO] [1521786650.075798435]:  Poseposition: 
  x: 0.459306
  y: 0.579325
  z: 0.761796
orientation: 
  x: -0.456355
  y: 0.534929
  z: 0.295558
  w: 0.646712
[0m
[0m[ INFO] [1521786650.106154116]: Reveiving New Data Now![0m
[0m[ INFO] [1521786650.106230594]: Sending msg speedl([0.00309054,0.0221534,0.038856,0,0,0],1.2,0.2)
[0m
[0m[ INFO] [1521786650.106268395]: Current Poseposition: 
  x: 0.458597
  y: 0.57566
  z: 0.755122
orientation: 
  x: -0.457245
  y: 0.534123
  z: 0.295599
  w: 0.64673
[0m
[0m[ INFO] [1521786650.106291487]:  Poseposition: 
  x: 0.459215
  y: 0.580091
  z: 0.762893
orientation: 
  x: -0.456355
  y: 0.534929
  z: 0.295558
  w: 0.646712
[0m
[0m[ INFO] [1521786650.136407932]: Reveiving New Data Now![0m
[0m[ INFO] [1521786650.136488571]: Sending msg speedl([0.00214951,0.0203864,0.0343704,0,0,0],1.2,0.2)
[0m
[0m[ INFO] [1521786650.136525034]: Current Poseposition: 
  x: 0.458671
  y: 0.576359
  z: 0.756368
orientation: 
  x: -0.457269
  y: 0.534114
  z: 0.295605
  w: 0.646718
[0m
[0m[ INFO] [1521786650.136550881]:  Poseposition: 
  x: 0.459101
  y: 0.580436
  z: 0.763242
orientation: 
  x: -0.456355
  y: 0.534929
  z: 0.295558
  w: 0.646712
[0m
[0m[ INFO] [1521786650.166733918]: Reveiving New Data Now![0m
[0m[ INFO] [1521786650.166812921]: Sending msg speedl([0.0019249,0.0217574,0.0347374,0,0,0],1.2,0.2)
[0m
[0m[ INFO] [1521786650.166850317]: Current Poseposition: 
  x: 0.458731
  y: 0.57687
  z: 0.757337
orientation: 
  x: -0.45723
  y: 0.534081
  z: 0.295603
  w: 0.646774
[0m
[0m[ INFO] [1521786650.166876454]:  Poseposition: 
  x: 0.459116
  y: 0.581221
  z: 0.764284
orientation: 
  x: -0.456355
  y: 0.534929
  z: 0.295558
  w: 0.646712
[0m
[0m[ INFO] [1521786650.197335905]: Reveiving New Data Now![0m
[0m[ INFO] [1521786650.197418784]: Sending msg speedl([0.00171555,0.0205636,0.031678,0,0,0],1.2,0.2)
[0m
[0m[ INFO] [1521786650.197503563]: Current Poseposition: 
  x: 0.45874
  y: 0.577501
  z: 0.758434
orientation: 
  x: -0.45724
  y: 0.534084
  z: 0.295616
  w: 0.646759
[0m
[0m[ INFO] [1521786650.197530676]:  Poseposition: 
  x: 0.459083
  y: 0.581613
  z: 0.76477
orientation: 
  x: -0.456355
  y: 0.534929
  z: 0.295558
  w: 0.646712
[0m
[0m[ INFO] [1521786650.227736505]: Reveiving New Data Now![0m
[0m[ INFO] [1521786650.227807405]: Sending msg speedl([0.00227625,0.0218836,0.0306729,0,0,0],1.2,0.2)
[0m
[0m[ INFO] [1521786650.227842345]: Current Poseposition: 
  x: 0.458826
  y: 0.57817
  z: 0.759634
orientation: 
  x: -0.457185
  y: 0.534014
  z: 0.295611
  w: 0.646858
[0m
[0m[ INFO] [1521786650.227867172]:  Poseposition: 
  x: 0.459281
  y: 0.582547
  z: 0.765768
orientation: 
  x: -0.456355
  y: 0.534929
  z: 0.295558
  w: 0.646712
[0m
[0m[ INFO] [1521786650.257987518]: Reveiving New Data Now![0m
[0m[ INFO] [1521786650.258071245]: Sending msg speedl([0.00120996,0.019478,0.0260884,0,0,0],1.2,0.2)
[0m
[0m[ INFO] [1521786650.258109052]: Current Poseposition: 
  x: 0.458871
  y: 0.578816
  z: 0.760635
orientation: 
  x: -0.457181
  y: 0.534018
  z: 0.295608
  w: 0.646859
[0m
[0m[ INFO] [1521786650.258134765]:  Poseposition: 
  x: 0.459113
  y: 0.582712
  z: 0.765853
orientation: 
  x: -0.456355
  y: 0.534929
  z: 0.295558
  w: 0.646712
[0m
[0m[ INFO] [1521786650.288386928]: Reveiving New Data Now![0m
[0m[ INFO] [1521786650.288465178]: Sending msg speedl([0.000833886,0.019052,0.0256398,0,0,0],1.2,0.2)
[0m
[0m[ INFO] [1521786650.288504901]: Current Poseposition: 
  x: 0.458916
  y: 0.579481
  z: 0.761598
orientation: 
  x: -0.457161
  y: 0.533962
  z: 0.295604
  w: 0.646921
[0m
[0m[ INFO] [1521786650.288532751]:  Poseposition: 
  x: 0.459082
  y: 0.583291
  z: 0.766726
orientation: 
  x: -0.456355
  y: 0.534929
  z: 0.295558
  w: 0.646712
[0m
[0m[ INFO] [1521786650.318907156]: Reveiving New Data Now![0m
[0m[ INFO] [1521786650.318974808]: Sending msg speedl([-0.000448866,0.017099,0.0223839,0,0,0],1.2,0.2)
[0m
[0m[ INFO] [1521786650.319011973]: Current Poseposition: 
  x: 0.458917
  y: 0.57998
  z: 0.762113
orientation: 
  x: -0.457225
  y: 0.534009
  z: 0.295579
  w: 0.646849
[0m
[0m[ INFO] [1521786650.319029919]:  Poseposition: 
  x: 0.458828
  y: 0.5834
  z: 0.76659
orientation: 
  x: -0.456355
  y: 0.534929
  z: 0.295558
  w: 0.646712
[0m
[0m[ INFO] [1521786650.348987776]: Reveiving New Data Now![0m
[0m[ INFO] [1521786650.349032517]: Sending msg speedl([-0.000426596,0.0163659,0.0213889,0,0,0],1.2,0.2)
[0m
[0m[ INFO] [1521786650.349053053]: Current Poseposition: 
  x: 0.458949
  y: 0.580578
  z: 0.762933
orientation: 
  x: -0.457206
  y: 0.534008
  z: 0.295574
  w: 0.646865
[0m
[0m[ INFO] [1521786650.349070283]:  Poseposition: 
  x: 0.458864
  y: 0.583851
  z: 0.767211
orientation: 
  x: -0.456355
  y: 0.534929
  z: 0.295558
  w: 0.646712
[0m
[0m[ INFO] [1521786650.379453166]: Reveiving New Data Now![0m
[0m[ INFO] [1521786650.379532964]: Sending msg speedl([-0.00170315,0.0133138,0.0158881,0,0,0],1.2,0.2)
[0m
[0m[ INFO] [1521786650.379571752]: Current Poseposition: 
  x: 0.458928
  y: 0.581112
  z: 0.763591
orientation: 
  x: -0.457222
  y: 0.534017
  z: 0.29556
  w: 0.646852
[0m
[0m[ INFO] [1521786650.379598979]:  Poseposition: 
  x: 0.458588
  y: 0.583775
  z: 0.766769
orientation: 
  x: -0.456355
  y: 0.534929
  z: 0.295558
  w: 0.646712
[0m
[0m[ INFO] [1521786650.409805109]: Reveiving New Data Now![0m
[0m[ INFO] [1521786650.409894387]: Sending msg speedl([-0.00127361,0.0127389,0.0140075,0,0,0],1.2,0.2)
[0m
[0m[ INFO] [1521786650.409933978]: Current Poseposition: 
  x: 0.458894
  y: 0.581578
  z: 0.764207
orientation: 
  x: -0.457192
  y: 0.534004
  z: 0.29557
  w: 0.64688
[0m
[0m[ INFO] [1521786650.409961686]:  Poseposition: 
  x: 0.45864
  y: 0.584126
  z: 0.767009
orientation: 
  x: -0.456355
  y: 0.534929
  z: 0.295558
  w: 0.646712
[0m
[0m[ INFO] [1521786650.440067497]: Reveiving New Data Now![0m
[0m[ INFO] [1521786650.440165215]: Sending msg speedl([-0.000616423,0.0107751,0.0103035,0,0,0],1.2,0.2)
[0m
[0m[ INFO] [1521786650.440203006]: Current Poseposition: 
  x: 0.458842
  y: 0.581994
  z: 0.764648
orientation: 
  x: -0.457223
  y: 0.534023
  z: 0.295546
  w: 0.646854
[0m
[0m[ INFO] [1521786650.440228906]:  Poseposition: 
  x: 0.458719
  y: 0.584149
  z: 0.766709
orientation: 
  x: -0.456355
  y: 0.534929
  z: 0.295558
  w: 0.646712
[0m
[0m[ INFO] [1521786650.480078446]: Reveiving New Data Now![0m
[0m[ INFO] [1521786650.480165418]: Sending msg speedl([-0.00104275,0.00781696,0.00603428,0,0,0],1.2,0.2)
[0m
[0m[ INFO] [1521786650.480203058]: Current Poseposition: 
  x: 0.4588
  y: 0.582418
  z: 0.765078
orientation: 
  x: -0.457242
  y: 0.534035
  z: 0.295546
  w: 0.64683
[0m
[0m[ INFO] [1521786650.480229705]:  Poseposition: 
  x: 0.458591
  y: 0.583982
  z: 0.766285
orientation: 
  x: -0.456355
  y: 0.534929
  z: 0.295558
  w: 0.646712
[0m
[0m[ INFO] [1521786650.510474047]: Reveiving New Data Now![0m
[0m[ INFO] [1521786650.510533451]: Sending msg speedl([-0.00153341,0.00614802,0.00394078,0,0,0],1.2,0.2)
[0m
[0m[ INFO] [1521786650.510559908]: Current Poseposition: 
  x: 0.458808
  y: 0.582665
  z: 0.765301
orientation: 
  x: -0.45722
  y: 0.534009
  z: 0.29556
  w: 0.646861
[0m
[0m[ INFO] [1521786650.510576618]:  Poseposition: 
  x: 0.458502
  y: 0.583895
  z: 0.766089
orientation: 
  x: -0.456355
  y: 0.534929
  z: 0.295558
  w: 0.646712
[0m
[0m[ INFO] [1521786650.540950408]: Reveiving New Data Now![0m
[0m[ INFO] [1521786650.541038528]: Sending msg speedl([-0.00123996,0.00478735,0.00139896,0,0,0],1.2,0.2)
[0m
[0m[ INFO] [1521786650.541076015]: Current Poseposition: 
  x: 0.458804
  y: 0.582894
  z: 0.765385
orientation: 
  x: -0.457238
  y: 0.534032
  z: 0.295526
  w: 0.646844
[0m
[0m[ INFO] [1521786650.541099069]:  Poseposition: 
  x: 0.458556
  y: 0.583852
  z: 0.765665
orientation: 
  x: -0.456355
  y: 0.534929
  z: 0.295558
  w: 0.646712
[0m
[0m[ INFO] [1521786650.571227983]: Reveiving New Data Now![0m
[0m[ INFO] [1521786650.571301802]: Sending msg speedl([-0.00106536,0.00364984,-0.000614555,0,0,0],1.2,0.2)
[0m
[0m[ INFO] [1521786650.571339630]: Current Poseposition: 
  x: 0.458755
  y: 0.583044
  z: 0.765514
orientation: 
  x: -0.457219
  y: 0.533998
  z: 0.295557
  w: 0.646871
[0m
[0m[ INFO] [1521786650.571365070]:  Poseposition: 
  x: 0.458541
  y: 0.583774
  z: 0.765391
orientation: 
  x: -0.456355
  y: 0.534929
  z: 0.295558
  w: 0.646712
[0m
[0m[ INFO] [1521786650.601516499]: Reveiving New Data Now![0m
[0m[ INFO] [1521786650.601592446]: Sending msg speedl([-0.00130399,0.00260085,-0.00338035,0,0,0],1.2,0.2)
[0m
[0m[ INFO] [1521786650.601630412]: Current Poseposition: 
  x: 0.458686
  y: 0.583103
  z: 0.76559
orientation: 
  x: -0.457223
  y: 0.533944
  z: 0.295569
  w: 0.646908
[0m
[0m[ INFO] [1521786650.601657109]:  Poseposition: 
  x: 0.458425
  y: 0.583623
  z: 0.764914
orientation: 
  x: -0.456355
  y: 0.534929
  z: 0.295558
  w: 0.646712
[0m
[0m[ INFO] [1521786650.633606614]: Reveiving New Data Now![0m
[0m[ INFO] [1521786650.633686432]: Sending msg speedl([-0.00106937,0.00210318,-0.00613411,0,0,0],1.2,0.2)
[0m
[0m[ INFO] [1521786650.633723829]: Current Poseposition: 
  x: 0.458678
  y: 0.583112
  z: 0.76556
orientation: 
  x: -0.457172
  y: 0.533949
  z: 0.295535
  w: 0.646956
[0m
[0m[ INFO] [1521786650.633751629]:  Poseposition: 
  x: 0.458464
  y: 0.583532
  z: 0.764333
orientation: 
  x: -0.456355
  y: 0.534929
  z: 0.295558
  w: 0.646712
[0m
[0m[ INFO] [1521786650.662387960]: Reveiving New Data Now![0m
[0m[ INFO] [1521786650.662496503]: Sending msg speedl([-0.00150719,0.000824339,-0.00733569,0,0,0],1.2,0.2)
[0m
[0m[ INFO] [1521786650.662540681]: Current Poseposition: 
  x: 0.458642
  y: 0.583187
  z: 0.76548
orientation: 
  x: -0.457175
  y: 0.53394
  z: 0.295561
  w: 0.646949
[0m
[0m[ INFO] [1521786650.662570836]:  Poseposition: 
  x: 0.45834
  y: 0.583352
  z: 0.764013
orientation: 
  x: -0.456355
  y: 0.534929
  z: 0.295558
  w: 0.646712
[0m
[0m[ INFO] [1521786650.692585335]: Reveiving New Data Now![0m
[0m[ INFO] [1521786650.692666491]: Sending msg speedl([-0.0036038,-0.00213182,-0.0115332,0,0,0],1.2,0.2)
[0m
[0m[ INFO] [1521786650.692703476]: Current Poseposition: 
  x: 0.458615
  y: 0.58327
  z: 0.765266
orientation: 
  x: -0.45717
  y: 0.533928
  z: 0.295554
  w: 0.646966
[0m
[0m[ INFO] [1521786650.692727321]:  Poseposition: 
  x: 0.457895
  y: 0.582843
  z: 0.76296
orientation: 
  x: -0.456355
  y: 0.534929
  z: 0.295558
  w: 0.646712
[0m
[0m[ INFO] [1521786650.723017531]: Reveiving New Data Now![0m
[0m[ INFO] [1521786650.723095582]: Sending msg speedl([-0.00382163,-0.00385947,-0.0140326,0,0,0],1.2,0.2)
[0m
[0m[ INFO] [1521786650.723136062]: Current Poseposition: 
  x: 0.458586
  y: 0.58329
  z: 0.765
orientation: 
  x: -0.457148
  y: 0.533935
  z: 0.295562
  w: 0.646972
[0m
[0m[ INFO] [1521786650.723154118]:  Poseposition: 
  x: 0.457821
  y: 0.582518
  z: 0.762194
orientation: 
  x: -0.456355
  y: 0.534929
  z: 0.295558
  w: 0.646712
[0m
[0m[ INFO] [1521786650.753485551]: Reveiving New Data Now![0m
[0m[ INFO] [1521786650.753555026]: Sending msg speedl([-0.0040812,-0.00477581,-0.0150277,0,0,0],1.2,0.2)
[0m
[0m[ INFO] [1521786650.753592283]: Current Poseposition: 
  x: 0.458429
  y: 0.583174
  z: 0.764522
orientation: 
  x: -0.457183
  y: 0.533945
  z: 0.295539
  w: 0.64695
[0m
[0m[ INFO] [1521786650.753615722]:  Poseposition: 
  x: 0.457612
  y: 0.582219
  z: 0.761516
orientation: 
  x: -0.456355
  y: 0.534929
  z: 0.295558
  w: 0.646712
[0m
[0m[ INFO] [1521786650.783797061]: Reveiving New Data Now![0m
[0m[ INFO] [1521786650.783871024]: Sending msg speedl([-0.00602298,-0.00704792,-0.0196204,0,0,0],1.2,0.2)
[0m
[0m[ INFO] [1521786650.783907261]: Current Poseposition: 
  x: 0.458318
  y: 0.58304
  z: 0.764017
orientation: 
  x: -0.457176
  y: 0.533983
  z: 0.295533
  w: 0.646925
[0m
[0m[ INFO] [1521786650.783929750]:  Poseposition: 
  x: 0.457113
  y: 0.58163
  z: 0.760093
orientation: 
  x: -0.456355
  y: 0.534929
  z: 0.295558
  w: 0.646712
[0m
[0m[ INFO] [1521786650.814013101]: Reveiving New Data Now![0m
[0m[ INFO] [1521786650.814083505]: Sending msg speedl([-0.00657178,-0.0079869,-0.0222344,0,0,0],1.2,0.2)
[0m
[0m[ INFO] [1521786650.814124607]: Current Poseposition: 
  x: 0.458229
  y: 0.582905
  z: 0.763595
orientation: 
  x: -0.457204
  y: 0.53401
  z: 0.295514
  w: 0.646892
[0m
[0m[ INFO] [1521786650.814152771]:  Poseposition: 
  x: 0.456914
  y: 0.581308
  z: 0.759149
orientation: 
  x: -0.456355
  y: 0.534929
  z: 0.295558
  w: 0.646712
[0m
[0m[ INFO] [1521786650.846442528]: Reveiving New Data Now![0m
[0m[ INFO] [1521786650.846515510]: Sending msg speedl([-0.00613137,-0.0091304,-0.0245924,0,0,0],1.2,0.2)
[0m
[0m[ INFO] [1521786650.846582034]: Current Poseposition: 
  x: 0.458017
  y: 0.582707
  z: 0.762828
orientation: 
  x: -0.457216
  y: 0.534033
  z: 0.295508
  w: 0.646867
[0m
[0m[ INFO] [1521786650.846604316]:  Poseposition: 
  x: 0.456791
  y: 0.580881
  z: 0.757909
orientation: 
  x: -0.456355
  y: 0.534929
  z: 0.295558
  w: 0.646712
[0m
[0m[ INFO] [1521786650.876946993]: Reveiving New Data Now![0m
[0m[ INFO] [1521786650.877002858]: Sending msg speedl([-0.00536138,-0.00907604,-0.0231258,0,0,0],1.2,0.2)
[0m
[0m[ INFO] [1521786650.877029155]: Current Poseposition: 
  x: 0.457806
  y: 0.582475
  z: 0.761992
orientation: 
  x: -0.457255
  y: 0.53406
  z: 0.295479
  w: 0.64683
[0m
[0m[ INFO] [1521786650.877048255]:  Poseposition: 
  x: 0.456733
  y: 0.58066
  z: 0.757367
orientation: 
  x: -0.456355
  y: 0.534929
  z: 0.295558
  w: 0.646712
[0m
[0m[ INFO] [1521786650.907120631]: Reveiving New Data Now![0m
[0m[ INFO] [1521786650.907198315]: Sending msg speedl([-0.00504568,-0.00894684,-0.0220191,0,0,0],1.2,0.2)
[0m
[0m[ INFO] [1521786650.907237574]: Current Poseposition: 
  x: 0.457628
  y: 0.582174
  z: 0.761178
orientation: 
  x: -0.457235
  y: 0.534055
  z: 0.295505
  w: 0.646837
[0m
[0m[ INFO] [1521786650.907266044]:  Poseposition: 
  x: 0.456618
  y: 0.580384
  z: 0.756774
orientation: 
  x: -0.456355
  y: 0.534929
  z: 0.295558
  w: 0.646712
[0m
[0m[ INFO] [1521786650.937416976]: Reveiving New Data Now![0m
[0m[ INFO] [1521786650.937495289]: Sending msg speedl([-0.00473224,-0.0092468,-0.0223286,0,0,0],1.2,0.2)
[0m
[0m[ INFO] [1521786650.937534066]: Current Poseposition: 
  x: 0.457475
  y: 0.581896
  z: 0.760461
orientation: 
  x: -0.457263
  y: 0.534037
  z: 0.295496
  w: 0.646837
[0m
[0m[ INFO] [1521786650.937561076]:  Poseposition: 
  x: 0.456528
  y: 0.580046
  z: 0.755996
orientation: 
  x: -0.456355
  y: 0.534929
  z: 0.295558
  w: 0.646712
[0m
[0m[ INFO] [1521786650.969910779]: Reveiving New Data Now![0m
[0m[ INFO] [1521786650.970009502]: Sending msg speedl([-0.00460003,-0.00866443,-0.0215653,0,0,0],1.2,0.2)
[0m
[0m[ INFO] [1521786650.970051211]: Current Poseposition: 
  x: 0.457332
  y: 0.581564
  z: 0.759818
orientation: 
  x: -0.457195
  y: 0.534022
  z: 0.295518
  w: 0.646887
[0m
[0m[ INFO] [1521786650.970081514]:  Poseposition: 
  x: 0.456412
  y: 0.579831
  z: 0.755505
orientation: 
  x: -0.456355
  y: 0.534929
  z: 0.295558
  w: 0.646712
[0m
[0m[ INFO] [1521786651.000032009]: Reveiving New Data Now![0m
[0m[ INFO] [1521786651.000138949]: Sending msg speedl([-0.00438417,-0.00962352,-0.0234812,0,0,0],1.2,0.2)
[0m
[0m[ INFO] [1521786651.000180954]: Current Poseposition: 
  x: 0.457149
  y: 0.581297
  z: 0.759053
orientation: 
  x: -0.457238
  y: 0.534034
  z: 0.295511
  w: 0.646849
[0m
[0m[ INFO] [1521786651.000210069]:  Poseposition: 
  x: 0.456273
  y: 0.579372
  z: 0.754357
orientation: 
  x: -0.456355
  y: 0.534929
  z: 0.295558
  w: 0.646712
[0m
[0m[ INFO] [1521786651.030563279]: Reveiving New Data Now![0m
[0m[ INFO] [1521786651.030644733]: Sending msg speedl([-0.00436826,-0.00973238,-0.024166,0,0,0],1.2,0.2)
[0m
[0m[ INFO] [1521786651.030685277]: Current Poseposition: 
  x: 0.457052
  y: 0.58105
  z: 0.758542
orientation: 
  x: -0.457226
  y: 0.534045
  z: 0.295503
  w: 0.646853
[0m
[0m[ INFO] [1521786651.030712482]:  Poseposition: 
  x: 0.456178
  y: 0.579103
  z: 0.753708
orientation: 
  x: -0.456355
  y: 0.534929
  z: 0.295558
  w: 0.646712
[0m
[0m[ INFO] [1521786651.060840205]: Reveiving New Data Now![0m
[0m[ INFO] [1521786651.060917582]: Sending msg speedl([-0.00442833,-0.0105808,-0.0274397,0,0,0],1.2,0.2)
[0m
[0m[ INFO] [1521786651.060954160]: Current Poseposition: 
  x: 0.456911
  y: 0.580769
  z: 0.757733
orientation: 
  x: -0.457232
  y: 0.534067
  z: 0.295495
  w: 0.646834
[0m
[0m[ INFO] [1521786651.060975452]:  Poseposition: 
  x: 0.456026
  y: 0.578653
  z: 0.752245
orientation: 
  x: -0.456355
  y: 0.534929
  z: 0.295558
  w: 0.646712
[0m
[0m[ INFO] [1521786651.091087437]: Reveiving New Data Now![0m
[0m[ INFO] [1521786651.091160688]: Sending msg speedl([-0.00451253,-0.00998975,-0.0271792,0,0,0],1.2,0.2)
[0m
[0m[ INFO] [1521786651.091200056]: Current Poseposition: 
  x: 0.456732
  y: 0.580435
  z: 0.757042
orientation: 
  x: -0.457203
  y: 0.534025
  z: 0.295535
  w: 0.646871
[0m
[0m[ INFO] [1521786651.091226003]:  Poseposition: 
  x: 0.45583
  y: 0.578437
  z: 0.751606
orientation: 
  x: -0.456355
  y: 0.534929
  z: 0.295558
  w: 0.646712
[0m
[0m[ INFO] [1521786651.121641717]: Reveiving New Data Now![0m
[0m[ INFO] [1521786651.121734153]: Sending msg speedl([-0.00465688,-0.0096858,-0.0270786,0,0,0],1.2,0.2)
[0m
[0m[ INFO] [1521786651.121772784]: Current Poseposition: 
  x: 0.456573
  y: 0.58008
  z: 0.756201
orientation: 
  x: -0.457202
  y: 0.533997
  z: 0.29552
  w: 0.646902
[0m
[0m[ INFO] [1521786651.121798456]:  Poseposition: 
  x: 0.455641
  y: 0.578143
  z: 0.750785
orientation: 
  x: -0.456355
  y: 0.534929
  z: 0.295558
  w: 0.646712
[0m
[0m[ INFO] [1521786651.152016833]: Reveiving New Data Now![0m
[0m[ INFO] [1521786651.152093060]: Sending msg speedl([-0.00631087,-0.00973417,-0.0291312,0,0,0],1.2,0.2)
[0m
[0m[ INFO] [1521786651.152132491]: Current Poseposition: 
  x: 0.456443
  y: 0.579787
  z: 0.755306
orientation: 
  x: -0.45718
  y: 0.53401
  z: 0.295538
  w: 0.646899
[0m
[0m[ INFO] [1521786651.152187465]:  Poseposition: 
  x: 0.455181
  y: 0.57784
  z: 0.74948
orientation: 
  x: -0.456355
  y: 0.534929
  z: 0.295558
  w: 0.646712
[0m
[0m[ INFO] [1521786651.182252792]: Reveiving New Data Now![0m
[0m[ INFO] [1521786651.182323685]: Sending msg speedl([-0.00845258,-0.0109407,-0.0341001,0,0,0],1.2,0.2)
[0m
[0m[ INFO] [1521786651.182360424]: Current Poseposition: 
  x: 0.456327
  y: 0.579578
  z: 0.754591
orientation: 
  x: -0.457184
  y: 0.534022
  z: 0.295536
  w: 0.646886
[0m
[0m[ INFO] [1521786651.182385838]:  Poseposition: 
  x: 0.454636
  y: 0.57739
  z: 0.747771
orientation: 
  x: -0.456355
  y: 0.534929
  z: 0.295558
  w: 0.646712
[0m
