[0m[ INFO] [1526193237.506414553]: CONNECTED TO SERVER[0m
[0m[ INFO] [1526193237.506528135]: Rotation from base to left arm is:
 -0.6275  0.4394 -0.6428
 -0.691  0.0663  0.7198
 0.3589  0.8958   0.262[0m
[0m[ INFO] [1526193237.506546749]: The determinant of the rotation(left) is
0.99996[0m
[0m[ INFO] [1526193237.506580838]: Rotation from base to right arm is:
 0.6275  0.4394  0.6428
 -0.691 -0.0663  0.7198
 0.3589 -0.8958   0.262[0m
[0m[ INFO] [1526193237.506594899]: The determinant of the rotation(right) is:
0.99996[0m
[0m[ INFO] [1526193246.964608307]: Receiving imu data[0m
[0m[ INFO] [1526193246.998121072]: Receiving imu data[0m
[0m[ INFO] [1526193247.031202074]: Receiving imu data[0m
[0m[ INFO] [1526193247.064487736]: Receiving imu data[0m
[0m[ INFO] [1526193247.097808458]: Receiving imu data[0m
[0m[ INFO] [1526193247.128390229]: Reveiving New Data Now![0m
[0m[ INFO] [1526193247.128477178]: Sending msg speedl([0,-0.000193609,-0.000219462,0,0,0],2,0);$$$speedl([0,0,0,0,0,0],2,0);[0m
[0m[ INFO] [1526193247.133300801]: Receiving imu data[0m
[0m[ INFO] [1526193247.133403553]: Reveiving New Data Now![0m
[0m[ INFO] [1526193247.133480892]: Sending msg speedl([0.00024974,-0.000529897,-0.000667543,0,0,0],2,0);$$$speedl([0,0,0,0,0,0],2,0);[0m
[0m[ INFO] [1526193247.164492435]: Receiving imu data[0m
[0m[ INFO] [1526193247.164579713]: Reveiving New Data Now![0m
[0m[ INFO] [1526193247.164659516]: Sending msg speedl([0.000249957,-0.000601562,-0.000757899,0,0,0],2,0);$$$speedl([0,0,0,0,0,0],2,0);[0m
[0m[ INFO] [1526193247.197792496]: Receiving imu data[0m
[0m[ INFO] [1526193247.197954227]: Reveiving New Data Now![0m
[0m[ INFO] [1526193247.198032700]: Sending msg speedl([0.000196169,-0.000507296,-0.00069071,0,0,0],2,0);$$$speedl([0,0,0,0,0,0],2,0);[0m
[0m[ INFO] [1526193247.231240852]: Receiving imu data[0m
[0m[ INFO] [1526193247.231439455]: Reveiving New Data Now![0m
[0m[ INFO] [1526193247.231518741]: Sending msg speedl([0.000308904,-0.000574218,-0.000805916,0,0,0],2,0);$$$speedl([0,0,0,0,0,0],2,0);[0m
[0m[ INFO] [1526193247.264503067]: Receiving imu data[0m
[0m[ INFO] [1526193247.264651062]: Reveiving New Data Now![0m
[0m[ INFO] [1526193247.264728204]: Sending msg speedl([0.000365275,-0.000607697,-0.000863504,0,0,0],2,0);$$$speedl([0,0,0,0,0,0],2,0);[0m
[0m[ INFO] [1526193247.298049075]: Receiving imu data[0m
[0m[ INFO] [1526193247.331236810]: Receiving imu data[0m
[0m[ INFO] [1526193247.331378146]: Reveiving New Data Now![0m
[0m[ INFO] [1526193247.331459084]: Sending msg speedl([0.000364544,-0.00056389,-0.000868314,0,0,0],2,0);$$$speedl([0,0,0,0,0,0],2,0);[0m
[0m[ INFO] [1526193247.364553060]: Receiving imu data[0m
[0m[ INFO] [1526193247.364594956]: Reveiving New Data Now![0m
[0m[ INFO] [1526193247.364679951]: Sending msg speedl([0,0.00016403,-0.000595756,0,0,0],2,0);$$$speedl([0,0,0,0,0,0],2,0);[0m
[0m[ INFO] [1526193247.398026019]: Receiving imu data[0m
[0m[ INFO] [1526193247.398066069]: Reveiving New Data Now![0m
[0m[ INFO] [1526193247.398150718]: Sending msg speedl([0.000139016,0.000275628,-0.000422103,0,0,0],2,0);$$$speedl([0,0,0,0,0,0],2,0);[0m
[0m[ INFO] [1526193247.431186495]: Receiving imu data[0m
[0m[ INFO] [1526193247.431225352]: Reveiving New Data Now![0m
[0m[ INFO] [1526193247.431296719]: Sending msg speedl([-0.000197978,0.00106219,-0.000111497,0,0,0],2,0);$$$speedl([0,0,0,0,0,0],2,0);[0m
[0m[ INFO] [1526193247.464565493]: Receiving imu data[0m
[0m[ INFO] [1526193247.464681864]: Reveiving New Data Now![0m
[0m[ INFO] [1526193247.464747572]: Sending msg speedl([-0.000198498,0.00120542,0,0,0,0],2,0);$$$speedl([0,0,0,0,0,0],2,0);[0m
[0m[ INFO] [1526193247.498010568]: Receiving imu data[0m
[0m[ INFO] [1526193247.531359983]: Reveiving New Data Now![0m
[0m[ INFO] [1526193247.531402267]: Receiving imu data[0m
[0m[ INFO] [1526193247.531444057]: Sending msg speedl([-0.000170454,0.00134506,0.000269915,0,0,0],2,0);$$$speedl([0,0,0,0,0,0],2,0);[0m
[0m[ INFO] [1526193247.564710414]: Receiving imu data[0m
[0m[ INFO] [1526193247.598011471]: Receiving imu data[0m
[0m[ INFO] [1526193247.631185309]: Receiving imu data[0m
[0m[ INFO] [1526193247.664542441]: Receiving imu data[0m
[0m[ INFO] [1526193247.664579230]: Reveiving New Data Now![0m
[0m[ INFO] [1526193247.664651445]: Sending msg speedl([-0.00603117,0.0114167,0.00393028,0,0,0],2,0);$$$speedl([0,0,0,0,0,0],2,0);[0m
[0m[ INFO] [1526193247.697853664]: Receiving imu data[0m
[0m[ INFO] [1526193247.697905981]: Reveiving New Data Now![0m
[0m[ INFO] [1526193247.697961118]: Sending msg speedl([-0.00798942,0.0111603,0.00290381,0,0,0],2,0);$$$speedl([0,0,0,0,0,0],2,0);[0m
[0m[ INFO] [1526193247.731243211]: Receiving imu data[0m
[0m[ INFO] [1526193247.764576609]: Receiving imu data[0m
[0m[ INFO] [1526193247.764614419]: Reveiving New Data Now![0m
[0m[ INFO] [1526193247.764679565]: Sending msg speedl([-0.0090967,0.0116678,0.00332422,0,0,0],2,0);$$$speedl([0,0,0,0,0,0],2,0);[0m
[0m[ INFO] [1526193247.797987727]: Receiving imu data[0m
[0m[ INFO] [1526193247.798193410]: Reveiving New Data Now![0m
[0m[ INFO] [1526193247.798262598]: Sending msg speedl([-0.00761431,0.00793446,0.002809,0,0,0],2,0);$$$speedl([0,0,0,0,0,0],2,0);[0m
[0m[ INFO] [1526193247.831172137]: Receiving imu data[0m
[0m[ INFO] [1526193247.864551535]: Receiving imu data[0m
[0m[ INFO] [1526193247.864588657]: Reveiving New Data Now![0m
[0m[ INFO] [1526193247.864643303]: Sending msg speedl([-0.0100805,0.00917007,0.00509868,0,0,0],2,0);$$$speedl([0,0,0,0,0,0],2,0);[0m
[0m[ INFO] [1526193247.897917763]: Receiving imu data[0m
[0m[ INFO] [1526193247.897948122]: Reveiving New Data Now![0m
[0m[ INFO] [1526193247.898017879]: Sending msg speedl([-0.0068589,0.00338064,0.00460137,0,0,0],2,0);$$$speedl([0,0,0,0,0,0],2,0);[0m
[0m[ INFO] [1526193247.931295053]: Receiving imu data[0m
[0m[ INFO] [1526193247.964651388]: Receiving imu data[0m
[0m[ INFO] [1526193247.964740507]: Reveiving New Data Now![0m
[0m[ INFO] [1526193247.964817372]: Sending msg speedl([-0.0103768,0.00457218,0.00329347,0,0,0],2,0);$$$speedl([0,0,0,0,0,0],2,0);[0m
[0m[ INFO] [1526193247.997906845]: Receiving imu data[0m
[0m[ INFO] [1526193247.997941589]: Reveiving New Data Now![0m
[0m[ INFO] [1526193247.998015102]: Sending msg speedl([-0.00970491,0.00234144,0.00122874,0,0,0],2,0);$$$speedl([0,0,0,0,0,0],2,0);[0m
[0m[ INFO] [1526193248.031248043]: Receiving imu data[0m
[0m[ INFO] [1526193248.064592424]: Receiving imu data[0m
[0m[ INFO] [1526193248.064677359]: Reveiving New Data Now![0m
[0m[ INFO] [1526193248.064729578]: Sending msg speedl([-0.0122642,0.00377658,0.00151312,0,0,0],2,0);$$$speedl([0,0,0,0,0,0],2,0);[0m
[0m[ INFO] [1526193248.097895023]: Receiving imu data[0m
[0m[ INFO] [1526193248.131262763]: Receiving imu data[0m
[0m[ INFO] [1526193248.164603766]: Receiving imu data[0m
[0m[ INFO] [1526193248.164691351]: Reveiving New Data Now![0m
[0m[ INFO] [1526193248.164770592]: Sending msg speedl([-0.00863811,0.000569139,-0.00153173,0,0,0],2,0);$$$speedl([0,0,0,0,0,0],2,0);[0m
[0m[ INFO] [1526193248.197891436]: Receiving imu data[0m
[0m[ INFO] [1526193248.197974999]: Reveiving New Data Now![0m
[0m[ INFO] [1526193248.198049381]: Sending msg speedl([-0.00474505,0.000604157,-0.00287562,0,0,0],2,0);$$$speedl([0,0,0,0,0,0],2,0);[0m
[0m[ INFO] [1526193248.231263995]: Receiving imu data[0m
[0m[ INFO] [1526193248.264600019]: Receiving imu data[0m
[0m[ INFO] [1526193248.264689975]: Reveiving New Data Now![0m
[0m[ INFO] [1526193248.264769346]: Sending msg speedl([-0.0105424,0.00485783,-0.00229662,0,0,0],2,0);$$$speedl([0,0,0,0,0,0],2,0);[0m
[0m[ INFO] [1526193248.297897475]: Receiving imu data[0m
[0m[ INFO] [1526193248.297986823]: Reveiving New Data Now![0m
[0m[ INFO] [1526193248.298064002]: Sending msg speedl([-0.0102117,0.00606128,0.00144655,0,0,0],2,0);$$$speedl([0,0,0,0,0,0],2,0);[0m
[0m[ INFO] [1526193248.331271051]: Receiving imu data[0m
[0m[ INFO] [1526193248.331359148]: Reveiving New Data Now![0m
[0m[ INFO] [1526193248.331439178]: Sending msg speedl([-0.0108188,0.00626739,0.00192354,0,0,0],2,0);$$$speedl([0,0,0,0,0,0],2,0);[0m
[0m[ INFO] [1526193248.364595369]: Receiving imu data[0m
[0m[ INFO] [1526193248.364681631]: Reveiving New Data Now![0m
[0m[ INFO] [1526193248.364759432]: Sending msg speedl([-0.0117567,0.00686648,0.00303445,0,0,0],2,0);$$$speedl([0,0,0,0,0,0],2,0);[0m
[0m[ INFO] [1526193248.397906162]: Receiving imu data[0m
[0m[ INFO] [1526193248.431274965]: Receiving imu data[0m
[0m[ INFO] [1526193248.431365010]: Reveiving New Data Now![0m
[0m[ INFO] [1526193248.431447084]: Sending msg speedl([-0.010912,0.00954691,0.005713,0,0,0],2,0);$$$speedl([0,0,0,0,0,0],2,0);[0m
[0m[ INFO] [1526193248.464590744]: Receiving imu data[0m
[0m[ INFO] [1526193248.464678509]: Reveiving New Data Now![0m
[0m[ INFO] [1526193248.464768831]: Sending msg speedl([-0.0136293,0.0126284,0.00723783,0,0,0],2,0);$$$speedl([0,0,0,0,0,0],2,0);[0m
[0m[ INFO] [1526193248.497900046]: Receiving imu data[0m
[0m[ INFO] [1526193248.497932571]: Reveiving New Data Now![0m
[0m[ INFO] [1526193248.498008519]: Sending msg speedl([-0.00837894,0.010023,0.00618544,0,0,0],2,0);$$$speedl([0,0,0,0,0,0],2,0);[0m
[0m[ INFO] [1526193248.531212820]: Receiving imu data[0m
[0m[ INFO] [1526193248.531242555]: Reveiving New Data Now![0m
[0m[ INFO] [1526193248.531449397]: Sending msg speedl([-0.0106696,0.0126807,0.00832637,0,0,0],2,0);$$$speedl([0,0,0,0,0,0],2,0);[0m
[0m[ INFO] [1526193248.564517729]: Receiving imu data[0m
[0m[ INFO] [1526193248.564547112]: Reveiving New Data Now![0m
[0m[ INFO] [1526193248.564597190]: Sending msg speedl([-0.0132848,0.0162161,0.0109045,0,0,0],2,0);$$$speedl([0,0,0,0,0,0],2,0);[0m
[0m[ INFO] [1526193248.597800111]: Receiving imu data[0m
[0m[ INFO] [1526193248.631234900]: Receiving imu data[0m
[0m[ INFO] [1526193248.631263768]: Reveiving New Data Now![0m
[0m[ INFO] [1526193248.631369781]: Sending msg speedl([-0.00930679,0.0118615,0.00820319,0,0,0],2,0);$$$speedl([0,0,0,0,0,0],2,0);[0m
[0m[ INFO] [1526193248.664503139]: Receiving imu data[0m
[0m[ INFO] [1526193248.697856229]: Receiving imu data[0m
[0m[ INFO] [1526193248.697896977]: Reveiving New Data Now![0m
[0m[ INFO] [1526193248.697984057]: Sending msg speedl([-0.00545898,0.0071322,0.00664628,0,0,0],2,0);$$$speedl([0,0,0,0,0,0],2,0);[0m
[0m[ INFO] [1526193248.731169093]: Receiving imu data[0m
[0m[ INFO] [1526193248.731207937]: Reveiving New Data Now![0m
[0m[ INFO] [1526193248.731292973]: Sending msg speedl([-0.00989573,0.0127167,0.0101313,0,0,0],2,0);$$$speedl([0,0,0,0,0,0],2,0);[0m
[0m[ INFO] [1526193248.764510378]: Receiving imu data[0m
[0m[ INFO] [1526193248.764541314]: Reveiving New Data Now![0m
[0m[ INFO] [1526193248.764611287]: Sending msg speedl([-0.010392,0.013386,0.0104049,0,0,0],2,0);$$$speedl([0,0,0,0,0,0],2,0);[0m
[0m[ INFO] [1526193248.797853833]: Receiving imu data[0m
[0m[ INFO] [1526193248.797886718]: Reveiving New Data Now![0m
[0m[ INFO] [1526193248.798022719]: Sending msg speedl([-0.0104622,0.00909551,0.00999836,0,0,0],2,0);$$$speedl([0,0,0,0,0,0],2,0);[0m
[0m[ INFO] [1526193248.831148239]: Receiving imu data[0m
[0m[ INFO] [1526193248.831189571]: Reveiving New Data Now![0m
[0m[ INFO] [1526193248.831278040]: Sending msg speedl([-0.0134144,0.0110568,0.01303,0,0,0],2,0);$$$speedl([0,0,0,0,0,0],2,0);[0m
[0m[ INFO] [1526193248.864528878]: Receiving imu data[0m
[0m[ INFO] [1526193248.864567501]: Reveiving New Data Now![0m
[0m[ INFO] [1526193248.864651150]: Sending msg speedl([-0.0139043,0.0113056,0.0135912,0,0,0],2,0);$$$speedl([0,0,0,0,0,0],2,0);[0m
[0m[ INFO] [1526193248.897822285]: Receiving imu data[0m
[0m[ INFO] [1526193248.897865418]: Reveiving New Data Now![0m
[0m[ INFO] [1526193248.897951219]: Sending msg speedl([-0.00838655,0.00486326,0.00891258,0,0,0],2,0);$$$speedl([0,0,0,0,0,0],2,0);[0m
[0m[ INFO] [1526193248.931165761]: Receiving imu data[0m
[0m[ INFO] [1526193248.931206369]: Reveiving New Data Now![0m
[0m[ INFO] [1526193248.931296120]: Sending msg speedl([-0.00876998,0.00518253,0.00953552,0,0,0],2,0);$$$speedl([0,0,0,0,0,0],2,0);[0m
[0m[ INFO] [1526193248.964576911]: Receiving imu data[0m
[0m[ INFO] [1526193248.965071508]: Reveiving New Data Now![0m
[0m[ INFO] [1526193248.965144429]: Sending msg speedl([-0.0117037,0.00873936,0.0118853,0,0,0],2,0);$$$speedl([0,0,0,0,0,0],2,0);[0m
[0m[ INFO] [1526193248.997859877]: Receiving imu data[0m
[0m[ INFO] [1526193248.997897663]: Reveiving New Data Now![0m
[0m[ INFO] [1526193248.997983074]: Sending msg speedl([-0.00550084,0.00406093,0.00533064,0,0,0],2,0);$$$speedl([0,0,0,0,0,0],2,0);[0m
[0m[ INFO] [1526193249.031200884]: Receiving imu data[0m
[0m[ INFO] [1526193249.064537627]: Receiving imu data[0m
[0m[ INFO] [1526193249.097784466]: Receiving imu data[0m
[0m[ INFO] [1526193249.097824026]: Reveiving New Data Now![0m
[0m[ INFO] [1526193249.097909835]: Sending msg speedl([-0.00558744,0.0087487,0.00513237,0,0,0],2,0);$$$speedl([0,0,0,0,0,0],2,0);[0m
[0m[ INFO] [1526193249.131178563]: Receiving imu data[0m
[0m[ INFO] [1526193249.131231194]: Reveiving New Data Now![0m
[0m[ INFO] [1526193249.131309119]: Sending msg speedl([-0.00640472,0.00927821,0.00626037,0,0,0],2,0);$$$speedl([0,0,0,0,0,0],2,0);[0m
[0m[ INFO] [1526193249.164536237]: Receiving imu data[0m
[0m[ INFO] [1526193249.197976886]: Receiving imu data[0m
[0m[ INFO] [1526193249.231289258]: Receiving imu data[0m
[0m[ INFO] [1526193249.231325860]: Reveiving New Data Now![0m
[0m[ INFO] [1526193249.231383949]: Sending msg speedl([-0.00658813,0.00973422,0.00475271,0,0,0],2,0);$$$speedl([0,0,0,0,0,0],2,0);[0m
[0m[ INFO] [1526193249.264522444]: Receiving imu data[0m
[0m[ INFO] [1526193249.264557076]: Reveiving New Data Now![0m
[0m[ INFO] [1526193249.264631468]: Sending msg speedl([-0.0151128,0.0155949,0.0127626,0,0,0],2,0);$$$speedl([0,0,0,0,0,0],2,0);[0m
[0m[ INFO] [1526193249.297797060]: Receiving imu data[0m
[0m[ INFO] [1526193249.297878744]: Reveiving New Data Now![0m
[0m[ INFO] [1526193249.297982450]: Sending msg speedl([-0.0114503,0.011063,0.0106328,0,0,0],2,0);$$$speedl([0.000110242,0,0,0,0,0],2,0);[0m
[0m[ INFO] [1526193249.331176897]: Receiving imu data[0m
[0m[ INFO] [1526193249.331215271]: Reveiving New Data Now![0m
[0m[ INFO] [1526193249.331305895]: Sending msg speedl([-0.014827,0.0135149,0.0116455,0,0,0],2,0);$$$speedl([0.000110242,0,0,0,0,0],2,0);[0m
[0m[ INFO] [1526193249.364539824]: Receiving imu data[0m
[0m[ INFO] [1526193249.364579595]: Reveiving New Data Now![0m
[0m[ INFO] [1526193249.364668544]: Sending msg speedl([-0.0154844,0.0141167,0.0128811,0,0,0],2,0);$$$speedl([0.000110242,0,0,0,0,0],2,0);[0m
[0m[ INFO] [1526193249.397872688]: Receiving imu data[0m
[0m[ INFO] [1526193249.397911548]: Reveiving New Data Now![0m
[0m[ INFO] [1526193249.397999191]: Sending msg speedl([-0.0106436,0.00704165,0.00729397,0,0,0],2,0);$$$speedl([0,0.000108158,0,0,0,0],2,0);[0m
[0m[ INFO] [1526193249.431155317]: Receiving imu data[0m
[0m[ INFO] [1526193249.431189669]: Reveiving New Data Now![0m
[0m[ INFO] [1526193249.431257731]: Sending msg speedl([-0.0127539,0.00832202,0.00910903,0,0,0],2,0);$$$speedl([0,0.000108158,0,0,0,0],2,0);[0m
[0m[ INFO] [1526193249.464519123]: Receiving imu data[0m
[0m[ INFO] [1526193249.464553943]: Reveiving New Data Now![0m
[0m[ INFO] [1526193249.464628566]: Sending msg speedl([-0.0154706,0.0105034,0.0097552,0,0,0],2,0);$$$speedl([0,0.000108158,0,0,0,0],2,0);[0m
[0m[ INFO] [1526193249.497787843]: Receiving imu data[0m
[0m[ INFO] [1526193249.497824102]: Reveiving New Data Now![0m
[0m[ INFO] [1526193249.497896943]: Sending msg speedl([-0.0105331,0.00547923,0.00486954,0,0,0],2,0);$$$speedl([0,0,0,0,0,0],2,0);[0m
[0m[ INFO] [1526193249.531143954]: Receiving imu data[0m
[0m[ INFO] [1526193249.531181934]: Reveiving New Data Now![0m
[0m[ INFO] [1526193249.531248830]: Sending msg speedl([-0.0129647,0.00701443,0.00575928,0,0,0],2,0);$$$speedl([0,0,0,0,0,0],2,0);[0m
[0m[ INFO] [1526193249.564506105]: Receiving imu data[0m
[0m[ INFO] [1526193249.564542959]: Reveiving New Data Now![0m
[0m[ INFO] [1526193249.564608365]: Sending msg speedl([-0.0135465,0.00710134,0.00618788,0,0,0],2,0);$$$speedl([0,0,0,0,0,0],2,0);[0m
[0m[ INFO] [1526193249.597797181]: Receiving imu data[0m
[0m[ INFO] [1526193249.597833952]: Reveiving New Data Now![0m
[0m[ INFO] [1526193249.597909065]: Sending msg speedl([-0.00898272,0.00473867,0.00285601,0,0,0],2,0);$$$speedl([0,0,0,0,0,0],2,0);[0m
[0m[ INFO] [1526193249.631171601]: Receiving imu data[0m
[0m[ INFO] [1526193249.631209739]: Reveiving New Data Now![0m
[0m[ INFO] [1526193249.631281960]: Sending msg speedl([-0.0105118,0.00495775,0.00398366,0,0,0],2,0);$$$speedl([0,0,0,0,0,0],2,0);[0m
[0m[ INFO] [1526193249.664500989]: Receiving imu data[0m
[0m[ INFO] [1526193249.664536981]: Reveiving New Data Now![0m
[0m[ INFO] [1526193249.664606919]: Sending msg speedl([-0.0144176,0.00762344,0.0051791,0,0,0],2,0);$$$speedl([0,0,0,0,0,0],2,0);[0m
[0m[ INFO] [1526193249.697993045]: Receiving imu data[0m
[0m[ INFO] [1526193249.698028783]: Reveiving New Data Now![0m
[0m[ INFO] [1526193249.698101099]: Sending msg speedl([-0.0110441,0.00534151,0.00265846,0,0,0],2,0);$$$speedl([0,0,0,0,0,0],2,0);[0m
[0m[ INFO] [1526193249.731204164]: Receiving imu data[0m
[0m[ INFO] [1526193249.764492533]: Receiving imu data[0m
[0m[ INFO] [1526193249.764529306]: Reveiving New Data Now![0m
[0m[ INFO] [1526193249.764596719]: Sending msg speedl([-0.0141052,0.00770241,0.00401779,0,0,0],2,0);$$$speedl([0,0,0,0,0,0],2,0);[0m
[0m[ INFO] [1526193249.797816153]: Receiving imu data[0m
[0m[ INFO] [1526193249.797852180]: Reveiving New Data Now![0m
[0m[ INFO] [1526193249.797924651]: Sending msg speedl([-0.00915767,0.00450359,0.00275878,0,0,0],2,0);$$$speedl([0,0,0,0,0,0],2,0);[0m
[0m[ INFO] [1526193249.831237559]: Receiving imu data[0m
[0m[ INFO] [1526193249.831276442]: Reveiving New Data Now![0m
[0m[ INFO] [1526193249.831351027]: Sending msg speedl([-0.0104508,0.00541509,0.00305037,0,0,0],2,0);$$$speedl([0,0,0,0,0,0],2,0);[0m
[0m[ INFO] [1526193249.864503539]: Receiving imu data[0m
[0m[ INFO] [1526193249.864567008]: Reveiving New Data Now![0m
[0m[ INFO] [1526193249.864644551]: Sending msg speedl([-0.0156721,0.00688161,0.00740137,0,0,0],2,0);$$$speedl([0,0,0,0,0,0],2,0);[0m
[0m[ INFO] [1526193249.897944515]: Receiving imu data[0m
[0m[ INFO] [1526193249.897970872]: Reveiving New Data Now![0m
[0m[ INFO] [1526193249.898037547]: Sending msg speedl([-0.0100931,0.00361956,0.0062465,0,0,0],2,0);$$$speedl([0,0,0,0,0,0],2,0);[0m
[0m[ INFO] [1526193249.931222498]: Receiving imu data[0m
[0m[ INFO] [1526193249.931258309]: Reveiving New Data Now![0m
[0m[ INFO] [1526193249.931333140]: Sending msg speedl([-0.0113109,0.00409094,0.0067431,0,0,0],2,0);$$$speedl([0,0,0,0,0,0],2,0);[0m
[0m[ INFO] [1526193249.964539895]: Receiving imu data[0m
[0m[ INFO] [1526193249.964575600]: Reveiving New Data Now![0m
[0m[ INFO] [1526193249.964653825]: Sending msg speedl([-0.0138928,0.00543276,0.00746195,0,0,0],2,0);$$$speedl([0,0,0,0,0,0],2,0);[0m
[0m[ INFO] [1526193249.997821226]: Receiving imu data[0m
[0m[ INFO] [1526193249.997848784]: Reveiving New Data Now![0m
[0m[ INFO] [1526193249.997918549]: Sending msg speedl([-0.00791459,0.00309167,0.00518974,0,0,0],2,0);$$$speedl([0,0,0,0,0,0],2,0);[0m
[0m[ INFO] [1526193250.031177988]: Receiving imu data[0m
[0m[ INFO] [1526193250.031209058]: Reveiving New Data Now![0m
[0m[ INFO] [1526193250.031280996]: Sending msg speedl([-0.0103568,0.00398965,0.00693472,0,0,0],2,0);$$$speedl([0,0,0,0,0,0],2,0);[0m
[0m[ INFO] [1526193250.064520405]: Receiving imu data[0m
[0m[ INFO] [1526193250.064549660]: Reveiving New Data Now![0m
[0m[ INFO] [1526193250.064616248]: Sending msg speedl([-0.0115915,0.0046353,0.00755623,0,0,0],2,0);$$$speedl([0,0,0,0,0,0],2,0);[0m
[0m[ INFO] [1526193250.097821805]: Receiving imu data[0m
[0m[ INFO] [1526193250.097848903]: Reveiving New Data Now![0m
[0m[ INFO] [1526193250.097918217]: Sending msg speedl([-0.00840591,0.00338436,0.00543564,0,0,0],2,0);$$$speedl([0,0,0,0,0,0],2,0);[0m
[0m[ INFO] [1526193250.131164999]: Receiving imu data[0m
[0m[ INFO] [1526193250.131193651]: Reveiving New Data Now![0m
[0m[ INFO] [1526193250.131243466]: Sending msg speedl([-0.0125902,0.00503446,0.0069544,0,0,0],2,0);$$$speedl([0,0,0,0,0,0],2,0);[0m
[0m[ INFO] [1526193250.164577623]: Receiving imu data[0m
[0m[ INFO] [1526193250.164613717]: Reveiving New Data Now![0m
[0m[ INFO] [1526193250.164687921]: Sending msg speedl([-0.0151879,0.00628608,0.00793706,0,0,0],2,0);$$$speedl([0,0,0,0,0,0],2,0);[0m
[0m[ INFO] [1526193250.197839574]: Receiving imu data[0m
[0m[ INFO] [1526193250.197877457]: Reveiving New Data Now![0m
[0m[ INFO] [1526193250.197953561]: Sending msg speedl([-0.0105631,0.0060039,0.00345464,0,0,0],2,0);$$$speedl([0.000159684,0,0,0,0,0],2,0);[0m
[0m[ INFO] [1526193250.231152847]: Receiving imu data[0m
[0m[ INFO] [1526193250.231187075]: Reveiving New Data Now![0m
[0m[ INFO] [1526193250.231260483]: Sending msg speedl([-0.0123284,0.0065835,0.00409815,0,0,0],2,0);$$$speedl([0.000159684,0,0,0,0,0],2,0);[0m
[0m[ INFO] [1526193250.264539368]: Receiving imu data[0m
[0m[ INFO] [1526193250.264576018]: Reveiving New Data Now![0m
[0m[ INFO] [1526193250.264651428]: Sending msg speedl([-0.0141463,0.00726935,0.00489846,0,0,0],2,0);$$$speedl([0.000159684,0,0,0,0,0],2,0);[0m
[0m[ INFO] [1526193250.297894689]: Receiving imu data[0m
[0m[ INFO] [1526193250.297930108]: Reveiving New Data Now![0m
[0m[ INFO] [1526193250.298003708]: Sending msg speedl([-0.010774,0.00651241,0.00257484,0,0,0],2,0);$$$speedl([0,0,0,0,0,0],2,0);[0m
[0m[ INFO] [1526193250.331182679]: Receiving imu data[0m
[0m[ INFO] [1526193250.331220207]: Reveiving New Data Now![0m
[0m[ INFO] [1526193250.331296752]: Sending msg speedl([-0.0147639,0.00711705,0.00470948,0,0,0],2,0);$$$speedl([0,0,0,0,0,0],2,0);[0m
[0m[ INFO] [1526193250.364539989]: Receiving imu data[0m
[0m[ INFO] [1526193250.364574896]: Reveiving New Data Now![0m
[0m[ INFO] [1526193250.364649513]: Sending msg speedl([-0.0158403,0.00784073,0.00502255,0,0,0],2,0);$$$speedl([0,0,0,0,0,0],2,0);[0m
[0m[ INFO] [1526193250.397876354]: Receiving imu data[0m
[0m[ INFO] [1526193250.397913113]: Reveiving New Data Now![0m
[0m[ INFO] [1526193250.397988571]: Sending msg speedl([-0.0121534,0.00584155,0.00471624,0,0,0],2,0);$$$speedl([0,0,0,0,0,0],2,0);[0m
[0m[ INFO] [1526193250.431201372]: Receiving imu data[0m
[0m[ INFO] [1526193250.431308678]: Reveiving New Data Now![0m
[0m[ INFO] [1526193250.431384330]: Sending msg speedl([-0.0129582,0.00584212,0.00523332,0,0,0],2,0);$$$speedl([0,0,0,0,0,0],2,0);[0m
[0m[ INFO] [1526193250.464540481]: Receiving imu data[0m
[0m[ INFO] [1526193250.464575749]: Reveiving New Data Now![0m
[0m[ INFO] [1526193250.464651046]: Sending msg speedl([-0.0193767,0.00823174,0.00898087,0,0,0],2,0);$$$speedl([0,0,0,0,0,0],2,0);[0m
[0m[ INFO] [1526193250.498006970]: Receiving imu data[0m
[0m[ INFO] [1526193250.531199710]: Receiving imu data[0m
[0m[ INFO] [1526193250.531257530]: Reveiving New Data Now![0m
[0m[ INFO] [1526193250.531333309]: Sending msg speedl([-0.0174616,0.0073205,0.00934055,0,0,0],2,0);$$$speedl([0.000107355,0.000100148,0,0,0,0],2,0);[0m
[0m[ INFO] [1526193250.564481280]: Receiving imu data[0m
[0m[ INFO] [1526193250.564521283]: Reveiving New Data Now![0m
[0m[ INFO] [1526193250.564576696]: Sending msg speedl([-0.0221505,0.00828844,0.0127684,0,0,0],2,0);$$$speedl([0.000107355,0.000100148,0,0,0,0],2,0);[0m
[0m[ INFO] [1526193250.597862940]: Receiving imu data[0m
[0m[ INFO] [1526193250.597895335]: Reveiving New Data Now![0m
[0m[ INFO] [1526193250.597973147]: Sending msg speedl([-0.0110436,0.0053568,0.0089365,0,0,0],2,0);$$$speedl([0,0,0,0,0,0],2,0);[0m
[0m[ INFO] [1526193250.631159191]: Receiving imu data[0m
[0m[ INFO] [1526193250.631224145]: Reveiving New Data Now![0m
[0m[ INFO] [1526193250.631299625]: Sending msg speedl([-0.014723,0.00655852,0.0108983,0,0,0],2,0);$$$speedl([0,0,0,0,0,0],2,0);[0m
[0m[ INFO] [1526193250.664534544]: Receiving imu data[0m
[0m[ INFO] [1526193250.664572920]: Reveiving New Data Now![0m
[0m[ INFO] [1526193250.664627999]: Sending msg speedl([-0.01891,0.00786545,0.0133162,0,0,0],2,0);$$$speedl([0,0,0,0,0,0],2,0);[0m
[0m[ INFO] [1526193250.697828497]: Receiving imu data[0m
[0m[ INFO] [1526193250.697901705]: Reveiving New Data Now![0m
[0m[ INFO] [1526193250.697970209]: Sending msg speedl([-0.011945,0.00553534,0.00739476,0,0,0],2,0);$$$speedl([0,0,0,0,0,0],2,0);[0m
[0m[ INFO] [1526193250.731206694]: Receiving imu data[0m
[0m[ INFO] [1526193250.731262282]: Reveiving New Data Now![0m
[0m[ INFO] [1526193250.731340136]: Sending msg speedl([-0.0129771,0.0057655,0.0085716,0,0,0],2,0);$$$speedl([0,0,0,0,0,0],2,0);[0m
[0m[ INFO] [1526193250.764505100]: Receiving imu data[0m
[0m[ INFO] [1526193250.764543894]: Reveiving New Data Now![0m
[0m[ INFO] [1526193250.764622341]: Sending msg speedl([-0.0175457,0.00851898,0.0104468,0,0,0],2,0);$$$speedl([0,0,0,0,0,0],2,0);[0m
[0m[ INFO] [1526193250.797810518]: Receiving imu data[0m
[0m[ INFO] [1526193250.797844564]: Reveiving New Data Now![0m
[0m[ INFO] [1526193250.797931371]: Sending msg speedl([-0.00937776,0.00349933,0.00564886,0,0,0],2,0);$$$speedl([0,0.000116985,0,0,0,0],2,0);[0m
[0m[ INFO] [1526193250.831243020]: Reveiving New Data Now![0m
[0m[ INFO] [1526193250.831287094]: Receiving imu data[0m
[0m[ INFO] [1526193250.831329844]: Sending msg speedl([-0.0131156,0.00521915,0.00703837,0,0,0],2,0);$$$speedl([0,0.000116985,0,0,0,0],2,0);[0m
[0m[ INFO] [1526193250.864546068]: Receiving imu data[0m
[0m[ INFO] [1526193250.864578595]: Reveiving New Data Now![0m
[0m[ INFO] [1526193250.864654053]: Sending msg speedl([-0.0152326,0.00634036,0.00756723,0,0,0],2,0);$$$speedl([0,0.000116985,0,0,0,0],2,0);[0m
[0m[ INFO] [1526193250.897912689]: Receiving imu data[0m
[0m[ INFO] [1526193250.897949113]: Reveiving New Data Now![0m
[0m[ INFO] [1526193250.898025226]: Sending msg speedl([-0.00909507,0.00333441,0.0037186,0,0,0],2,0);$$$speedl([0,0,0,0,0,0],2,0);[0m
[0m[ INFO] [1526193250.931189661]: Receiving imu data[0m
[0m[ INFO] [1526193250.931224118]: Reveiving New Data Now![0m
[0m[ INFO] [1526193250.931280936]: Sending msg speedl([-0.0109457,0.00419737,0.00489179,0,0,0],2,0);$$$speedl([0,0,0,0,0,0],2,0);[0m
[0m[ INFO] [1526193250.964536708]: Receiving imu data[0m
[0m[ INFO] [1526193250.964570596]: Reveiving New Data Now![0m
[0m[ INFO] [1526193250.964633025]: Sending msg speedl([-0.0137267,0.00508666,0.00680266,0,0,0],2,0);$$$speedl([0,0,0,0,0,0],2,0);[0m
[0m[ INFO] [1526193250.997877712]: Receiving imu data[0m
[0m[ INFO] [1526193250.997912945]: Reveiving New Data Now![0m
[0m[ INFO] [1526193250.997987106]: Sending msg speedl([-0.0105724,0.0041069,0.00408207,0,0,0],2,0);$$$speedl([0,0.000105526,0,0,0,0],2,0);[0m
[0m[ INFO] [1526193251.031178783]: Receiving imu data[0m
[0m[ INFO] [1526193251.031213189]: Reveiving New Data Now![0m
[0m[ INFO] [1526193251.031290224]: Sending msg speedl([-0.01785,0.00595939,0.00697018,0,0,0],2,0);$$$speedl([0,0.000105526,0,0,0,0],2,0);[0m
[0m[ INFO] [1526193251.064565186]: Receiving imu data[0m
[0m[ INFO] [1526193251.064599570]: Reveiving New Data Now![0m
[0m[ INFO] [1526193251.064668985]: Sending msg speedl([-0.0215985,0.00726951,0.00834816,0,0,0],2,0);$$$speedl([0,0.000105526,0,0,0,0],2,0);[0m
[0m[ INFO] [1526193251.097817964]: Receiving imu data[0m
[0m[ INFO] [1526193251.097854468]: Reveiving New Data Now![0m
[0m[ INFO] [1526193251.097911585]: Sending msg speedl([-0.0182663,0.00599365,0.00692009,0,0,0],2,0);$$$speedl([0,0,0,0,0,0],2,0);[0m
[0m[ INFO] [1526193251.131156092]: Receiving imu data[0m
[0m[ INFO] [1526193251.131191413]: Reveiving New Data Now![0m
[0m[ INFO] [1526193251.131327935]: Sending msg speedl([-0.0227184,0.00714637,0.00874208,0,0,0],2,0);$$$speedl([0,0,0,0,0,0],2,0);[0m
[0m[ INFO] [1526193251.164913136]: Receiving imu data[0m
[0m[ INFO] [1526193251.164951233]: Reveiving New Data Now![0m
[0m[ INFO] [1526193251.165029466]: Sending msg speedl([-0.0248553,0.00761084,0.00949298,0,0,0],2,0);$$$speedl([0,0,0,0,0,0],2,0);[0m
[0m[ INFO] [1526193251.197821587]: Receiving imu data[0m
[0m[ INFO] [1526193251.197856586]: Reveiving New Data Now![0m
[0m[ INFO] [1526193251.197932052]: Sending msg speedl([-0.0154018,0.00390934,0.00594177,0,0,0],2,0);$$$speedl([0,0,0,0,0,0],2,0);[0m
[0m[ INFO] [1526193251.231187314]: Receiving imu data[0m
[0m[ INFO] [1526193251.231220485]: Reveiving New Data Now![0m
[0m[ INFO] [1526193251.231298612]: Sending msg speedl([-0.0178998,0.00436883,0.00711666,0,0,0],2,0);$$$speedl([0,0,0,0,0,0],2,0);[0m
[0m[ INFO] [1526193251.264534939]: Receiving imu data[0m
[0m[ INFO] [1526193251.264574724]: Reveiving New Data Now![0m
[0m[ INFO] [1526193251.264651677]: Sending msg speedl([-0.021106,0.00556662,0.00820868,0,0,0],2,0);$$$speedl([0,0,0,0,0,0],2,0);[0m
[0m[ INFO] [1526193251.297870555]: Receiving imu data[0m
[0m[ INFO] [1526193251.297907408]: Reveiving New Data Now![0m
[0m[ INFO] [1526193251.297986053]: Sending msg speedl([-0.012274,0.00345628,0.00535575,0,0,0],2,0);$$$speedl([0,0,0,0,0,0],2,0);[0m
[0m[ INFO] [1526193251.331204480]: Receiving imu data[0m
[0m[ INFO] [1526193251.331236707]: Reveiving New Data Now![0m
[0m[ INFO] [1526193251.331310750]: Sending msg speedl([-0.0126489,0.00343961,0.00564376,0,0,0],2,0);$$$speedl([0,0,0,0,0,0],2,0);[0m
[0m[ INFO] [1526193251.364475606]: Receiving imu data[0m
[0m[ INFO] [1526193251.364527035]: Reveiving New Data Now![0m
[0m[ INFO] [1526193251.364607828]: Sending msg speedl([-0.0173939,0.00509314,0.00688405,0,0,0],2,0);$$$speedl([0,0,0,0,0,0],2,0);[0m
[0m[ INFO] [1526193251.397870635]: Receiving imu data[0m
[0m[ INFO] [1526193251.397912665]: Reveiving New Data Now![0m
[0m[ INFO] [1526193251.398002543]: Sending msg speedl([-0.0146533,0.00400565,0.00536607,0,0,0],2,0);$$$speedl([0,0,0,0,0,0],2,0);[0m
[0m[ INFO] [1526193251.431231931]: Receiving imu data[0m
[0m[ INFO] [1526193251.431268846]: Reveiving New Data Now![0m
[0m[ INFO] [1526193251.431346514]: Sending msg speedl([-0.0161033,0.0043982,0.00551953,0,0,0],2,0);$$$speedl([0,0,0,0,0,0],2,0);[0m
[0m[ INFO] [1526193251.464555039]: Receiving imu data[0m
[0m[ INFO] [1526193251.464589758]: Reveiving New Data Now![0m
[0m[ INFO] [1526193251.464666647]: Sending msg speedl([-0.0189501,0.00528722,0.00597941,0,0,0],2,0);$$$speedl([0,0,0,0,0,0],2,0);[0m
[0m[ INFO] [1526193251.497822992]: Receiving imu data[0m
[0m[ INFO] [1526193251.497859952]: Reveiving New Data Now![0m
[0m[ INFO] [1526193251.497947834]: Sending msg speedl([-0.0116308,0.00308856,0.00353222,0,0,0],2,0);$$$speedl([0.000113192,0,0,0,0,0],2,0);[0m
[0m[ INFO] [1526193251.531182272]: Receiving imu data[0m
[0m[ INFO] [1526193251.531243300]: Reveiving New Data Now![0m
[0m[ INFO] [1526193251.531299926]: Sending msg speedl([-0.0129035,0.00349106,0.00375969,0,0,0],2,0);$$$speedl([0.000113192,0,0,0,0,0],2,0);[0m
[0m[ INFO] [1526193251.564518578]: Receiving imu data[0m
[0m[ INFO] [1526193251.564580194]: Reveiving New Data Now![0m
[0m[ INFO] [1526193251.564634450]: Sending msg speedl([-0.0168661,0.00350736,0.00560377,0,0,0],2,0);$$$speedl([0.000113192,0,0,0,0,0],2,0);[0m
[0m[ INFO] [1526193251.597857300]: Receiving imu data[0m
[0m[ INFO] [1526193251.597920194]: Reveiving New Data Now![0m
[0m[ INFO] [1526193251.597975908]: Sending msg speedl([-0.0148635,0.00211986,0.00599528,0,0,0],2,0);$$$speedl([0,0,0,0,0,0],2,0);[0m
[0m[ INFO] [1526193251.631214832]: Receiving imu data[0m
[0m[ INFO] [1526193251.631251869]: Reveiving New Data Now![0m
[0m[ INFO] [1526193251.631338492]: Sending msg speedl([-0.017403,0.00238673,0.00725836,0,0,0],2,0);$$$speedl([0,0,0,0,0,0],2,0);[0m
[0m[ INFO] [1526193251.664529115]: Receiving imu data[0m
[0m[ INFO] [1526193251.664569247]: Reveiving New Data Now![0m
[0m[ INFO] [1526193251.664677672]: Sending msg speedl([-0.0200945,0.00275464,0.00871387,0,0,0],2,0);$$$speedl([0,0,0,0,0,0],2,0);[0m
[0m[ INFO] [1526193251.697839280]: Receiving imu data[0m
[0m[ INFO] [1526193251.697878086]: Reveiving New Data Now![0m
[0m[ INFO] [1526193251.697963562]: Sending msg speedl([-0.0157172,0.00236546,0.00734647,0,0,0],2,0);$$$speedl([0,0,0,0,0,0],2,0);[0m
[0m[ INFO] [1526193251.731204566]: Receiving imu data[0m
[0m[ INFO] [1526193251.731249327]: Reveiving New Data Now![0m
[0m[ INFO] [1526193251.731684937]: Sending msg speedl([-0.0172593,0.00226162,0.00859656,0,0,0],2,0);$$$speedl([0,0,0,0,0,0],2,0);[0m
[0m[ INFO] [1526193251.764546158]: Receiving imu data[0m
[0m[ INFO] [1526193251.764586698]: Reveiving New Data Now![0m
[0m[ INFO] [1526193251.764656517]: Sending msg speedl([-0.0206224,0.00292648,0.00983131,0,0,0],2,0);$$$speedl([0,0,0,0,0,0],2,0);[0m
[0m[ INFO] [1526193251.798004048]: Receiving imu data[0m
[0m[ INFO] [1526193251.798042816]: Reveiving New Data Now![0m
[0m[ INFO] [1526193251.798121744]: Sending msg speedl([-0.0138762,0.00132369,0.00681103,0,0,0],2,0);$$$speedl([0,0,0,0,0,0],2,0);[0m
[0m[ INFO] [1526193251.831195166]: Receiving imu data[0m
[0m[ INFO] [1526193251.831269148]: Reveiving New Data Now![0m
[0m[ INFO] [1526193251.831343145]: Sending msg speedl([-0.0189271,0.00242026,0.00918626,0,0,0],2,0);$$$speedl([0,0,0,0,0,0],2,0);[0m
[0m[ INFO] [1526193251.864512447]: Receiving imu data[0m
[0m[ INFO] [1526193251.864551151]: Reveiving New Data Now![0m
[0m[ INFO] [1526193251.864628099]: Sending msg speedl([-0.0197297,0.00290141,0.00966335,0,0,0],2,0);$$$speedl([0,0,0,0,0,0],2,0);[0m
[0m[ INFO] [1526193251.897799820]: Receiving imu data[0m
[0m[ INFO] [1526193251.897839079]: Reveiving New Data Now![0m
[0m[ INFO] [1526193251.897912961]: Sending msg speedl([-0.0122548,0.00228972,0.00526986,0,0,0],2,0);$$$speedl([0,0.000100152,0,0,0,0],2,0);[0m
[0m[ INFO] [1526193251.931129371]: Receiving imu data[0m
[0m[ INFO] [1526193251.931164884]: Reveiving New Data Now![0m
[0m[ INFO] [1526193251.931238808]: Sending msg speedl([-0.0152457,0.00327067,0.0069987,0,0,0],2,0);$$$speedl([0,0.000100152,0,0,0,0],2,0);[0m
[0m[ INFO] [1526193251.964500027]: Receiving imu data[0m
[0m[ INFO] [1526193251.964538733]: Reveiving New Data Now![0m
[0m[ INFO] [1526193251.964623198]: Sending msg speedl([-0.0177046,0.00336812,0.00862265,0,0,0],2,0);$$$speedl([0,0.000100152,0,0,0,0],2,0);[0m
[0m[ INFO] [1526193251.997790096]: Receiving imu data[0m
[0m[ INFO] [1526193251.997827154]: Reveiving New Data Now![0m
[0m[ INFO] [1526193251.997897620]: Sending msg speedl([-0.0108502,0.00308604,0.00426111,0,0,0],2,0);$$$speedl([0,0,0,0,0,0],2,0);[0m
[0m[ INFO] [1526193252.031166156]: Receiving imu data[0m
[0m[ INFO] [1526193252.031203953]: Reveiving New Data Now![0m
[0m[ INFO] [1526193252.031275727]: Sending msg speedl([-0.0115759,0.00328718,0.00442671,0,0,0],2,0);$$$speedl([0,0,0,0,0,0],2,0);[0m
[0m[ INFO] [1526193252.064498916]: Receiving imu data[0m
[0m[ INFO] [1526193252.064535992]: Reveiving New Data Now![0m
[0m[ INFO] [1526193252.064611656]: Sending msg speedl([-0.0129872,0.00323274,0.00575705,0,0,0],2,0);$$$speedl([0,0,0,0,0,0],2,0);[0m
[0m[ INFO] [1526193252.097777919]: Receiving imu data[0m
[0m[ INFO] [1526193252.097815766]: Reveiving New Data Now![0m
[0m[ INFO] [1526193252.097884364]: Sending msg speedl([-0.010616,0.00294595,0.00700053,0,0,0],2,0);$$$speedl([0,0,0,0,0,0],2,0);[0m
[0m[ INFO] [1526193252.131182093]: Receiving imu data[0m
[0m[ INFO] [1526193252.131219670]: Reveiving New Data Now![0m
[0m[ INFO] [1526193252.131294611]: Sending msg speedl([-0.0127108,0.00322332,0.00773505,0,0,0],2,0);$$$speedl([0,0,0,0,0,0],2,0);[0m
[0m[ INFO] [1526193252.164498717]: Receiving imu data[0m
[0m[ INFO] [1526193252.164536822]: Reveiving New Data Now![0m
[0m[ INFO] [1526193252.164607517]: Sending msg speedl([-0.0145158,0.0034868,0.00968964,0,0,0],2,0);$$$speedl([0,0,0,0,0,0],2,0);[0m
[0m[ INFO] [1526193252.197795978]: Receiving imu data[0m
[0m[ INFO] [1526193252.197855421]: Reveiving New Data Now![0m
[0m[ INFO] [1526193252.197922324]: Sending msg speedl([-0.0103652,0.00263289,0.0076011,0,0,0],2,0);$$$speedl([0,0,0,0,0,0],2,0);[0m
[0m[ INFO] [1526193252.231211463]: Receiving imu data[0m
[0m[ INFO] [1526193252.231256740]: Reveiving New Data Now![0m
[0m[ INFO] [1526193252.231340877]: Sending msg speedl([-0.0107522,0.00270374,0.00818051,0,0,0],2,0);$$$speedl([0,0,0,0,0,0],2,0);[0m
[0m[ INFO] [1526193252.264480598]: Receiving imu data[0m
[0m[ INFO] [1526193252.264516913]: Reveiving New Data Now![0m
[0m[ INFO] [1526193252.264622647]: Sending msg speedl([-0.0122215,0.00300361,0.00925119,0,0,0],2,0);$$$speedl([0,0,0,0,0,0],2,0);[0m
[0m[ INFO] [1526193252.297802292]: Receiving imu data[0m
[0m[ INFO] [1526193252.297838876]: Reveiving New Data Now![0m
[0m[ INFO] [1526193252.297918276]: Sending msg speedl([-0.00499625,0.00178432,0.00474638,0,0,0],2,0);$$$speedl([0,0,0,0,0,0],2,0);[0m
[0m[ INFO] [1526193252.331190451]: Receiving imu data[0m
[0m[ INFO] [1526193252.331217278]: Reveiving New Data Now![0m
[0m[ INFO] [1526193252.331286776]: Sending msg speedl([-0.00595915,0.00199369,0.00491797,0,0,0],2,0);$$$speedl([0,0,0,0,0,0],2,0);[0m
[0m[ INFO] [1526193252.364509608]: Receiving imu data[0m
[0m[ INFO] [1526193252.364534365]: Reveiving New Data Now![0m
[0m[ INFO] [1526193252.364616088]: Sending msg speedl([-0.00651335,0.00234203,0.00565349,0,0,0],2,0);$$$speedl([0,0,0,0,0,0],2,0);[0m
[0m[ INFO] [1526193252.397846474]: Receiving imu data[0m
[0m[ INFO] [1526193252.397872662]: Reveiving New Data Now![0m
[0m[ INFO] [1526193252.397940722]: Sending msg speedl([-0.0013639,0.000903042,0.00182768,0,0,0],2,0);$$$speedl([0,0,0,0,0,0],2,0);[0m
[0m[ INFO] [1526193252.431267490]: Receiving imu data[0m
[0m[ INFO] [1526193252.431304068]: Reveiving New Data Now![0m
[0m[ INFO] [1526193252.431388744]: Sending msg speedl([-0.0022645,0.00106962,0.00195606,0,0,0],2,0);$$$speedl([0,0,0,0,0,0],2,0);[0m
[0m[ INFO] [1526193252.464630436]: Receiving imu data[0m
[0m[ INFO] [1526193252.464666748]: Reveiving New Data Now![0m
[0m[ INFO] [1526193252.464753074]: Sending msg speedl([-0.00247878,0.00113047,0.00233123,0,0,0],2,0);$$$speedl([0,0,0,0,0,0],2,0);[0m
[0m[ INFO] [1526193252.497793895]: Receiving imu data[0m
[0m[ INFO] [1526193252.497831470]: Reveiving New Data Now![0m
[0m[ INFO] [1526193252.497914599]: Sending msg speedl([-0.00240407,0.000269725,0.000119898,0,0,0],2,0);$$$speedl([0,0,0,0,0,0],2,0);[0m
[0m[ INFO] [1526193252.531148032]: Receiving imu data[0m
[0m[ INFO] [1526193252.531184432]: Reveiving New Data Now![0m
[0m[ INFO] [1526193252.531269907]: Sending msg speedl([-0.00326924,0.000244218,0.000256757,0,0,0],2,0);$$$speedl([0,0,0,0,0,0],2,0);[0m
[0m[ INFO] [1526193252.564520657]: Receiving imu data[0m
[0m[ INFO] [1526193252.597823750]: Receiving imu data[0m
[0m[ INFO] [1526193252.597946253]: Reveiving New Data Now![0m
[0m[ INFO] [1526193252.598014391]: Sending msg speedl([-0.00136036,-0.000698153,-0.00107953,0,0,0],2,0);$$$speedl([0,0,0,0,0,0],2,0);[0m
[0m[ INFO] [1526193252.631177315]: Receiving imu data[0m
[0m[ INFO] [1526193252.631235115]: Reveiving New Data Now![0m
[0m[ INFO] [1526193252.631305519]: Sending msg speedl([-0.0015308,-0.000692884,-0.000873196,0,0,0],2,0);$$$speedl([0,0,0,0,0,0],2,0);[0m
[0m[ INFO] [1526193252.667232455]: Receiving imu data[0m
[0m[ INFO] [1526193252.667272582]: Reveiving New Data Now![0m
[0m[ INFO] [1526193252.667356527]: Sending msg speedl([-0.00223905,-0.000620128,-0.000622753,0,0,0],2,0);$$$speedl([0,0,0,0,0,0],2,0);[0m
[0m[ INFO] [1526193252.697833951]: Receiving imu data[0m
[0m[ INFO] [1526193252.697905605]: Reveiving New Data Now![0m
[0m[ INFO] [1526193252.697977739]: Sending msg speedl([-0.00261573,-0.00149483,0.000309282,0,0,0],2,0);$$$speedl([0,0,0,0,0,0],2,0);[0m
[0m[ INFO] [1526193252.731159290]: Receiving imu data[0m
[0m[ INFO] [1526193252.731195842]: Reveiving New Data Now![0m
[0m[ INFO] [1526193252.731281575]: Sending msg speedl([-0.00358564,-0.00177665,0.000820199,0,0,0],2,0);$$$speedl([0,0,0,0,0,0],2,0);[0m
[0m[ INFO] [1526193252.764546141]: Receiving imu data[0m
[0m[ INFO] [1526193252.764581984]: Reveiving New Data Now![0m
[0m[ INFO] [1526193252.764656185]: Sending msg speedl([-0.00434367,-0.00217526,0.00102684,0,0,0],2,0);$$$speedl([0,0,0,0,0,0],2,0);[0m
[0m[ INFO] [1526193252.797867936]: Receiving imu data[0m
[0m[ INFO] [1526193252.797904735]: Reveiving New Data Now![0m
[0m[ INFO] [1526193252.797988720]: Sending msg speedl([-0.00396444,-0.00205519,0.0010341,0,0,0],2,0);$$$speedl([0,0,0,0,0,0],2,0);[0m
[0m[ INFO] [1526193252.831337896]: Receiving imu data[0m
[0m[ INFO] [1526193252.864553424]: Receiving imu data[0m
[0m[ INFO] [1526193252.864590426]: Reveiving New Data Now![0m
[0m[ INFO] [1526193252.864677006]: Sending msg speedl([-0.00410349,-0.00217532,0.00124562,0,0,0],2,0);$$$speedl([0,0,0,0,0,0],2,0);[0m
[0m[ INFO] [1526193252.897865333]: Receiving imu data[0m
[0m[ INFO] [1526193252.897901988]: Reveiving New Data Now![0m
[0m[ INFO] [1526193252.897961401]: Sending msg speedl([-0.00164305,-0.00139653,0.00124847,0,0,0],2,0);$$$speedl([0,0,0,0,0,0],2,0);[0m
[0m[ INFO] [1526193252.931265807]: Receiving imu data[0m
[0m[ INFO] [1526193252.964837517]: Receiving imu data[0m
[0m[ INFO] [1526193252.964866645]: Reveiving New Data Now![0m
[0m[ INFO] [1526193252.964940739]: Sending msg speedl([-0.000146878,-0.00197511,0.000825776,0,0,0],2,0);$$$speedl([0,0,0,0,0,0],2,0);[0m
[0m[ INFO] [1526193252.997782374]: Receiving imu data[0m
[0m[ INFO] [1526193252.997921609]: Reveiving New Data Now![0m
[0m[ INFO] [1526193252.997998768]: Sending msg speedl([0.00201022,-0.000969774,0.0007201,0,0,0],2,0);$$$speedl([0,0,0,0,0,0],2,0);[0m
[0m[ INFO] [1526193253.031258565]: Receiving imu data[0m
[0m[ INFO] [1526193253.031294341]: Reveiving New Data Now![0m
[0m[ INFO] [1526193253.031368412]: Sending msg speedl([0.00298631,-0.0014017,0.000264879,0,0,0],2,0);$$$speedl([0,0,0,0,0,0],2,0);[0m
[0m[ INFO] [1526193253.064532476]: Receiving imu data[0m
[0m[ INFO] [1526193253.064569637]: Reveiving New Data Now![0m
[0m[ INFO] [1526193253.064646898]: Sending msg speedl([0.00303621,-0.00151401,0.000394443,0,0,0],2,0);$$$speedl([0,0,0,0,0,0],2,0);[0m
[0m[ INFO] [1526193253.097839321]: Receiving imu data[0m
[0m[ INFO] [1526193253.097872598]: Reveiving New Data Now![0m
[0m[ INFO] [1526193253.097943783]: Sending msg speedl([0.0048477,-0.00112006,0.000272092,0,0,0],2,0);$$$speedl([0,0,0,0,0,0],2,0);[0m
[0m[ INFO] [1526193253.131179698]: Receiving imu data[0m
[0m[ INFO] [1526193253.131216345]: Reveiving New Data Now![0m
[0m[ INFO] [1526193253.131282303]: Sending msg speedl([0.00637357,-0.00164518,-0.000351782,0,0,0],2,0);$$$speedl([0,0,0,0,0,0],2,0);[0m
[0m[ INFO] [1526193253.164542726]: Receiving imu data[0m
[0m[ INFO] [1526193253.164578037]: Reveiving New Data Now![0m
[0m[ INFO] [1526193253.164657566]: Sending msg speedl([0.00842294,-0.0022922,-0.00113205,0,0,0],2,0);$$$speedl([0,0,0,0,0,0],2,0);[0m
[0m[ INFO] [1526193253.197808276]: Receiving imu data[0m
[0m[ INFO] [1526193253.197842557]: Reveiving New Data Now![0m
[0m[ INFO] [1526193253.197917623]: Sending msg speedl([0.00697449,-0.00192699,-0.0016542,0,0,0],2,0);$$$speedl([0,0,0,0,0,0],2,0);[0m
[0m[ INFO] [1526193253.231265515]: Receiving imu data[0m
[0m[ INFO] [1526193253.231300253]: Reveiving New Data Now![0m
[0m[ INFO] [1526193253.231381852]: Sending msg speedl([0.00938657,-0.00251627,-0.002991,0,0,0],2,0);$$$speedl([0,0,0,0,0,0],2,0);[0m
[0m[ INFO] [1526193253.264508044]: Receiving imu data[0m
[0m[ INFO] [1526193253.264540863]: Reveiving New Data Now![0m
[0m[ INFO] [1526193253.264592473]: Sending msg speedl([0.0107721,-0.00280662,-0.00348984,0,0,0],2,0);$$$speedl([0,0,0,0,0,0],2,0);[0m
[0m[ INFO] [1526193253.297819478]: Receiving imu data[0m
[0m[ INFO] [1526193253.297852301]: Reveiving New Data Now![0m
[0m[ INFO] [1526193253.297907183]: Sending msg speedl([0.00784137,-0.000874824,-0.00320168,0,0,0],2,0);$$$speedl([0,0,0,0,0,0],2,0);[0m
[0m[ INFO] [1526193253.331121376]: Receiving imu data[0m
[0m[ INFO] [1526193253.331154378]: Reveiving New Data Now![0m
[0m[ INFO] [1526193253.331221669]: Sending msg speedl([0.0108101,-0.00148524,-0.00449906,0,0,0],2,0);$$$speedl([0,0,0,0,0,0],2,0);[0m
[0m[ INFO] [1526193253.364522371]: Receiving imu data[0m
[0m[ INFO] [1526193253.364557158]: Reveiving New Data Now![0m
[0m[ INFO] [1526193253.364629043]: Sending msg speedl([0.011147,-0.00145288,-0.00482083,0,0,0],2,0);$$$speedl([0,0,0,0,0,0],2,0);[0m
[0m[ INFO] [1526193253.397887868]: Receiving imu data[0m
[0m[ INFO] [1526193253.398250373]: Reveiving New Data Now![0m
[0m[ INFO] [1526193253.398323855]: Sending msg speedl([0.00601478,0.000279433,-0.00397697,0,0,0],2,0);$$$speedl([0,0,0,0,0,0],2,0);[0m
[0m[ INFO] [1526193253.431134081]: Receiving imu data[0m
[0m[ INFO] [1526193253.431195679]: Reveiving New Data Now![0m
[0m[ INFO] [1526193253.431265189]: Sending msg speedl([0.00874039,-0.000630572,-0.00516396,0,0,0],2,0);$$$speedl([0,0,0,0,0,0],2,0);[0m
[0m[ INFO] [1526193253.464549127]: Receiving imu data[0m
[0m[ INFO] [1526193253.497853164]: Receiving imu data[0m
[0m[ INFO] [1526193253.497900205]: Reveiving New Data Now![0m
[0m[ INFO] [1526193253.497986562]: Sending msg speedl([0.0106994,-0.00217255,-0.00571283,0,0,0],2,0);$$$speedl([0.000104404,0,0,0,0,0],2,0);[0m
[0m[ INFO] [1526193253.531141043]: Receiving imu data[0m
[0m[ INFO] [1526193253.531212213]: Reveiving New Data Now![0m
[0m[ INFO] [1526193253.531309977]: Sending msg speedl([0.0122183,-0.00272384,-0.00615013,0,0,0],2,0);$$$speedl([0.000104404,0,0,0,0,0],2,0);[0m
[0m[ INFO] [1526193253.564525644]: Receiving imu data[0m
[0m[ INFO] [1526193253.564591208]: Reveiving New Data Now![0m
[0m[ INFO] [1526193253.564661013]: Sending msg speedl([0.0179454,-0.00426826,-0.00879544,0,0,0],2,0);$$$speedl([0.000104404,0,0,0,0,0],2,0);[0m
[0m[ INFO] [1526193253.597831949]: Receiving imu data[0m
[0m[ INFO] [1526193253.597928371]: Reveiving New Data Now![0m
[0m[ INFO] [1526193253.598014448]: Sending msg speedl([0.0189964,-0.00567836,-0.00849018,0,0,0],2,0);$$$speedl([0,0,0,0,0,0],2,0);[0m
[0m[ INFO] [1526193253.631164537]: Receiving imu data[0m
[0m[ INFO] [1526193253.631257349]: Reveiving New Data Now![0m
[0m[ INFO] [1526193253.631341627]: Sending msg speedl([0.0197702,-0.00564459,-0.00927227,0,0,0],2,0);$$$speedl([0,0,0,0,0,0],2,0);[0m
[0m[ INFO] [1526193253.664491294]: Receiving imu data[0m
[0m[ INFO] [1526193253.664573830]: Reveiving New Data Now![0m
[0m[ INFO] [1526193253.664649317]: Sending msg speedl([0.0222641,-0.00663316,-0.00997694,0,0,0],2,0);$$$speedl([0,0,0,0,0,0],2,0);[0m
[0m[ INFO] [1526193253.697803150]: Receiving imu data[0m
[0m[ INFO] [1526193253.697905068]: Reveiving New Data Now![0m
[0m[ INFO] [1526193253.697979753]: Sending msg speedl([0.0190033,-0.00433984,-0.00918913,0,0,0],2,0);$$$speedl([0,0,0,0,0,0],2,0);[0m
[0m[ INFO] [1526193253.731196309]: Receiving imu data[0m
[0m[ INFO] [1526193253.731253936]: Reveiving New Data Now![0m
[0m[ INFO] [1526193253.731324710]: Sending msg speedl([0.0211336,-0.00523033,-0.00980762,0,0,0],2,0);$$$speedl([0,0,0,0,0,0],2,0);[0m
[0m[ INFO] [1526193253.764524145]: Receiving imu data[0m
[0m[ INFO] [1526193253.764582389]: Reveiving New Data Now![0m
[0m[ INFO] [1526193253.764654013]: Sending msg speedl([0.0229001,-0.00601043,-0.0103548,0,0,0],2,0);$$$speedl([0,0,0,0,0,0],2,0);[0m
[0m[ INFO] [1526193253.797920535]: Receiving imu data[0m
[0m[ INFO] [1526193253.797958662]: Reveiving New Data Now![0m
[0m[ INFO] [1526193253.798043236]: Sending msg speedl([0.0178061,-0.00354737,-0.0100399,0,0,0],2,0);$$$speedl([0,0,0,0,0,0],2,0);[0m
[0m[ INFO] [1526193253.831161649]: Receiving imu data[0m
[0m[ INFO] [1526193253.831247861]: Reveiving New Data Now![0m
[0m[ INFO] [1526193253.831310946]: Sending msg speedl([0.0259809,-0.00329061,-0.0163816,0,0,0],2,0);$$$speedl([0,0,0,0,0,0],2,0);[0m
[0m[ INFO] [1526193253.864474564]: Receiving imu data[0m
[0m[ INFO] [1526193253.864552979]: Reveiving New Data Now![0m
[0m[ INFO] [1526193253.864626080]: Sending msg speedl([0.0285577,-0.00343602,-0.0178382,0,0,0],2,0);$$$speedl([0,0,0,0,0,0],2,0);[0m
[0m[ INFO] [1526193253.897827662]: Receiving imu data[0m
[0m[ INFO] [1526193253.897863942]: Reveiving New Data Now![0m
[0m[ INFO] [1526193253.897933155]: Sending msg speedl([0.0205557,-0.000771887,-0.0141306,0,0,0],2,0);$$$speedl([0,0,0,0,0,0],2,0);[0m
[0m[ INFO] [1526193253.931178021]: Receiving imu data[0m
[0m[ INFO] [1526193253.931213861]: Reveiving New Data Now![0m
[0m[ INFO] [1526193253.931288034]: Sending msg speedl([0.0239701,-0.000341267,-0.0163425,0,0,0],2,0);$$$speedl([0,0,0,0,0,0],2,0);[0m
[0m[ INFO] [1526193253.964507464]: Receiving imu data[0m
[0m[ INFO] [1526193253.964543322]: Reveiving New Data Now![0m
[0m[ INFO] [1526193253.964617787]: Sending msg speedl([0.0255951,-0.000122186,-0.0173404,0,0,0],2,0);$$$speedl([0,0,0,0,0,0],2,0);[0m
[0m[ INFO] [1526193253.997838642]: Receiving imu data[0m
[0m[ INFO] [1526193253.997873823]: Reveiving New Data Now![0m
[0m[ INFO] [1526193253.997946716]: Sending msg speedl([0.019634,0.000764788,-0.0104214,0,0,0],2,0);$$$speedl([0,0,0,0,0,0],2,0);[0m
[0m[ INFO] [1526193254.031174512]: Receiving imu data[0m
[0m[ INFO] [1526193254.031201990]: Reveiving New Data Now![0m
[0m[ INFO] [1526193254.031273848]: Sending msg speedl([0.0244799,0.000423555,-0.0127469,0,0,0],2,0);$$$speedl([0,0,0,0,0,0],2,0);[0m
[0m[ INFO] [1526193254.064662706]: Receiving imu data[0m
[0m[ INFO] [1526193254.064697665]: Reveiving New Data Now![0m
[0m[ INFO] [1526193254.064774268]: Sending msg speedl([0.0260897,0.00064814,-0.0136374,0,0,0],2,0);$$$speedl([0,0,0,0,0,0],2,0);[0m
[0m[ INFO] [1526193254.097817052]: Receiving imu data[0m
[0m[ INFO] [1526193254.097852129]: Reveiving New Data Now![0m
[0m[ INFO] [1526193254.097924209]: Sending msg speedl([0.017458,0,-0.00802064,0,0,0],2,0);$$$speedl([0,0,0,0,0,0],2,0);[0m
[0m[ INFO] [1526193254.131183484]: Receiving imu data[0m
[0m[ INFO] [1526193254.131218991]: Reveiving New Data Now![0m
[0m[ INFO] [1526193254.131292829]: Sending msg speedl([0.020612,-0.000404847,-0.00930292,0,0,0],2,0);$$$speedl([0,0,0,0,0,0],2,0);[0m
[0m[ INFO] [1526193254.164539104]: Receiving imu data[0m
[0m[ INFO] [1526193254.164577553]: Reveiving New Data Now![0m
[0m[ INFO] [1526193254.164660550]: Sending msg speedl([0.0251561,-0.000768277,-0.0114978,0,0,0],2,0);$$$speedl([0,0,0,0,0,0],2,0);[0m
[0m[ INFO] [1526193254.197895486]: Receiving imu data[0m
[0m[ INFO] [1526193254.197933354]: Reveiving New Data Now![0m
[0m[ INFO] [1526193254.198016505]: Sending msg speedl([0.0187488,-0.00133943,-0.00832698,0,0,0],2,0);$$$speedl([0,0,0,0,0,0],2,0);[0m
[0m[ INFO] [1526193254.231265632]: Receiving imu data[0m
[0m[ INFO] [1526193254.231303543]: Reveiving New Data Now![0m
[0m[ INFO] [1526193254.231387029]: Sending msg speedl([0.0195359,-0.00164314,-0.0084664,0,0,0],2,0);$$$speedl([0,0,0,0,0,0],2,0);[0m
[0m[ INFO] [1526193254.264599658]: Receiving imu data[0m
[0m[ INFO] [1526193254.264637675]: Reveiving New Data Now![0m
[0m[ INFO] [1526193254.264722951]: Sending msg speedl([0.0216049,-0.00193263,-0.00942774,0,0,0],2,0);$$$speedl([0,0,0,0,0,0],2,0);[0m
[0m[ INFO] [1526193254.297883325]: Receiving imu data[0m
[0m[ INFO] [1526193254.297921325]: Reveiving New Data Now![0m
[0m[ INFO] [1526193254.298003605]: Sending msg speedl([0.0132622,-0.00302047,-0.00506448,0,0,0],2,0);$$$speedl([0,0,0,0,0,0],2,0);[0m
[0m[ INFO] [1526193254.331267374]: Receiving imu data[0m
[0m[ INFO] [1526193254.331305321]: Reveiving New Data Now![0m
[0m[ INFO] [1526193254.331389926]: Sending msg speedl([0.0142911,-0.0029884,-0.0057589,0,0,0],2,0);$$$speedl([0,0,0,0,0,0],2,0);[0m
[0m[ INFO] [1526193254.364529978]: Receiving imu data[0m
[0m[ INFO] [1526193254.364568762]: Reveiving New Data Now![0m
[0m[ INFO] [1526193254.364653125]: Sending msg speedl([0.0161622,-0.00336667,-0.00674254,0,0,0],2,0);$$$speedl([0,0,0,0,0,0],2,0);[0m
[0m[ INFO] [1526193254.397825512]: Receiving imu data[0m
[0m[ INFO] [1526193254.397861949]: Reveiving New Data Now![0m
[0m[ INFO] [1526193254.397941077]: Sending msg speedl([0.00914771,-0.00319972,-0.00291911,0,0,0],2,0);$$$speedl([0,0,0,0,0,0],2,0);[0m
[0m[ INFO] [1526193254.431193888]: Receiving imu data[0m
[0m[ INFO] [1526193254.431231736]: Reveiving New Data Now![0m
[0m[ INFO] [1526193254.431316020]: Sending msg speedl([0.0196364,-0.00383338,-0.00940374,0,0,0],2,0);$$$speedl([0,0,0,0,0,0],2,0);[0m
[0m[ INFO] [1526193254.464526514]: Receiving imu data[0m
[0m[ INFO] [1526193254.464563544]: Reveiving New Data Now![0m
[0m[ INFO] [1526193254.464673860]: Sending msg speedl([0.0238329,-0.00505558,-0.0118293,0,0,0],2,0);$$$speedl([0,0,0,0,0,0],2,0);[0m
[0m[ INFO] [1526193254.497938247]: Receiving imu data[0m
[0m[ INFO] [1526193254.531193910]: Receiving imu data[0m
[0m[ INFO] [1526193254.531222808]: Reveiving New Data Now![0m
[0m[ INFO] [1526193254.531290755]: Sending msg speedl([0.0189156,-0.00438501,-0.0106196,0,0,0],2,0);$$$speedl([0,0,0,0,0,0],2,0);[0m
[0m[ INFO] [1526193254.564477770]: Receiving imu data[0m
[0m[ INFO] [1526193254.564505760]: Reveiving New Data Now![0m
[0m[ INFO] [1526193254.564571700]: Sending msg speedl([0.0223518,-0.00538148,-0.0127831,0,0,0],2,0);$$$speedl([0,0,0,0,0,0],2,0);[0m
[0m[ INFO] [1526193254.597796925]: Receiving imu data[0m
[0m[ INFO] [1526193254.597823961]: Reveiving New Data Now![0m
[0m[ INFO] [1526193254.597870525]: Sending msg speedl([0.0112046,-0.00167212,-0.00811858,0,0,0],2,0);$$$speedl([0,0,0,0,0,0],2,0);[0m
[0m[ INFO] [1526193254.631193530]: Receiving imu data[0m
[0m[ INFO] [1526193254.631220352]: Reveiving New Data Now![0m
[0m[ INFO] [1526193254.631287386]: Sending msg speedl([0.0142554,-0.00346676,-0.0101897,0,0,0],2,0);$$$speedl([0,0,0,0,0,0],2,0);[0m
[0m[ INFO] [1526193254.664553457]: Receiving imu data[0m
[0m[ INFO] [1526193254.664580009]: Reveiving New Data Now![0m
[0m[ INFO] [1526193254.664644459]: Sending msg speedl([0.016397,-0.00532154,-0.0115496,0,0,0],2,0);$$$speedl([0,0,0,0,0,0],2,0);[0m
[0m[ INFO] [1526193254.697849442]: Receiving imu data[0m
[0m[ INFO] [1526193254.697889205]: Reveiving New Data Now![0m
[0m[ INFO] [1526193254.697972221]: Sending msg speedl([0.00821164,-0.0044503,-0.00863354,0,0,0],2,0);$$$speedl([0,0,0,0,0,0],2,0);[0m
[0m[ INFO] [1526193254.731262066]: Receiving imu data[0m
[0m[ INFO] [1526193254.731297978]: Reveiving New Data Now![0m
[0m[ INFO] [1526193254.731383679]: Sending msg speedl([0.0089408,-0.00498027,-0.00897441,0,0,0],2,0);$$$speedl([0,0,0,0,0,0],2,0);[0m
[0m[ INFO] [1526193254.764527883]: Receiving imu data[0m
[0m[ INFO] [1526193254.764662819]: Reveiving New Data Now![0m
[0m[ INFO] [1526193254.764739099]: Sending msg speedl([0.0104002,-0.00612901,-0.00973999,0,0,0],2,0);$$$speedl([0,0,0,0,0,0],2,0);[0m
[0m[ INFO] [1526193254.797796230]: Receiving imu data[0m
[0m[ INFO] [1526193254.797890472]: Reveiving New Data Now![0m
[0m[ INFO] [1526193254.797963688]: Sending msg speedl([0.00882254,-0.00422911,-0.00686822,0,0,0],2,0);$$$speedl([0,0,0,0,0,0],2,0);[0m
[0m[ INFO] [1526193254.831336481]: Receiving imu data[0m
[0m[ INFO] [1526193254.831372664]: Reveiving New Data Now![0m
[0m[ INFO] [1526193254.831458385]: Sending msg speedl([0.010291,-0.00589844,-0.00815041,0,0,0],2,0);$$$speedl([0,0,0,0,0,0],2,0);[0m
[0m[ INFO] [1526193254.864543106]: Receiving imu data[0m
[0m[ INFO] [1526193254.864578792]: Reveiving New Data Now![0m
[0m[ INFO] [1526193254.864664465]: Sending msg speedl([0.0189549,-0.0078803,-0.0148953,0,0,0],2,0);$$$speedl([0,0,0,0,0,0],2,0);[0m
[0m[ INFO] [1526193254.897792895]: Receiving imu data[0m
[0m[ INFO] [1526193254.897830694]: Reveiving New Data Now![0m
[0m[ INFO] [1526193254.897906887]: Sending msg speedl([0.0151371,-0.00653965,-0.0110093,0,0,0],2,0);$$$speedl([0,0,0,0,0,0],2,0);[0m
[0m[ INFO] [1526193254.931295669]: Receiving imu data[0m
[0m[ INFO] [1526193254.931332768]: Reveiving New Data Now![0m
[0m[ INFO] [1526193254.931407371]: Sending msg speedl([0.0162307,-0.00765535,-0.0118059,0,0,0],2,0);$$$speedl([0,0,0,0,0,0],2,0);[0m
[0m[ INFO] [1526193254.964577206]: Receiving imu data[0m
[0m[ INFO] [1526193254.964613670]: Reveiving New Data Now![0m
[0m[ INFO] [1526193254.964698475]: Sending msg speedl([0.0190545,-0.00923462,-0.0144656,0,0,0],2,0);$$$speedl([0,0,0,0,0,0],2,0);[0m
[0m[ INFO] [1526193254.997970245]: Receiving imu data[0m
[0m[ INFO] [1526193254.998006496]: Reveiving New Data Now![0m
[0m[ INFO] [1526193254.998089156]: Sending msg speedl([0.0154069,-0.00636191,-0.0105666,0,0,0],2,0);$$$speedl([0,0,0,0,0,0],2,0);[0m
[0m[ INFO] [1526193255.031247357]: Receiving imu data[0m
[0m[ INFO] [1526193255.031298692]: Reveiving New Data Now![0m
[0m[ INFO] [1526193255.031382292]: Sending msg speedl([0.0180016,-0.00706741,-0.0125813,0,0,0],2,0);$$$speedl([0,0,0,0,0,0],2,0);[0m
[0m[ INFO] [1526193255.064600534]: Receiving imu data[0m
[0m[ INFO] [1526193255.064636861]: Reveiving New Data Now![0m
[0m[ INFO] [1526193255.064722815]: Sending msg speedl([0.0198922,-0.00808396,-0.0141624,0,0,0],2,0);$$$speedl([0,0,0,0,0,0],2,0);[0m
[0m[ INFO] [1526193255.097889732]: Receiving imu data[0m
[0m[ INFO] [1526193255.097924811]: Reveiving New Data Now![0m
[0m[ INFO] [1526193255.098008608]: Sending msg speedl([0.013154,-0.00470327,-0.00733097,0,0,0],2,0);$$$speedl([0,0,0,0,0,0],2,0);[0m
[0m[ INFO] [1526193255.131209610]: Receiving imu data[0m
[0m[ INFO] [1526193255.131237135]: Reveiving New Data Now![0m
[0m[ INFO] [1526193255.131318943]: Sending msg speedl([0.0140019,-0.00570826,-0.00806452,0,0,0],2,0);$$$speedl([0,0,0,0,0,0],2,0);[0m
[0m[ INFO] [1526193255.164551784]: Receiving imu data[0m
[0m[ INFO] [1526193255.164586429]: Reveiving New Data Now![0m
[0m[ INFO] [1526193255.164659051]: Sending msg speedl([0.0229517,-0.00754769,-0.0126754,0,0,0],2,0);$$$speedl([0,0,0,0,0,0],2,0);[0m
[0m[ INFO] [1526193255.197841015]: Receiving imu data[0m
[0m[ INFO] [1526193255.231287144]: Receiving imu data[0m
[0m[ INFO] [1526193255.231323888]: Reveiving New Data Now![0m
[0m[ INFO] [1526193255.231398481]: Sending msg speedl([0.0186419,-0.00618868,-0.00944698,0,0,0],2,0);$$$speedl([0,0,0,0,0,0],2,0);[0m
[0m[ INFO] [1526193255.264563622]: Receiving imu data[0m
[0m[ INFO] [1526193255.264599068]: Reveiving New Data Now![0m
[0m[ INFO] [1526193255.264674477]: Sending msg speedl([0.0217334,-0.00676303,-0.0109893,0,0,0],2,0);$$$speedl([0,0,0,0,0,0],2,0);[0m
[0m[ INFO] [1526193255.297812140]: Receiving imu data[0m
[0m[ INFO] [1526193255.331206565]: Receiving imu data[0m
[0m[ INFO] [1526193255.331241332]: Reveiving New Data Now![0m
[0m[ INFO] [1526193255.331296540]: Sending msg speedl([0.0165531,-0.0045067,-0.00476849,0,0,0],2,0);$$$speedl([0,0,0,0,0,0],2,0);[0m
[0m[ INFO] [1526193255.364511663]: Receiving imu data[0m
[0m[ INFO] [1526193255.364563941]: Reveiving New Data Now![0m
[0m[ INFO] [1526193255.364641958]: Sending msg speedl([0.0175729,-0.00533794,-0.0052438,0,0,0],2,0);$$$speedl([0,0,0,0,0,0],2,0);[0m
[0m[ INFO] [1526193255.397810907]: Receiving imu data[0m
[0m[ INFO] [1526193255.397845161]: Reveiving New Data Now![0m
[0m[ INFO] [1526193255.397926651]: Sending msg speedl([0.0133401,-0.00261367,-0.00092572,0,0,0],2,0);$$$speedl([0,0,0,0,0,0],2,0);[0m
[0m[ INFO] [1526193255.431183319]: Receiving imu data[0m
[0m[ INFO] [1526193255.431216551]: Reveiving New Data Now![0m
[0m[ INFO] [1526193255.431288393]: Sending msg speedl([0.0138796,-0.00310251,-0.00122028,0,0,0],2,0);$$$speedl([0,0,0,0,0,0],2,0);[0m
[0m[ INFO] [1526193255.464547064]: Receiving imu data[0m
[0m[ INFO] [1526193255.464607354]: Reveiving New Data Now![0m
[0m[ INFO] [1526193255.464682847]: Sending msg speedl([0.0172398,-0.00366346,-0.00276684,0,0,0],2,0);$$$speedl([0,0,0,0,0,0],2,0);[0m
[0m[ INFO] [1526193255.497829506]: Receiving imu data[0m
[0m[ INFO] [1526193255.497856970]: Reveiving New Data Now![0m
[0m[ INFO] [1526193255.497906208]: Sending msg speedl([0.00830986,-0.00113256,-0.00070397,0,0,0],2,0);$$$speedl([0,0,0,0,0,0],2,0);[0m
[0m[ INFO] [1526193255.531160755]: Receiving imu data[0m
[0m[ INFO] [1526193255.531196139]: Reveiving New Data Now![0m
[0m[ INFO] [1526193255.531274810]: Sending msg speedl([0.0084301,-0.00132995,-0.000854133,0,0,0],2,0);$$$speedl([0,0,0,0,0,0],2,0);[0m
[0m[ INFO] [1526193255.564547981]: Receiving imu data[0m
[0m[ INFO] [1526193255.564604254]: Reveiving New Data Now![0m
[0m[ INFO] [1526193255.564657985]: Sending msg speedl([0.013401,-0.00269168,-0.00375484,0,0,0],2,0);$$$speedl([0,0,0,0,0,0],2,0);[0m
[0m[ INFO] [1526193255.597853288]: Receiving imu data[0m
[0m[ INFO] [1526193255.597886307]: Reveiving New Data Now![0m
[0m[ INFO] [1526193255.597983776]: Sending msg speedl([0.00868881,-0.00141538,-0.00404859,0,0,0],2,0);$$$speedl([0,0,0,0,0,0],2,0);[0m
[0m[ INFO] [1526193255.631190490]: Receiving imu data[0m
[0m[ INFO] [1526193255.631226541]: Reveiving New Data Now![0m
[0m[ INFO] [1526193255.631350248]: Sending msg speedl([0.0130521,-0.00244519,-0.00614351,0,0,0],2,0);$$$speedl([0,0,0,0,0,0],2,0);[0m
[0m[ INFO] [1526193255.664483648]: Receiving imu data[0m
[0m[ INFO] [1526193255.664518229]: Reveiving New Data Now![0m
[0m[ INFO] [1526193255.664588546]: Sending msg speedl([0.0165791,-0.00327496,-0.00789425,0,0,0],2,0);$$$speedl([0,0,0,0,0,0],2,0);[0m
[0m[ INFO] [1526193255.697790669]: Receiving imu data[0m
[0m[ INFO] [1526193255.697824331]: Reveiving New Data Now![0m
[0m[ INFO] [1526193255.697880438]: Sending msg speedl([0.0105828,-0.00290659,-0.00553679,0,0,0],2,0);$$$speedl([0,0,0,0,0,0],2,0);[0m
[0m[ INFO] [1526193255.731283306]: Receiving imu data[0m
[0m[ INFO] [1526193255.731317040]: Reveiving New Data Now![0m
[0m[ INFO] [1526193255.731371903]: Sending msg speedl([0.0114379,-0.00308926,-0.00603046,0,0,0],2,0);$$$speedl([0,0,0,0,0,0],2,0);[0m
[0m[ INFO] [1526193255.764500264]: Receiving imu data[0m
[0m[ INFO] [1526193255.764533321]: Reveiving New Data Now![0m
[0m[ INFO] [1526193255.764602734]: Sending msg speedl([0.0141779,-0.00477824,-0.00783652,0,0,0],2,0);$$$speedl([0,0,0,0,0,0],2,0);[0m
[0m[ INFO] [1526193255.797810116]: Receiving imu data[0m
[0m[ INFO] [1526193255.797844743]: Reveiving New Data Now![0m
[0m[ INFO] [1526193255.797907848]: Sending msg speedl([0.00820883,-0.00491103,-0.00434323,0,0,0],2,0);$$$speedl([0,0,0,0,0,0],2,0);[0m
[0m[ INFO] [1526193255.831173521]: Receiving imu data[0m
[0m[ INFO] [1526193255.831210098]: Reveiving New Data Now![0m
[0m[ INFO] [1526193255.831289884]: Sending msg speedl([0.00910151,-0.00574341,-0.00481615,0,0,0],2,0);$$$speedl([0,0,0,0,0,0],2,0);[0m
[0m[ INFO] [1526193255.864479925]: Receiving imu data[0m
[0m[ INFO] [1526193255.864515712]: Reveiving New Data Now![0m
[0m[ INFO] [1526193255.864589743]: Sending msg speedl([0.0133092,-0.00726094,-0.00762613,0,0,0],2,0);$$$speedl([0,0,0,0,0,0],2,0);[0m
[0m[ INFO] [1526193255.897800732]: Receiving imu data[0m
[0m[ INFO] [1526193255.897836322]: Reveiving New Data Now![0m
[0m[ INFO] [1526193255.897888109]: Sending msg speedl([0.00768523,-0.00492841,-0.00456052,0,0,0],2,0);$$$speedl([0,0,0,0,0,0],2,0);[0m
[0m[ INFO] [1526193255.931174004]: Receiving imu data[0m
[0m[ INFO] [1526193255.931209292]: Reveiving New Data Now![0m
[0m[ INFO] [1526193255.931275457]: Sending msg speedl([0.0122651,-0.00741062,-0.00745417,0,0,0],2,0);$$$speedl([0,0,0,0,0,0],2,0);[0m
[0m[ INFO] [1526193255.964508853]: Receiving imu data[0m
[0m[ INFO] [1526193255.964546011]: Reveiving New Data Now![0m
[0m[ INFO] [1526193255.964624973]: Sending msg speedl([0.0136559,-0.00820214,-0.00830728,0,0,0],2,0);$$$speedl([0,0,0,0,0,0],2,0);[0m
[0m[ INFO] [1526193255.997935793]: Receiving imu data[0m
[0m[ INFO] [1526193255.997971403]: Reveiving New Data Now![0m
[0m[ INFO] [1526193255.998043204]: Sending msg speedl([0.0112334,-0.0072554,-0.00586956,0,0,0],2,0);$$$speedl([0,0,0,0,0,0],2,0);[0m
[0m[ INFO] [1526193256.031160011]: Receiving imu data[0m
[0m[ INFO] [1526193256.031197456]: Reveiving New Data Now![0m
[0m[ INFO] [1526193256.031275411]: Sending msg speedl([0.0116468,-0.00774109,-0.00616636,0,0,0],2,0);$$$speedl([0,0,0,0,0,0],2,0);[0m
[0m[ INFO] [1526193256.064481502]: Receiving imu data[0m
[0m[ INFO] [1526193256.064517517]: Reveiving New Data Now![0m
[0m[ INFO] [1526193256.064590319]: Sending msg speedl([0.0172691,-0.00998702,-0.0095724,0,0,0],2,0);$$$speedl([0,0,0,0,0,0],2,0);[0m
[0m[ INFO] [1526193256.097809265]: Receiving imu data[0m
[0m[ INFO] [1526193256.097845744]: Reveiving New Data Now![0m
[0m[ INFO] [1526193256.097918176]: Sending msg speedl([0.0124565,-0.00633489,-0.0070822,0,0,0],2,0);$$$speedl([0,0,0,0,0,0],2,0);[0m
[0m[ INFO] [1526193256.131158755]: Receiving imu data[0m
[0m[ INFO] [1526193256.131194490]: Reveiving New Data Now![0m
[0m[ INFO] [1526193256.131294971]: Sending msg speedl([0.0142547,-0.00705333,-0.00796065,0,0,0],2,0);$$$speedl([0,0,0,0,0,0],2,0);[0m
[0m[ INFO] [1526193256.164528459]: Receiving imu data[0m
[0m[ INFO] [1526193256.164565236]: Reveiving New Data Now![0m
[0m[ INFO] [1526193256.164639333]: Sending msg speedl([0.0146676,-0.00745102,-0.00817154,0,0,0],2,0);$$$speedl([0,0,0,0,0,0],2,0);[0m
[0m[ INFO] [1526193256.197826746]: Receiving imu data[0m
[0m[ INFO] [1526193256.197861782]: Reveiving New Data Now![0m
[0m[ INFO] [1526193256.197947643]: Sending msg speedl([0.0111907,-0.00511157,-0.00529875,0,0,0],2,0);$$$speedl([0,0,0,0,0,0],2,0);[0m
[0m[ INFO] [1526193256.231162030]: Receiving imu data[0m
[0m[ INFO] [1526193256.231196935]: Reveiving New Data Now![0m
[0m[ INFO] [1526193256.231268443]: Sending msg speedl([0.0170449,-0.00837943,-0.00889311,0,0,0],2,0);$$$speedl([0,0,0,0,0,0],2,0);[0m
[0m[ INFO] [1526193256.264522401]: Receiving imu data[0m
[0m[ INFO] [1526193256.297840932]: Receiving imu data[0m
[0m[ INFO] [1526193256.297877078]: Reveiving New Data Now![0m
[0m[ INFO] [1526193256.297951430]: Sending msg speedl([0.0110296,-0.00600149,-0.00594832,0,0,0],2,0);$$$speedl([0,0,0,0,0,0],2,0);[0m
[0m[ INFO] [1526193256.331236723]: Reveiving New Data Now![0m
[0m[ INFO] [1526193256.331321221]: Receiving imu data[0m
[0m[ INFO] [1526193256.331350337]: Sending msg speedl([0.0144238,-0.00821999,-0.00822178,0,0,0],2,0);$$$speedl([0,0,0,0,0,0],2,0);[0m
[0m[ INFO] [1526193256.364574256]: Receiving imu data[0m
[0m[ INFO] [1526193256.364609568]: Reveiving New Data Now![0m
[0m[ INFO] [1526193256.364682737]: Sending msg speedl([0.0147125,-0.00878539,-0.00861193,0,0,0],2,0);$$$speedl([0,0,0,0,0,0],2,0);[0m
[0m[ INFO] [1526193256.397809150]: Receiving imu data[0m
[0m[ INFO] [1526193256.397847014]: Reveiving New Data Now![0m
[0m[ INFO] [1526193256.397920764]: Sending msg speedl([0.0141245,-0.00672174,-0.00964184,0,0,0],2,0);$$$speedl([0,0,0,0,0,0],2,0);[0m
[0m[ INFO] [1526193256.431147000]: Receiving imu data[0m
[0m[ INFO] [1526193256.431184301]: Reveiving New Data Now![0m
[0m[ INFO] [1526193256.431258036]: Sending msg speedl([0.0164777,-0.00822748,-0.0108007,0,0,0],2,0);$$$speedl([0,0,0,0,0,0],2,0);[0m
[0m[ INFO] [1526193256.464507318]: Receiving imu data[0m
[0m[ INFO] [1526193256.497802817]: Receiving imu data[0m
[0m[ INFO] [1526193256.497841322]: Reveiving New Data Now![0m
[0m[ INFO] [1526193256.497895122]: Sending msg speedl([0.00930093,-0.00419598,-0.00635248,0,0,0],2,0);$$$speedl([0,0,0,0,0,0],2,0);[0m
[0m[ INFO] [1526193256.531177884]: Receiving imu data[0m
[0m[ INFO] [1526193256.531215709]: Reveiving New Data Now![0m
[0m[ INFO] [1526193256.531283082]: Sending msg speedl([0.0100653,-0.00467414,-0.00648117,0,0,0],2,0);$$$speedl([0,0,0,0,0,0],2,0);[0m
[0m[ INFO] [1526193256.564497658]: Receiving imu data[0m
[0m[ INFO] [1526193256.564531887]: Reveiving New Data Now![0m
[0m[ INFO] [1526193256.564588235]: Sending msg speedl([0.0134985,-0.00633804,-0.00783773,0,0,0],2,0);$$$speedl([0,0,0,0,0,0],2,0);[0m
[0m[ INFO] [1526193256.597793839]: Receiving imu data[0m
[0m[ INFO] [1526193256.597827548]: Reveiving New Data Now![0m
[0m[ INFO] [1526193256.597883079]: Sending msg speedl([0.0127163,-0.00569861,-0.00628244,0,0,0],2,0);$$$speedl([0,0,0,0,0,0],2,0);[0m
[0m[ INFO] [1526193256.631192318]: Receiving imu data[0m
[0m[ INFO] [1526193256.664664769]: Receiving imu data[0m
[0m[ INFO] [1526193256.664701263]: Reveiving New Data Now![0m
[0m[ INFO] [1526193256.664759833]: Sending msg speedl([0.0166008,-0.00856893,-0.00832771,0,0,0],2,0);$$$speedl([0,0,0,0,0,0],2,0);[0m
[0m[ INFO] [1526193256.697798590]: Receiving imu data[0m
[0m[ INFO] [1526193256.697834412]: Reveiving New Data Now![0m
[0m[ INFO] [1526193256.697897142]: Sending msg speedl([0.0130429,-0.00679612,-0.006715,0,0,0],2,0);$$$speedl([0,0,0,0,0,0],2,0);[0m
[0m[ INFO] [1526193256.731175115]: Receiving imu data[0m
[0m[ INFO] [1526193256.764577185]: Receiving imu data[0m
[0m[ INFO] [1526193256.764635669]: Reveiving New Data Now![0m
[0m[ INFO] [1526193256.764690660]: Sending msg speedl([0.014787,-0.00838312,-0.00737843,0,0,0],2,0);$$$speedl([0,0,0,0,0,0],2,0);[0m
[0m[ INFO] [1526193256.797907236]: Receiving imu data[0m
[0m[ INFO] [1526193256.797974360]: Reveiving New Data Now![0m
[0m[ INFO] [1526193256.798046368]: Sending msg speedl([0.0086094,-0.00481705,-0.00561181,0,0,0],2,0);$$$speedl([0,0,0,0,0,0],2,0);[0m
[0m[ INFO] [1526193256.831175517]: Receiving imu data[0m
[0m[ INFO] [1526193256.831214060]: Reveiving New Data Now![0m
[0m[ INFO] [1526193256.831293259]: Sending msg speedl([0.0108481,-0.00779639,-0.0072232,0,0,0],2,0);$$$speedl([0,0,0,0,0,0],2,0);[0m
[0m[ INFO] [1526193256.864485426]: Receiving imu data[0m
[0m[ INFO] [1526193256.864521767]: Reveiving New Data Now![0m
[0m[ INFO] [1526193256.864606803]: Sending msg speedl([0.0124861,-0.00943901,-0.00856683,0,0,0],2,0);$$$speedl([0,0,0,0,0,0],2,0);[0m
[0m[ INFO] [1526193256.897830484]: Receiving imu data[0m
[0m[ INFO] [1526193256.897865538]: Reveiving New Data Now![0m
[0m[ INFO] [1526193256.897944639]: Sending msg speedl([0.00651168,-0.00598856,-0.00565577,0,0,0],2,0);$$$speedl([0,0,0,0,0,0],2,0);[0m
[0m[ INFO] [1526193256.931154251]: Receiving imu data[0m
[0m[ INFO] [1526193256.931189315]: Reveiving New Data Now![0m
[0m[ INFO] [1526193256.931269054]: Sending msg speedl([0.00673395,-0.0065127,-0.0059983,0,0,0],2,0);$$$speedl([0,0,0,0,0,0],2,0);[0m
[0m[ INFO] [1526193256.964501293]: Receiving imu data[0m
[0m[ INFO] [1526193256.964534211]: Reveiving New Data Now![0m
[0m[ INFO] [1526193256.964618673]: Sending msg speedl([0.00701625,-0.00700259,-0.00628782,0,0,0],2,0);$$$speedl([0,0,0,0,0,0],2,0);[0m
[0m[ INFO] [1526193256.997790707]: Receiving imu data[0m
[0m[ INFO] [1526193256.997823116]: Reveiving New Data Now![0m
[0m[ INFO] [1526193256.997897738]: Sending msg speedl([0.00182913,-0.00448793,-0.00207508,0,0,0],2,0);$$$speedl([0,0,0,0,0,0],2,0);[0m
[0m[ INFO] [1526193257.031165932]: Receiving imu data[0m
[0m[ INFO] [1526193257.031219060]: Reveiving New Data Now![0m
[0m[ INFO] [1526193257.031295139]: Sending msg speedl([0.00226479,-0.00573223,-0.00291026,0,0,0],2,0);$$$speedl([0,0,0,0,0,0],2,0);[0m
[0m[ INFO] [1526193257.064650761]: Receiving imu data[0m
[0m[ INFO] [1526193257.064679835]: Reveiving New Data Now![0m
[0m[ INFO] [1526193257.064751203]: Sending msg speedl([0.00264468,-0.00682342,-0.00363816,0,0,0],2,0);$$$speedl([0,0,0,0,0,0],2,0);[0m
[0m[ INFO] [1526193257.097866007]: Receiving imu data[0m
[0m[ INFO] [1526193257.131346366]: Receiving imu data[0m
[0m[ INFO] [1526193257.131375849]: Reveiving New Data Now![0m
[0m[ INFO] [1526193257.131447612]: Sending msg speedl([0.0166867,-0.0115708,-0.00963085,0,0,0],2,0);$$$speedl([0,0,0,0,0,0],2,0);[0m
[0m[ INFO] [1526193257.164556673]: Receiving imu data[0m
[0m[ INFO] [1526193257.164586468]: Reveiving New Data Now![0m
[0m[ INFO] [1526193257.164640398]: Sending msg speedl([0.0191457,-0.0135865,-0.0117651,0,0,0],2,0);$$$speedl([0,0,0,0,0,0],2,0);[0m
[0m[ INFO] [1526193257.197837243]: Receiving imu data[0m
[0m[ INFO] [1526193257.197866580]: Reveiving New Data Now![0m
[0m[ INFO] [1526193257.197933934]: Sending msg speedl([0.0162606,-0.0111721,-0.0100931,0,0,0],2,0);$$$speedl([0,0,0,0,0,0],2,0);[0m
[0m[ INFO] [1526193257.231195089]: Receiving imu data[0m
[0m[ INFO] [1526193257.231225471]: Reveiving New Data Now![0m
[0m[ INFO] [1526193257.231275766]: Sending msg speedl([0.01744,-0.014211,-0.0125101,0,0,0],2,0);$$$speedl([0,0,0,0,0,0],2,0);[0m
[0m[ INFO] [1526193257.264553602]: Receiving imu data[0m
[0m[ INFO] [1526193257.264595265]: Reveiving New Data Now![0m
[0m[ INFO] [1526193257.264681493]: Sending msg speedl([0.0175096,-0.0154917,-0.0134811,0,0,0],2,0);$$$speedl([0,0,0,0,0,0],2,0);[0m
[0m[ INFO] [1526193257.297851117]: Receiving imu data[0m
[0m[ INFO] [1526193257.297889797]: Reveiving New Data Now![0m
[0m[ INFO] [1526193257.297978448]: Sending msg speedl([0.0104025,-0.0103482,-0.0096714,0,0,0],2,0);$$$speedl([0.000108059,0,0,0,0,0],2,0);[0m
[0m[ INFO] [1526193257.331180243]: Receiving imu data[0m
[0m[ INFO] [1526193257.364473087]: Receiving imu data[0m
[0m[ INFO] [1526193257.364511143]: Reveiving New Data Now![0m
[0m[ INFO] [1526193257.364585423]: Sending msg speedl([0.0111555,-0.0124607,-0.0116121,0,0,0],2,0);$$$speedl([0.000108059,0,0,0,0,0],2,0);[0m
[0m[ INFO] [1526193257.397823910]: Receiving imu data[0m
[0m[ INFO] [1526193257.397862520]: Reveiving New Data Now![0m
[0m[ INFO] [1526193257.397940274]: Sending msg speedl([0.00331626,-0.00632846,-0.00628265,0,0,0],2,0);$$$speedl([0,0.000101857,0,0,0,0],2,0);[0m
[0m[ INFO] [1526193257.431191420]: Receiving imu data[0m
[0m[ INFO] [1526193257.431280804]: Reveiving New Data Now![0m
[0m[ INFO] [1526193257.431357431]: Sending msg speedl([0.0039616,-0.00883694,-0.00825474,0,0,0],2,0);$$$speedl([0,0.000101857,0,0,0,0],2,0);[0m
[0m[ INFO] [1526193257.464520978]: Receiving imu data[0m
[0m[ INFO] [1526193257.464611436]: Reveiving New Data Now![0m
[0m[ INFO] [1526193257.464688104]: Sending msg speedl([0.00489217,-0.0114664,-0.010196,0,0,0],2,0);$$$speedl([0,0.000101857,0,0,0,0],2,0);[0m
[0m[ INFO] [1526193257.497810157]: Receiving imu data[0m
[0m[ INFO] [1526193257.497848729]: Reveiving New Data Now![0m
[0m[ INFO] [1526193257.497926200]: Sending msg speedl([0.0013455,-0.0066194,-0.00585041,0,0,0],2,0);$$$speedl([0.000125547,0.000136384,0,0,0,0],2,0);[0m
[0m[ INFO] [1526193257.531149316]: Receiving imu data[0m
[0m[ INFO] [1526193257.531188167]: Reveiving New Data Now![0m
[0m[ INFO] [1526193257.531265983]: Sending msg speedl([0.00176244,-0.00789798,-0.00664289,0,0,0],2,0);$$$speedl([0.000125547,0.000136384,0,0,0,0],2,0);[0m
[0m[ INFO] [1526193257.564505349]: Receiving imu data[0m
[0m[ INFO] [1526193257.597797198]: Receiving imu data[0m
[0m[ INFO] [1526193257.631146615]: Receiving imu data[0m
[0m[ INFO] [1526193257.664458441]: Receiving imu data[0m
[0m[ INFO] [1526193257.664494230]: Reveiving New Data Now![0m
[0m[ INFO] [1526193257.664571545]: Sending msg speedl([0.000767624,-0.00666807,-0.0054293,0,0,0],2,0);$$$speedl([0,0,0,0,0,0],2,0);[0m
[0m[ INFO] [1526193257.698178591]: Receiving imu data[0m
[0m[ INFO] [1526193257.698215321]: Reveiving New Data Now![0m
[0m[ INFO] [1526193257.698286252]: Sending msg speedl([0.0143089,-0.0114229,-0.0112709,0,0,0],2,0);$$$speedl([0,0,0,0,0,0],2,0);[0m
[0m[ INFO] [1526193257.731160794]: Receiving imu data[0m
[0m[ INFO] [1526193257.731199289]: Reveiving New Data Now![0m
[0m[ INFO] [1526193257.731276461]: Sending msg speedl([0.0153365,-0.0121806,-0.0120264,0,0,0],2,0);$$$speedl([0,0,0,0,0,0],2,0);[0m
[0m[ INFO] [1526193257.764504928]: Receiving imu data[0m
[0m[ INFO] [1526193257.764542788]: Reveiving New Data Now![0m
[0m[ INFO] [1526193257.764621250]: Sending msg speedl([0.0181871,-0.0158581,-0.0149191,0,0,0],2,0);$$$speedl([0,0,0,0,0,0],2,0);[0m
[0m[ INFO] [1526193257.797786752]: Receiving imu data[0m
[0m[ INFO] [1526193257.797824664]: Reveiving New Data Now![0m
[0m[ INFO] [1526193257.797899488]: Sending msg speedl([0.0150345,-0.0115282,-0.00871098,0,0,0],2,0);$$$speedl([0,0,0,0,0,0],2,0);[0m
[0m[ INFO] [1526193257.831156964]: Receiving imu data[0m
[0m[ INFO] [1526193257.831194009]: Reveiving New Data Now![0m
[0m[ INFO] [1526193257.831270387]: Sending msg speedl([0.0160607,-0.0122167,-0.00936618,0,0,0],2,0);$$$speedl([0,0,0,0,0,0],2,0);[0m
[0m[ INFO] [1526193257.864485416]: Receiving imu data[0m
[0m[ INFO] [1526193257.864522585]: Reveiving New Data Now![0m
[0m[ INFO] [1526193257.864595407]: Sending msg speedl([0.0200687,-0.0179761,-0.0135847,0,0,0],2,0);$$$speedl([0,0,0,0,0,0],2,0);[0m
[0m[ INFO] [1526193257.897790575]: Receiving imu data[0m
[0m[ INFO] [1526193257.931177155]: Receiving imu data[0m
[0m[ INFO] [1526193257.931211631]: Reveiving New Data Now![0m
[0m[ INFO] [1526193257.931285526]: Sending msg speedl([0.0117652,-0.0137459,-0.0106932,0,0,0],2,0);$$$speedl([0,0,0,0,0,0],2,0);[0m
[0m[ INFO] [1526193257.964482483]: Receiving imu data[0m
[0m[ INFO] [1526193257.997857451]: Receiving imu data[0m
[0m[ INFO] [1526193257.997892791]: Reveiving New Data Now![0m
[0m[ INFO] [1526193257.997952172]: Sending msg speedl([0.00501366,-0.00827245,-0.00656047,0,0,0],2,0);$$$speedl([0,0,0,0,0,0],2,0);[0m
[0m[ INFO] [1526193258.037662143]: Receiving imu data[0m
[0m[ INFO] [1526193258.064702794]: Receiving imu data[0m
[0m[ INFO] [1526193258.064740390]: Reveiving New Data Now![0m
[0m[ INFO] [1526193258.064819704]: Sending msg speedl([0.00622761,-0.0127887,-0.00915593,0,0,0],2,0);$$$speedl([0,0,0,0,0,0],2,0);[0m
[0m[ INFO] [1526193258.097799713]: Receiving imu data[0m
[0m[ INFO] [1526193258.131277085]: Receiving imu data[0m
[0m[ INFO] [1526193258.131314170]: Reveiving New Data Now![0m
[0m[ INFO] [1526193258.131439881]: Sending msg speedl([0.00326881,-0.00890935,-0.00568133,0,0,0],2,0);$$$speedl([0,0,0,0,0,0],2,0);[0m
[0m[ INFO] [1526193258.164544605]: Receiving imu data[0m
[0m[ INFO] [1526193258.197835863]: Receiving imu data[0m
[0m[ INFO] [1526193258.231188870]: Receiving imu data[0m
[0m[ INFO] [1526193258.231235192]: Reveiving New Data Now![0m
[0m[ INFO] [1526193258.231333923]: Sending msg speedl([0.00489158,-0.0123737,-0.00883111,0,0,0],2,0);$$$speedl([0,0,0,0,0,0],2,0);[0m
[0m[ INFO] [1526193258.264532940]: Receiving imu data[0m
[0m[ INFO] [1526193258.264573673]: Reveiving New Data Now![0m
[0m[ INFO] [1526193258.264664611]: Sending msg speedl([0.00871548,-0.0167885,-0.0127049,0,0,0],2,0);$$$speedl([0,0,0,0,0,0],2,0);[0m
[0m[ INFO] [1526193258.297943869]: Receiving imu data[0m
[0m[ INFO] [1526193258.297984271]: Reveiving New Data Now![0m
[0m[ INFO] [1526193258.298075676]: Sending msg speedl([0.00794605,-0.0144553,-0.0105154,0,0,0],2,0);$$$speedl([0,0,0,0,0,0],2,0);[0m
[0m[ INFO] [1526193258.331417576]: Receiving imu data[0m
[0m[ INFO] [1526193258.331465306]: Reveiving New Data Now![0m
[0m[ INFO] [1526193258.331561304]: Sending msg speedl([0.00988427,-0.0172508,-0.0124361,0,0,0],2,0);$$$speedl([0,0,0,0,0,0],2,0);[0m
[0m[ INFO] [1526193258.364601803]: Receiving imu data[0m
[0m[ INFO] [1526193258.397928712]: Receiving imu data[0m
[0m[ INFO] [1526193258.397961236]: Reveiving New Data Now![0m
[0m[ INFO] [1526193258.398036068]: Sending msg speedl([0.0061772,-0.00913044,-0.0073646,0,0,0],2,0);$$$speedl([0,0,0,0,0,0],2,0);[0m
[0m[ INFO] [1526193258.431176086]: Reveiving New Data Now![0m
[0m[ INFO] [1526193258.431266802]: Sending msg speedl([0.00647172,-0.0100321,-0.00782457,0,0,0],2,0);$$$speedl([0,0,0,0,0,0],2,0);[0m
[0m[ INFO] [1526193258.431414489]: Receiving imu data[0m
[0m[ INFO] [1526193258.464670499]: Receiving imu data[0m
[0m[ INFO] [1526193258.497983796]: Receiving imu data[0m
[0m[ INFO] [1526193258.498020620]: Reveiving New Data Now![0m
[0m[ INFO] [1526193258.498086172]: Sending msg speedl([0.00344449,-0.00357297,-0.0028401,0,0,0],2,0);$$$speedl([0,0,0,0,0,0],2,0);[0m
[0m[ INFO] [1526193258.531378902]: Receiving imu data[0m
[0m[ INFO] [1526193258.531415001]: Reveiving New Data Now![0m
[0m[ INFO] [1526193258.531492776]: Sending msg speedl([0.00463916,-0.00505206,-0.00370681,0,0,0],2,0);$$$speedl([0,0,0,0,0,0],2,0);[0m
[0m[ INFO] [1526193258.564516300]: Receiving imu data[0m
[0m[ INFO] [1526193258.564549033]: Reveiving New Data Now![0m
[0m[ INFO] [1526193258.564633423]: Sending msg speedl([0.00541569,-0.00570349,-0.0042163,0,0,0],2,0);$$$speedl([0,0,0,0,0,0],2,0);[0m
[0m[ INFO] [1526193258.597811606]: Receiving imu data[0m
[0m[ INFO] [1526193258.597855971]: Reveiving New Data Now![0m
[0m[ INFO] [1526193258.597952112]: Sending msg speedl([0.00738847,-0.00641649,-0.00366434,0,0,0],2,0);$$$speedl([0,0,0,0,0,0],2,0);[0m
[0m[ INFO] [1526193258.631214644]: Receiving imu data[0m
[0m[ INFO] [1526193258.631281047]: Reveiving New Data Now![0m
[0m[ INFO] [1526193258.631334076]: Sending msg speedl([0.0078657,-0.00721029,-0.00397081,0,0,0],2,0);$$$speedl([0,0,0,0,0,0],2,0);[0m
[0m[ INFO] [1526193258.664501210]: Receiving imu data[0m
[0m[ INFO] [1526193258.697788973]: Receiving imu data[0m
[0m[ INFO] [1526193258.697870122]: Reveiving New Data Now![0m
[0m[ INFO] [1526193258.697921976]: Sending msg speedl([0.00559935,-0.00513101,-0.00208401,0,0,0],2,0);$$$speedl([0,0,0,0,0,0],2,0);[0m
[0m[ INFO] [1526193258.731197986]: Receiving imu data[0m
[0m[ INFO] [1526193258.764549376]: Receiving imu data[0m
[0m[ INFO] [1526193258.764591348]: Reveiving New Data Now![0m
[0m[ INFO] [1526193258.764683149]: Sending msg speedl([0.0105341,-0.00892189,-0.00383349,0,0,0],2,0);$$$speedl([0,0,0,0,0,0],2,0);[0m
[0m[ INFO] [1526193258.797800522]: Receiving imu data[0m
[0m[ INFO] [1526193258.797837059]: Reveiving New Data Now![0m
[0m[ INFO] [1526193258.797925038]: Sending msg speedl([0.0131817,-0.00951688,-0.00383672,0,0,0],2,0);$$$speedl([0,0,0,0,0,0],2,0);[0m
[0m[ INFO] [1526193258.831173240]: Receiving imu data[0m
[0m[ INFO] [1526193258.831236937]: Reveiving New Data Now![0m
[0m[ INFO] [1526193258.831320812]: Sending msg speedl([0.0152831,-0.0105301,-0.00438251,0,0,0],2,0);$$$speedl([0,0,0,0,0,0],2,0);[0m
[0m[ INFO] [1526193258.864485889]: Receiving imu data[0m
[0m[ INFO] [1526193258.864533436]: Reveiving New Data Now![0m
[0m[ INFO] [1526193258.864608666]: Sending msg speedl([0.0167775,-0.0118548,-0.00497858,0,0,0],2,0);$$$speedl([0,0,0,0,0,0],2,0);[0m
[0m[ INFO] [1526193258.897810704]: Receiving imu data[0m
[0m[ INFO] [1526193258.897869107]: Reveiving New Data Now![0m
[0m[ INFO] [1526193258.897931823]: Sending msg speedl([0.012244,-0.00768407,-0.00367868,0,0,0],2,0);$$$speedl([0,0,0,0,0,0],2,0);[0m
[0m[ INFO] [1526193258.931159682]: Receiving imu data[0m
[0m[ INFO] [1526193258.931201692]: Reveiving New Data Now![0m
[0m[ INFO] [1526193258.931282765]: Sending msg speedl([0.01441,-0.00849272,-0.00399291,0,0,0],2,0);$$$speedl([0,0,0,0,0,0],2,0);[0m
[0m[ INFO] [1526193258.964505102]: Receiving imu data[0m
[0m[ INFO] [1526193258.964539937]: Reveiving New Data Now![0m
[0m[ INFO] [1526193258.964615585]: Sending msg speedl([0.0134174,-0.0083068,-0.00427947,0,0,0],2,0);$$$speedl([0,0,0,0,0,0],2,0);[0m
[0m[ INFO] [1526193258.997802562]: Receiving imu data[0m
[0m[ INFO] [1526193258.997857570]: Reveiving New Data Now![0m
[0m[ INFO] [1526193258.997935000]: Sending msg speedl([0.00621756,-0.00399637,-0.00146328,0,0,0],2,0);$$$speedl([0,0,0,0,0,0],2,0);[0m
[0m[ INFO] [1526193259.031142012]: Reveiving New Data Now![0m
[0m[ INFO] [1526193259.031172975]: Receiving imu data[0m
[0m[ INFO] [1526193259.031275204]: Sending msg speedl([0.0052466,-0.00350167,-0.00154758,0,0,0],2,0);$$$speedl([0,0,0,0,0,0],2,0);[0m
[0m[ INFO] [1526193259.064637190]: Receiving imu data[0m
[0m[ INFO] [1526193259.097879232]: Reveiving New Data Now![0m
[0m[ INFO] [1526193259.097912582]: Receiving imu data[0m
[0m[ INFO] [1526193259.097962989]: Sending msg speedl([0.00069091,0.000135682,-0.000214692,0,0,0],2,0);$$$speedl([0,0,0,0,0,0],2,0);[0m
[0m[ INFO] [1526193259.131175465]: Receiving imu data[0m
[0m[ INFO] [1526193259.131210622]: Reveiving New Data Now![0m
[0m[ INFO] [1526193259.131288918]: Sending msg speedl([0.0016687,-0.000305292,-0.000517291,0,0,0],2,0);$$$speedl([0,0,0,0,0,0],2,0);[0m
[0m[ INFO] [1526193259.164497529]: Receiving imu data[0m
[0m[ INFO] [1526193259.164528882]: Reveiving New Data Now![0m
[0m[ INFO] [1526193259.164601997]: Sending msg speedl([0.0011771,0.000282932,-0.000346584,0,0,0],2,0);$$$speedl([0,0,0,0,0,0],2,0);[0m
[0m[ INFO] [1526193259.197822617]: Receiving imu data[0m
[0m[ INFO] [1526193259.197858999]: Reveiving New Data Now![0m
[0m[ INFO] [1526193259.197938486]: Sending msg speedl([-0.00231179,0.00282614,0.00143636,0,0,0],2,0);$$$speedl([0,0,0,0,0,0],2,0);[0m
[0m[ INFO] [1526193259.231173105]: Reveiving New Data Now![0m
[0m[ INFO] [1526193259.231232857]: Receiving imu data[0m
[0m[ INFO] [1526193259.231258888]: Sending msg speedl([-0.00246852,0.00312504,0.00156097,0,0,0],2,0);$$$speedl([0,0,0,0,0,0],2,0);[0m
[0m[ INFO] [1526193259.264501129]: Receiving imu data[0m
[0m[ INFO] [1526193259.264528141]: Reveiving New Data Now![0m
[0m[ INFO] [1526193259.264600589]: Sending msg speedl([-0.00274759,0.00292218,0.00113928,0,0,0],2,0);$$$speedl([0,0,0,0,0,0],2,0);[0m
[0m[ INFO] [1526193259.297793802]: Reveiving New Data Now![0m
[0m[ INFO] [1526193259.297836562]: Receiving imu data[0m
[0m[ INFO] [1526193259.297874964]: Sending msg speedl([-0.00397072,0.00245888,0.00107611,0,0,0],2,0);$$$speedl([0,0,0,0,0,0],2,0);[0m
[0m[ INFO] [1526193259.331208022]: Receiving imu data[0m
[0m[ INFO] [1526193259.364488908]: Reveiving New Data Now![0m
[0m[ INFO] [1526193259.364519624]: Receiving imu data[0m
[0m[ INFO] [1526193259.364572346]: Sending msg speedl([-0.00807329,0.0046664,0.00201704,0,0,0],2,0);$$$speedl([0,0,0,0,0,0],2,0);[0m
[0m[ INFO] [1526193259.397799683]: Reveiving New Data Now![0m
[0m[ INFO] [1526193259.397847326]: Receiving imu data[0m
[0m[ INFO] [1526193259.397881583]: Sending msg speedl([-0.00817872,0.00401193,0.00224309,0,0,0],2,0);$$$speedl([0,0,0,0,0,0],2,0);[0m
[0m[ INFO] [1526193259.431170233]: Receiving imu data[0m
[0m[ INFO] [1526193259.464496466]: Reveiving New Data Now![0m
[0m[ INFO] [1526193259.464559722]: Receiving imu data[0m
[0m[ INFO] [1526193259.464584482]: Sending msg speedl([-0.0103085,0.00434617,0.00173375,0,0,0],2,0);$$$speedl([0,0,0,0,0,0],2,0);[0m
[0m[ INFO] [1526193259.497817858]: Reveiving New Data Now![0m
[0m[ INFO] [1526193259.497867391]: Receiving imu data[0m
[0m[ INFO] [1526193259.497901121]: Sending msg speedl([-0.00764854,0.00143601,-0.000118532,0,0,0],2,0);$$$speedl([0,0,0,0,0,0],2,0);[0m
[0m[ INFO] [1526193259.531167527]: Receiving imu data[0m
[0m[ INFO] [1526193259.531195204]: Reveiving New Data Now![0m
[0m[ INFO] [1526193259.531266277]: Sending msg speedl([-0.00835885,0.00149268,-0.000353189,0,0,0],2,0);$$$speedl([0,0,0,0,0,0],2,0);[0m
[0m[ INFO] [1526193259.564495849]: Reveiving New Data Now![0m
[0m[ INFO] [1526193259.564528018]: Receiving imu data[0m
[0m[ INFO] [1526193259.564579798]: Sending msg speedl([-0.00979507,0.00139798,-0.00095454,0,0,0],2,0);$$$speedl([0,0,0,0,0,0],2,0);[0m
[0m[ INFO] [1526193259.597796178]: Reveiving New Data Now![0m
[0m[ INFO] [1526193259.597862098]: Receiving imu data[0m
[0m[ INFO] [1526193259.597887141]: Sending msg speedl([-0.00715334,-0.000646968,-0.00213098,0,0,0],2,0);$$$speedl([0,0,0,0,0,0],2,0);[0m
[0m[ INFO] [1526193259.631185751]: Receiving imu data[0m
[0m[ INFO] [1526193259.631214897]: Reveiving New Data Now![0m
[0m[ INFO] [1526193259.631292080]: Sending msg speedl([-0.00793522,-0.000735328,-0.00247529,0,0,0],2,0);$$$speedl([0,0,0,0,0,0],2,0);[0m
[0m[ INFO] [1526193259.664496249]: Receiving imu data[0m
[0m[ INFO] [1526193259.664585147]: Reveiving New Data Now![0m
[0m[ INFO] [1526193259.664680162]: Sending msg speedl([-0.00866242,-0.000889098,-0.00283852,0,0,0],2,0);$$$speedl([0,0,0,0,0,0],2,0);[0m
[0m[ INFO] [1526193259.697816605]: Receiving imu data[0m
[0m[ INFO] [1526193259.697848961]: Reveiving New Data Now![0m
[0m[ INFO] [1526193259.697921542]: Sending msg speedl([-0.0100886,-0.000734286,-0.00235566,0,0,0],2,0);$$$speedl([0,0,0,0,0,0],2,0);[0m
[0m[ INFO] [1526193259.731233694]: Receiving imu data[0m
[0m[ INFO] [1526193259.731277429]: Reveiving New Data Now![0m
[0m[ INFO] [1526193259.731358707]: Sending msg speedl([-0.0134842,-0.000671864,-0.00299831,0,0,0],2,0);$$$speedl([0,0,0,0,0,0],2,0);[0m
[0m[ INFO] [1526193259.764507146]: Receiving imu data[0m
[0m[ INFO] [1526193259.764541966]: Reveiving New Data Now![0m
[0m[ INFO] [1526193259.764619749]: Sending msg speedl([-0.0166612,-0.00156584,-0.00467547,0,0,0],2,0);$$$speedl([0,0,0,0,0,0],2,0);[0m
[0m[ INFO] [1526193259.798017421]: Receiving imu data[0m
[0m[ INFO] [1526193259.831192135]: Receiving imu data[0m
[0m[ INFO] [1526193259.831229544]: Reveiving New Data Now![0m
[0m[ INFO] [1526193259.831310347]: Sending msg speedl([-0.0206363,-0.00251996,-0.00596458,0,0,0],2,0);$$$speedl([0,0,0,0,0,0],2,0);[0m
[0m[ INFO] [1526193259.864523312]: Receiving imu data[0m
[0m[ INFO] [1526193259.864559392]: Reveiving New Data Now![0m
[0m[ INFO] [1526193259.864633724]: Sending msg speedl([-0.0232926,-0.00350288,-0.00745097,0,0,0],2,0);$$$speedl([0,0,0,0,0,0],2,0);[0m
[0m[ INFO] [1526193259.897803863]: Receiving imu data[0m
[0m[ INFO] [1526193259.897839678]: Reveiving New Data Now![0m
[0m[ INFO] [1526193259.897901501]: Sending msg speedl([-0.0170032,-0.00414293,-0.00601157,0,0,0],2,0);$$$speedl([0.000118847,0,0,0,0,0],2,0);[0m
[0m[ INFO] [1526193259.931197858]: Receiving imu data[0m
[0m[ INFO] [1526193259.931233931]: Reveiving New Data Now![0m
[0m[ INFO] [1526193259.931293363]: Sending msg speedl([-0.029446,-0.00506754,-0.0085915,0,0,0],2,0);$$$speedl([0.000118847,0,0,0,0,0],2,0);[0m
[0m[ INFO] [1526193259.964523395]: Receiving imu data[0m
[0m[ INFO] [1526193259.997814835]: Receiving imu data[0m
[0m[ INFO] [1526193259.997855528]: Reveiving New Data Now![0m
[0m[ INFO] [1526193259.997926881]: Sending msg speedl([-0.0248677,-0.00402838,-0.00634356,0,0,0],2,0);$$$speedl([0,0,0,0,0,0],2,0);[0m
[0m[ INFO] [1526193260.031172166]: Receiving imu data[0m
[0m[ INFO] [1526193260.031207253]: Reveiving New Data Now![0m
[0m[ INFO] [1526193260.031263553]: Sending msg speedl([-0.0263501,-0.0044798,-0.0070756,0,0,0],2,0);$$$speedl([0,0,0,0,0,0],2,0);[0m
[0m[ INFO] [1526193260.064535430]: Receiving imu data[0m
[0m[ INFO] [1526193260.064576149]: Reveiving New Data Now![0m
[0m[ INFO] [1526193260.064647948]: Sending msg speedl([-0.0355228,-0.00582489,-0.00903723,0,0,0],2,0);$$$speedl([0,0,0,0,0,0],2,0);[0m
[0m[ INFO] [1526193260.097992122]: Receiving imu data[0m
[0m[ INFO] [1526193260.098029668]: Reveiving New Data Now![0m
[0m[ INFO] [1526193260.098107305]: Sending msg speedl([-0.0270257,-0.00602212,-0.00511,0,0,0],2,0);$$$speedl([0,0,0,0,0,0],2,0);[0m
[0m[ INFO] [1526193260.131411603]: Receiving imu data[0m
[0m[ INFO] [1526193260.131450665]: Reveiving New Data Now![0m
[0m[ INFO] [1526193260.131531247]: Sending msg speedl([-0.0364595,-0.00832551,-0.00927402,0,0,0],2,0);$$$speedl([0,0,0,0,0,0],2,0);[0m
[0m[ INFO] [1526193260.164561893]: Receiving imu data[0m
[0m[ INFO] [1526193260.164602308]: Reveiving New Data Now![0m
[0m[ INFO] [1526193260.164666091]: Sending msg speedl([-0.0425413,-0.0100025,-0.0119286,0,0,0],2,0);$$$speedl([0,0,0,0,0,0],2,0);[0m
[0m[ INFO] [1526193260.197930748]: Receiving imu data[0m
[0m[ INFO] [1526193260.197969319]: Reveiving New Data Now![0m
[0m[ INFO] [1526193260.198052854]: Sending msg speedl([-0.027864,-0.00744229,-0.00873879,0,0,0],2,0);$$$speedl([0,0,0,0,0,0],2,0);[0m
[0m[ INFO] [1526193260.231208381]: Receiving imu data[0m
[0m[ INFO] [1526193260.231243647]: Reveiving New Data Now![0m
[0m[ INFO] [1526193260.231315910]: Sending msg speedl([-0.0293559,-0.00782672,-0.0093448,0,0,0],2,0);$$$speedl([0,0,0,0,0,0],2,0);[0m
[0m[ INFO] [1526193260.264545711]: Receiving imu data[0m
[0m[ INFO] [1526193260.264582024]: Reveiving New Data Now![0m
[0m[ INFO] [1526193260.264662301]: Sending msg speedl([-0.0383628,-0.0103055,-0.0119999,0,0,0],2,0);$$$speedl([0,0,0,0,0,0],2,0);[0m
[0m[ INFO] [1526193260.297802623]: Receiving imu data[0m
[0m[ INFO] [1526193260.297837651]: Reveiving New Data Now![0m
[0m[ INFO] [1526193260.297916187]: Sending msg speedl([-0.0233363,-0.00645765,-0.0076293,0,0,0],2,0);$$$speedl([0,0,0,0,0,0],2,0);[0m
[0m[ INFO] [1526193260.331218992]: Receiving imu data[0m
[0m[ INFO] [1526193260.331258573]: Reveiving New Data Now![0m
[0m[ INFO] [1526193260.331342289]: Sending msg speedl([-0.0435852,-0.0127282,-0.0132851,0,0,0],2,0);$$$speedl([0,0,0,0,0,0],2,0);[0m
[0m[ INFO] [1526193260.364535741]: Receiving imu data[0m
[0m[ INFO] [1526193260.364575345]: Reveiving New Data Now![0m
[0m[ INFO] [1526193260.364656528]: Sending msg speedl([-0.0511707,-0.0155457,-0.0162661,0,0,0],2,0);$$$speedl([0,0,0,0,0,0],2,0);[0m
[0m[ INFO] [1526193260.397853136]: Receiving imu data[0m
[0m[ INFO] [1526193260.397891787]: Reveiving New Data Now![0m
[0m[ INFO] [1526193260.397953267]: Sending msg speedl([-0.0372567,-0.0115538,-0.011008,0,0,0],2,0);$$$speedl([0.000100078,0.000106859,0,0,0,0],2,0);[0m
[0m[ INFO] [1526193260.431216412]: Receiving imu data[0m
[0m[ INFO] [1526193260.431277216]: Reveiving New Data Now![0m
[0m[ INFO] [1526193260.431346392]: Sending msg speedl([-0.0398133,-0.0128765,-0.0123138,0,0,0],2,0);$$$speedl([0.000100078,0.000106859,0,0,0,0],2,0);[0m
[0m[ INFO] [1526193260.464543670]: Receiving imu data[0m
[0m[ INFO] [1526193260.464581716]: Reveiving New Data Now![0m
[0m[ INFO] [1526193260.464665487]: Sending msg speedl([-0.055822,-0.0181573,-0.0164258,0,0,0],2,0);$$$speedl([0.000100078,0.000106859,0,0,0,0],2,0);[0m
[0m[ INFO] [1526193260.497817130]: Receiving imu data[0m
[0m[ INFO] [1526193260.497847125]: Reveiving New Data Now![0m
[0m[ INFO] [1526193260.497918267]: Sending msg speedl([-0.0358115,-0.0120642,-0.0105148,0,0,0],2,0);$$$speedl([0,0,0,0,0,0],2,0);[0m
[0m[ INFO] [1526193260.531189136]: Receiving imu data[0m
[0m[ INFO] [1526193260.531256047]: Reveiving New Data Now![0m
[0m[ INFO] [1526193260.531341135]: Sending msg speedl([-0.039789,-0.0133579,-0.0115344,0,0,0],2,0);$$$speedl([0,0,0,0,0,0],2,0);[0m
[0m[ INFO] [1526193260.564565914]: Receiving imu data[0m
[0m[ INFO] [1526193260.564650190]: Reveiving New Data Now![0m
[0m[ INFO] [1526193260.564762688]: Sending msg speedl([-0.0462269,-0.0154344,-0.0129264,0,0,0],2,0);$$$speedl([0,0,0,0,0,0],2,0);[0m
[0m[ INFO] [1526193260.597824616]: Receiving imu data[0m
[0m[ INFO] [1526193260.598115432]: Reveiving New Data Now![0m
[0m[ INFO] [1526193260.598191704]: Sending msg speedl([-0.0296455,-0.00796878,-0.00680931,0,0,0],2,0);$$$speedl([0,0.000118772,0.000176612,0,0,0],2,0);[0m
[0m[ INFO] [1526193260.631189524]: Receiving imu data[0m
[0m[ INFO] [1526193260.631231162]: Reveiving New Data Now![0m
[0m[ INFO] [1526193260.631314564]: Sending msg speedl([-0.0413392,-0.0128775,-0.0100852,0,0,0],2,0);$$$speedl([0,0.000118772,0.000176612,0,0,0],2,0);[0m
[0m[ INFO] [1526193260.664598010]: Receiving imu data[0m
[0m[ INFO] [1526193260.664633931]: Reveiving New Data Now![0m
[0m[ INFO] [1526193260.664710763]: Sending msg speedl([-0.0438671,-0.0138248,-0.0104984,0,0,0],2,0);$$$speedl([0,0.000118772,0.000176612,0,0,0],2,0);[0m
[0m[ INFO] [1526193260.697851804]: Receiving imu data[0m
[0m[ INFO] [1526193260.697882165]: Reveiving New Data Now![0m
[0m[ INFO] [1526193260.697949416]: Sending msg speedl([-0.0319398,-0.0125493,-0.00874896,0,0,0],2,0);$$$speedl([0,0.000116872,0.000113342,0,0,0],2,0);[0m
[0m[ INFO] [1526193260.731222795]: Receiving imu data[0m
[0m[ INFO] [1526193260.764625371]: Receiving imu data[0m
[0m[ INFO] [1526193260.764661150]: Reveiving New Data Now![0m
[0m[ INFO] [1526193260.764752102]: Sending msg speedl([-0.0332224,-0.0131399,-0.00927385,0,0,0],2,0);$$$speedl([0,0.000116872,0.000113342,0,0,0],2,0);[0m
[0m[ INFO] [1526193260.797856166]: Receiving imu data[0m
[0m[ INFO] [1526193260.797892910]: Reveiving New Data Now![0m
[0m[ INFO] [1526193260.797972199]: Sending msg speedl([-0.0153553,-0.00887847,-0.00500846,0,0,0],2,0);$$$speedl([0,0,0,0,0,0],2,0);[0m
[0m[ INFO] [1526193260.831194781]: Receiving imu data[0m
[0m[ INFO] [1526193260.864501637]: Receiving imu data[0m
[0m[ INFO] [1526193260.864548352]: Reveiving New Data Now![0m
[0m[ INFO] [1526193260.864627601]: Sending msg speedl([-0.0175777,-0.00980298,-0.00537702,0,0,0],2,0);$$$speedl([0,0,0,0,0,0],2,0);[0m
[0m[ INFO] [1526193260.897790522]: Receiving imu data[0m
[0m[ INFO] [1526193260.897833682]: Reveiving New Data Now![0m
[0m[ INFO] [1526193260.897928159]: Sending msg speedl([-0.0114095,-0.00757386,-0.0037237,0,0,0],2,0);$$$speedl([0,0,0,0,0,0],2,0);[0m
[0m[ INFO] [1526193260.931217129]: Receiving imu data[0m
[0m[ INFO] [1526193260.931254527]: Reveiving New Data Now![0m
[0m[ INFO] [1526193260.931331973]: Sending msg speedl([-0.0262528,-0.0151756,-0.00742548,0,0,0],2,0);$$$speedl([0,0,0,0,0,0],2,0);[0m
[0m[ INFO] [1526193260.964502019]: Receiving imu data[0m
[0m[ INFO] [1526193260.964557005]: Reveiving New Data Now![0m
[0m[ INFO] [1526193260.964637487]: Sending msg speedl([-0.0362647,-0.0211933,-0.0108555,0,0,0],2,0);$$$speedl([0,0,0,0,0,0],2,0);[0m
[0m[ INFO] [1526193260.997832372]: Receiving imu data[0m
[0m[ INFO] [1526193260.997874174]: Reveiving New Data Now![0m
[0m[ INFO] [1526193260.997956237]: Sending msg speedl([-0.0310111,-0.0168337,-0.00843907,0,0,0],2,0);$$$speedl([0.000118326,0.000118932,0,0,0,0],2,0);[0m
[0m[ INFO] [1526193261.031226768]: Receiving imu data[0m
[0m[ INFO] [1526193261.031265580]: Reveiving New Data Now![0m
[0m[ INFO] [1526193261.031350258]: Sending msg speedl([-0.0337715,-0.0185846,-0.00941756,0,0,0],2,0);$$$speedl([0.000118326,0.000118932,0,0,0,0],2,0);[0m
[0m[ INFO] [1526193261.064536416]: Receiving imu data[0m
[0m[ INFO] [1526193261.064574150]: Reveiving New Data Now![0m
[0m[ INFO] [1526193261.064657738]: Sending msg speedl([-0.0379167,-0.0213473,-0.0110139,0,0,0],2,0);$$$speedl([0.000118326,0.000118932,0,0,0,0],2,0);[0m
[0m[ INFO] [1526193261.097820251]: Receiving imu data[0m
[0m[ INFO] [1526193261.097858304]: Reveiving New Data Now![0m
[0m[ INFO] [1526193261.097934897]: Sending msg speedl([-0.0219816,-0.0114701,-0.00443356,0,0,0],2,0);$$$speedl([0,0.000103759,0,0,0,0],2,0);[0m
[0m[ INFO] [1526193261.131205564]: Receiving imu data[0m
[0m[ INFO] [1526193261.131241927]: Reveiving New Data Now![0m
[0m[ INFO] [1526193261.131327257]: Sending msg speedl([-0.0299652,-0.0169987,-0.00722957,0,0,0],2,0);$$$speedl([0,0.000103759,0,0,0,0],2,0);[0m
[0m[ INFO] [1526193261.164490741]: Receiving imu data[0m
[0m[ INFO] [1526193261.164531163]: Reveiving New Data Now![0m
[0m[ INFO] [1526193261.164611980]: Sending msg speedl([-0.0363162,-0.0214708,-0.00927174,0,0,0],2,0);$$$speedl([0,0.000103759,0,0,0,0],2,0);[0m
